;FLAVOR:Marlin
;TIME:661
;Filament used: 0.0809962m
;Layer height: 0.12
;MINX:93.763
;MINY:93.769
;MINZ:0.12
;MAXX:141.237
;MAXY:141.231
;MAXZ:0.86
;Generated with Cura_SteamEngine 4.6.1
M140 S50
M105
M190 S50
M104 S200
M105
M109 S200
M82 ;absolute extrusion mode
; Ender 3 Custom Start G-code
G92 E0 ; Reset Extruder
G28 ; Home all axes
G1 Z2.0 F3000 ; Move Z Axis up little to prevent scratching of Heat Bed
G1 X0.1 Y20 Z0.3 F5000.0 ; Move to start position
G1 X0.1 Y200.0 Z0.3 F1500.0 E15 ; Draw the first line
G1 X0.4 Y200.0 Z0.3 F5000.0 ; Move to side a little
G1 X0.4 Y20 Z0.3 F1500.0 E30 ; Draw the second line
G92 E0 ; Reset Extruder
G1 Z2.0 F3000 ; Move Z Axis up little to prevent scratching of Heat Bed
G1 X5 Y20 Z0.3 F5000.0 ; Move over to prevent blob squish
G92 E0
G92 E0
G1 F2700 E-5
;LAYER_COUNT:3
;LAYER:0
M107
G1 F300 Z0.62
;MESH:rotary international logo v4 blue.stl
G0 F6000 X132.25 Y131.003 Z0.62
;TYPE:WALL-INNER
G1 F300 Z0.12
G1 F2700 E0
G1 F1200 X132.649 Y131.656 E0.00764
G1 X133.154 Y132.483 E0.0173
G1 X132.492 Y131.776 E0.02216
G1 X131.768 Y131.004 E0.03272
G1 X131.67 Y130.883 E0.03427
G1 X131.585 Y130.812 E0.03538
G1 X131.551 Y130.784 E0.03582
G1 X131.451 Y130.727 E0.03697
G1 X131.464 Y130.713
G1 X131.492 Y130.68 E0.03733
G1 X131.763 Y130.364 E0.04148
G1 X131.805 Y130.314 E0.04214
G1 X131.867 Y130.241 E0.04309
G1 X131.886 Y130.382 E0.04371
G1 X131.919 Y130.439 E0.04424
G1 X132.25 Y131.003 E0.05076
G0 F6000 X132.422 Y130.9
G1 F1200 X133.831 Y133.206 E0.07773
G1 X133.884 Y133.293 E0.07874
G1 X133.923 Y133.386 E0.07975
G1 X133.929 Y133.399 E0.07989
G1 X134.015 Y133.553 E0.08165
G1 X134.025 Y133.571 E0.08186
G1 X134.096 Y133.61 E0.08267
G1 X134.231 Y133.685 E0.08421
G1 X134.265 Y133.704 E0.0846
G1 X134.504 Y133.626 E0.08711
G1 X134.662 Y133.49 E0.08919
G1 X134.522 Y133.642 E0.0893
G1 X134.373 Y133.803 E0.09035
G1 X134.241 Y133.946 E0.09229
G1 X134.165 Y134.028 E0.09341
G1 X134.13 Y134.066 E0.09392
G1 X134.141 Y134.007 E0.09403
G1 X134.139 Y133.852 E0.09486
G1 X134.105 Y133.782 E0.09551
G1 X134.057 Y133.683 E0.09611
G1 X133.988 Y133.605 E0.09654
G1 X133.967 Y133.581
G1 X133.856 Y133.5 E0.09707
G1 X133.783 Y133.446 E0.09778
G1 X133.754 Y133.415 E0.09809
G1 X133.685 Y133.341 E0.09904
G1 X131.622 Y131.141 E0.12914
G1 X131.527 Y131.024 E0.13064
G1 X131.437 Y130.949 E0.13181
G1 X131.316 Y130.881 E0.13319
G1 X131.269 Y130.873 E0.13367
G1 X131.139 Y130.851 E0.13498
G1 X131.037 Y130.877 E0.13604
G1 X131.097 Y130.813 E0.13611
G1 X131.187 Y130.717 E0.13701
G1 X131.315 Y130.58 E0.13888
G1 X131.923 Y129.869 E0.14821
G1 X131.935 Y129.855 E0.1484
G1 X131.975 Y129.808 E0.14901
G1 X131.989 Y129.79 E0.14924
G1 X132.098 Y129.647 E0.15103
G1 X132.215 Y129.495 E0.15295
G1 X132.28 Y129.411 E0.15401
G1 X132.375 Y129.288 E0.15556
G1 X132.435 Y129.21 E0.15654
G1 X132.495 Y129.132 E0.15752
G1 X132.57 Y129.034 E0.15875
G1 X132.604 Y128.99 E0.15931
G1 X132.636 Y128.944 E0.15987
G1 X133.203 Y128.129 E0.16977
G1 X133.355 Y127.886 E0.17263
G1 X133.398 Y127.818 E0.17344
G1 X133.464 Y127.713 E0.17467
G1 X133.535 Y127.601 E0.176
G1 X133.636 Y127.441 E0.17788
G1 X133.684 Y127.365 E0.17878
G1 X133.741 Y127.275 E0.17984
G1 X133.772 Y127.226 E0.18042
G1 X133.803 Y127.172 E0.18104
G1 X133.888 Y127.021 E0.18277
G1 X133.948 Y126.917 E0.18397
G1 X133.951 Y126.911 E0.18404
G1 X134.31 Y126.279 E0.19129
G1 X135.125 Y124.685 E0.20915
G1 X135.222 Y124.542 E0.21088
G1 X135.284 Y124.478 E0.21177
G1 X135.335 Y124.447 E0.21236
G1 X135.372 Y124.437 E0.21275
G1 X135.453 Y124.433 E0.21355
G1 X135.509 Y124.438 E0.21412
G1 X135.574 Y124.448 E0.21477
G1 X135.893 Y124.534 E0.21807
G1 X139.132 Y125.66 E0.25228
G1 X139.207 Y125.699 E0.25313
G1 X139.259 Y125.738 E0.25378
G1 X139.293 Y125.763 E0.2542
G1 X139.324 Y125.803 E0.2547
G1 X139.337 Y125.841 E0.2551
G1 X139.343 Y125.893 E0.25563
G1 X139.331 Y126 E0.2567
G1 X139.294 Y126.123 E0.25798
G1 X138.872 Y127.066 E0.26829
G1 X138.814 Y127.186 E0.26962
G1 X138.768 Y127.282 E0.27068
G1 X138.676 Y127.229 E0.27135
G1 X138.163 Y126.933 E0.27726
G1 X138.053 Y126.883 E0.27847
G1 X137.874 Y126.859 E0.28027
G1 X137.709 Y126.9 E0.28197
G1 X137.579 Y126.989 E0.28354
G1 X137.492 Y127.101 E0.28496
G1 X136.856 Y128.249 E0.29805
G1 X136.809 Y128.335 E0.29903
G1 X136.723 Y128.287 E0.29966
G1 X134.531 Y127.066 E0.3247
G1 X134.441 Y127.032 E0.32566
G1 X134.35 Y127.008 E0.3266
G1 X134.236 Y126.999 E0.32774
G1 X134.122 Y127.011 E0.32888
G1 X134.115 Y127.011 E0.32895
G1 X133.974 Y127.069 E0.33025
G1 X133.838 Y127.191 E0.33102
G1 X133.805 Y127.245 E0.33114
G1 X133.775 Y127.295 E0.33126
G1 X133.73 Y127.393 E0.33152
G1 X133.699 Y127.48 E0.33182
G1 X133.589 Y127.634 E0.33249
G1 X133.54 Y127.76 E0.33302
G1 X133.518 Y127.892 E0.33381
G1 X133.529 Y127.972 E0.33451
G1 X133.538 Y128.038 E0.33517
G1 X133.596 Y128.163 E0.33655
G1 X133.671 Y128.257 E0.33775
G1 X133.762 Y128.334 E0.33894
G1 X133.847 Y128.387 E0.33994
G1 X134.344 Y128.653 E0.34556
G1 X135.809 Y129.479 E0.36234
G1 X136.397 Y129.873 E0.3694
G1 X136.633 Y129.993 E0.37205
G1 X136.727 Y130.03 E0.37305
G1 X136.818 Y130.055 E0.374
G1 X136.911 Y130.074 E0.37494
G1 X136.998 Y130.081 E0.37581
G1 X137.011 Y130.082 E0.37594
G1 X137.118 Y130.077 E0.37701
G1 X137.252 Y130.042 E0.37839
G1 X137.199 Y130.127 E0.37855
G1 X137.167 Y130.178 E0.37872
G1 X137.161 Y130.189 E0.37884
G1 X136.975 Y130.487 E0.38235
G1 X136.944 Y130.537 E0.38293
G1 X136.895 Y130.609 E0.3838
G1 X136.788 Y130.767 E0.38571
G1 X136.823 Y130.561 E0.38626
G1 X136.791 Y130.511 E0.38685
G1 X136.682 Y130.338 E0.38889
G1 X136.508 Y130.262 E0.39079
G1 X136.305 Y130.222 E0.39285
G1 X132.863 Y129.081 E0.42903
G1 X132.74 Y129.111 E0.4303
G1 X132.686 Y129.123 E0.43075
G1 X132.57 Y129.189 E0.43159
G1 X132.492 Y129.253 E0.43207
G1 X132.421 Y129.323 E0.43243
G1 X132.324 Y129.444 E0.43287
G1 X132.265 Y129.533 E0.43318
G1 X132.174 Y129.704 E0.43395
G1 X132.114 Y129.861 E0.43494
G1 X132.107 Y129.879 E0.43505
G1 X132.079 Y129.977 E0.43595
G1 X132.077 Y129.995 E0.43612
G1 X132.063 Y130.079 E0.43697
G1 X132.061 Y130.181 E0.43799
G1 X132.079 Y130.316 E0.43935
G1 X132.422 Y130.9 E0.44611
G1 F2700 E-4.55389
G1 F300 Z0.62
G0 F6000 X136.892 Y128.598 Z0.62
;TYPE:WALL-OUTER
G1 F300 Z0.12
G1 F2700 E0.44611
G1 F1200 X136.876 Y128.596 E0.44627
G1 X136.837 Y128.58 E0.44669
G1 X134.446 Y127.248 E0.474
G1 X134.38 Y127.223 E0.4747
G1 X134.316 Y127.206 E0.47536
G1 X134.238 Y127.2 E0.47614
G1 X134.164 Y127.207 E0.47689
G1 X134.082 Y127.241 E0.47777
G1 X133.994 Y127.32 E0.47895
G1 X133.952 Y127.389 E0.47976
G1 X133.915 Y127.469 E0.48064
G1 X133.878 Y127.572 E0.48173
G1 X133.767 Y127.729 E0.48365
G1 X133.734 Y127.814 E0.48456
G1 X133.72 Y127.895 E0.48538
G1 X133.732 Y127.981 E0.48624
G1 X133.767 Y128.057 E0.48708
G1 X133.815 Y128.117 E0.48785
G1 X133.88 Y128.172 E0.4887
G1 X133.947 Y128.214 E0.48948
G1 X134.442 Y128.479 E0.49509
G1 X135.914 Y129.309 E0.51195
G1 X136.498 Y129.7 E0.51896
G1 X136.715 Y129.81 E0.52139
G1 X136.791 Y129.84 E0.5222
G1 X136.865 Y129.861 E0.52297
G1 X136.939 Y129.876 E0.52372
G1 X137.014 Y129.882 E0.52448
G1 X137.091 Y129.878 E0.52525
G1 X137.166 Y129.861 E0.52601
G1 X137.242 Y129.832 E0.52682
G1 X137.314 Y129.792 E0.52765
G1 X137.378 Y129.744 E0.52844
G1 X137.437 Y129.691 E0.52924
G1 X137.493 Y129.629 E0.53007
G1 X137.59 Y129.497 E0.5317
G1 X137.736 Y129.225 E0.53478
G1 X137.992 Y128.681 E0.54078
G1 X138.673 Y127.459 E0.55474
G1 X138.071 Y127.111 E0.56168
G1 X137.997 Y127.077 E0.56249
G1 X137.885 Y127.062 E0.56362
G1 X137.792 Y127.085 E0.56458
G1 X137.718 Y127.136 E0.56547
G1 X137.66 Y127.211 E0.56642
G1 X136.892 Y128.598 E0.58224
G1 F2700 E-4.41776
G1 F300 Z0.62
G0 F6000 X135.199 Y132.564 Z0.62
;TYPE:WALL-INNER
G1 F300 Z0.12
G1 F2700 E0.58224
G1 F1200 X135.189 Y132.545 E0.58245
G1 X135.123 Y132.453 E0.58358
G1 X135.08 Y132.393 E0.58432
G1 X135.055 Y132.341 E0.58489
G1 X135.059 Y132.327 E0.58504
G1 X135.109 Y132.253 E0.58593
G1 X135.452 Y131.84 E0.59129
G1 X135.643 Y131.598 E0.59436
G1 X135.672 Y131.574 E0.59474
G1 X135.684 Y131.573 E0.59486
G1 X135.723 Y131.583 E0.59526
G1 X135.796 Y131.616 E0.59606
G1 X135.909 Y131.668 E0.5973
G1 X135.833 Y131.767 E0.59806
G1 X135.454 Y132.259 E0.60426
G1 X135.272 Y132.477 E0.60709
G1 X135.199 Y132.564 E0.60782
G0 F6000 X135.018 Y132.649
G1 F1200 X134.907 Y132.495 E0.60972
G1 X134.858 Y132.394 E0.61084
G1 X134.85 Y132.329 E0.61149
G1 X134.871 Y132.254 E0.61227
G1 X134.893 Y132.214 E0.61272
G1 X134.955 Y132.125 E0.61381
G1 X135.297 Y131.714 E0.61914
G1 X135.5 Y131.456 E0.62242
G1 X135.572 Y131.397 E0.62334
G1 X135.621 Y131.376 E0.62388
G1 X135.701 Y131.372 E0.62468
G1 X135.784 Y131.392 E0.62553
G1 X135.87 Y131.427 E0.62645
G1 X135.974 Y131.477 E0.62761
G1 X136.07 Y131.494 E0.62858
G1 X136.145 Y131.507 E0.62934
G1 X136.313 Y131.451 E0.6311
G1 X136.229 Y131.567 E0.6314
G1 X136.185 Y131.628 E0.632
G1 X136.065 Y131.793 E0.63404
G1 X135.607 Y132.388 E0.64153
G1 X135.221 Y132.847 E0.64751
G1 X135.2 Y132.872 E0.64784
G1 X135.121 Y132.967 E0.64907
G1 X135.062 Y133.038 E0.64999
G1 X135.089 Y132.941 E0.65015
G1 X135.081 Y132.773 E0.65113
G1 X135.067 Y132.744 E0.65143
G1 X135.018 Y132.649 E0.65249
G0 F6000 X134.286 Y133.487
;TYPE:WALL-OUTER
G1 F1200 X134.402 Y133.449 E0.65371
G1 X134.462 Y133.395 E0.65452
G1 X134.721 Y133.185 E0.65784
G1 X134.776 Y133.13 E0.65862
G1 X134.828 Y133.069 E0.65942
G1 X134.865 Y133.002 E0.66018
G1 X134.888 Y132.919 E0.66104
G1 X134.883 Y132.825 E0.66198
G1 X134.847 Y132.753 E0.66278
G1 X134.736 Y132.601 E0.66466
G1 X134.668 Y132.461 E0.66622
G1 X134.651 Y132.373 E0.66711
G1 X134.649 Y132.319 E0.66765
G1 X134.657 Y132.264 E0.6682
G1 X134.671 Y132.214 E0.66872
G1 X134.69 Y132.168 E0.66922
G1 X134.723 Y132.107 E0.66991
G1 X134.795 Y132.004 E0.67116
G1 X135.141 Y131.589 E0.67656
G1 X135.316 Y131.362 E0.67942
G1 X135.361 Y131.313 E0.68008
G1 X135.418 Y131.262 E0.68084
G1 X135.468 Y131.226 E0.68146
G1 X135.523 Y131.198 E0.68207
G1 X135.582 Y131.179 E0.68269
G1 X135.683 Y131.169 E0.6837
G1 X135.732 Y131.174 E0.6842
G1 X135.848 Y131.202 E0.68539
G1 X135.958 Y131.247 E0.68657
G1 X136.036 Y131.285 E0.68744
G1 X136.13 Y131.301 E0.68839
G1 X136.221 Y131.271 E0.68935
G1 X136.284 Y131.226 E0.69012
G1 X136.343 Y131.163 E0.69098
G1 X136.391 Y131.101 E0.69176
G1 X136.43 Y131.036 E0.69252
G1 X136.594 Y130.716 E0.69611
G1 X136.613 Y130.603 E0.69725
G1 X136.546 Y130.497 E0.6985
G1 X136.448 Y130.454 E0.69957
G1 X136.251 Y130.415 E0.70157
G1 X132.854 Y129.289 E0.73728
G1 X132.76 Y129.311 E0.73824
G1 X132.684 Y129.354 E0.73912
G1 X132.626 Y129.402 E0.73987
G1 X132.57 Y129.457 E0.74065
G1 X132.486 Y129.562 E0.74199
G1 X132.437 Y129.636 E0.74288
G1 X132.356 Y129.787 E0.74459
G1 X132.297 Y129.942 E0.74624
G1 X132.275 Y130.02 E0.74705
G1 X132.263 Y130.097 E0.74783
G1 X132.261 Y130.17 E0.74856
G1 X132.272 Y130.249 E0.74935
G1 X132.594 Y130.797 E0.75569
G1 X134.062 Y133.2 E0.78379
G1 X134.109 Y133.311 E0.78499
G1 X134.172 Y133.424 E0.78629
G1 X134.286 Y133.487 E0.78759
G0 F6000 X134.266 Y133.706
G1 F2700 E-4.21241
G1 F300 Z0.62
G0 F6000 X130.402 Y132.267 Z0.62
;TYPE:WALL-INNER
G1 F300 Z0.12
G1 F2700 E0.78759
G1 F1200 X130.267 Y132.224 E0.789
G1 X130.172 Y132.194 E0.78999
G1 X130.02 Y132.144 E0.79159
G1 X130.181 Y132.002 E0.79289
G1 X130.203 Y131.983 E0.79318
G1 X130.215 Y131.973 E0.79333
G1 X130.23 Y132.013 E0.79351
G1 X130.296 Y132.132 E0.79453
G1 X130.402 Y132.267 E0.79511
G0 F6000 X130.554 Y132.136
G1 F1200 X130.804 Y132.402 E0.79875
G1 X130.805 Y132.403 E0.79877
G1 X131.05 Y132.665 E0.80234
G1 X130.704 Y132.566 E0.80421
G1 X130.407 Y132.48 E0.80729
G1 X129.912 Y132.319 E0.81248
G1 X129.829 Y132.303 E0.81333
G1 X129.807 Y132.299 E0.81355
G1 X129.711 Y132.293 E0.81451
G1 X129.618 Y132.295 E0.81544
G1 X129.531 Y132.307 E0.81631
G1 X129.585 Y132.259 E0.81636
G1 X129.639 Y132.212 E0.8168
G1 X129.69 Y132.167 E0.81712
G1 X129.707 Y132.152 E0.81734
G1 X130.144 Y131.769 E0.82313
G1 X130.215 Y131.699 E0.82413
G1 X130.286 Y131.63 E0.82512
G1 X130.366 Y131.551 E0.82624
G1 X130.377 Y131.541 E0.82639
G1 X130.371 Y131.555
G1 X130.355 Y131.699 E0.82693
G1 X130.37 Y131.797 E0.8277
G1 X130.375 Y131.829 E0.82802
G1 X130.412 Y131.929 E0.82908
G1 X130.463 Y132.021 E0.83013
G1 X130.554 Y132.136 E0.8316
G1 F2700 E-4.1684
G1 F300 Z0.62
G0 F6000 X128.75 Y132.932 Z0.62
G1 F300 Z0.12
G1 F2700 E0.8316
G1 F1200 X128.745 Y132.944 E0.83173
G1 X128.734 Y133.038 E0.83267
G1 X128.727 Y133.096 E0.83325
G1 X128.737 Y133.159 E0.83389
G1 X128.749 Y133.234 E0.83465
G1 X128.803 Y133.351 E0.83593
G1 X128.875 Y133.446 E0.83712
G1 X129.047 Y133.625 E0.8396
G1 X130.837 Y136.049 E0.86967
G1 X130.887 Y136.156 E0.87084
G1 X130.942 Y136.241 E0.87186
G1 X131.02 Y136.32 E0.87296
G1 X131.135 Y136.398 E0.87435
G1 X131.138 Y136.4 E0.87439
G1 X131.298 Y136.433 E0.87602
G1 X131.365 Y136.427 E0.87669
G1 X131.44 Y136.42 E0.87744
G1 X131.37 Y136.474 E0.87763
G1 X131.341 Y136.494 E0.87763
G1 X131.249 Y136.558 E0.87848
G1 X131.246 Y136.56 E0.87852
G1 X130.466 Y137.101 E0.88799
G1 X129.649 Y137.61 E0.8976
G1 X129.53 Y137.684 E0.89899
G1 X129.514 Y137.694 E0.89918
G1 X129.35 Y137.785 E0.90105
G1 X129.167 Y137.887 E0.90314
G1 X129.32 Y137.732 E0.90352
G1 X129.416 Y137.615 E0.90414
G1 X129.456 Y137.566 E0.90463
G1 X129.535 Y137.45 E0.90583
G1 X129.578 Y137.386 E0.9066
G1 X129.68 Y137.197 E0.90874
G1 X129.729 Y137.09 E0.90992
G1 X129.804 Y136.886 E0.91208
G1 X129.86 Y136.669 E0.91432
G1 X129.894 Y136.45 E0.91653
G1 X129.904 Y136.332 E0.91771
G1 X129.907 Y136.212 E0.91891
G1 X129.898 Y135.988 E0.92115
G1 X129.865 Y135.765 E0.9234
G1 X129.812 Y135.553 E0.92558
G1 X129.775 Y135.441 E0.92675
G1 X129.693 Y135.247 E0.92886
G1 X129.641 Y135.144 E0.93001
G1 X129.53 Y134.961 E0.93214
G1 X129.403 Y134.791 E0.93426
G1 X129.327 Y134.703 E0.93542
G1 X129.176 Y134.554 E0.93754
G1 X129.011 Y134.417 E0.93968
G1 X128.831 Y134.295 E0.94185
G1 X128.644 Y134.194 E0.94397
G1 X128.537 Y134.144 E0.94515
G1 X128.331 Y134.069 E0.94733
G1 X128.119 Y134.015 E0.94952
G1 X128.002 Y133.993 E0.9507
G1 X127.774 Y133.969 E0.95299
G1 X127.591 Y133.968 E0.95482
G1 X127.545 Y133.968 E0.95528
G1 X127.476 Y133.974 E0.95597
G1 X127.318 Y133.989 E0.95755
G1 X127.101 Y134.032 E0.95976
G1 X127.28 Y133.926 E0.96011
G1 X127.461 Y133.819 E0.96144
G1 X127.499 Y133.794 E0.96186
G1 X128.094 Y133.406 E0.96895
G1 X128.578 Y133.063 E0.97487
G1 X128.63 Y133.026 E0.97538
G1 X128.656 Y133.006 E0.97542
G1 X128.741 Y132.939 E0.97578
G1 X128.75 Y132.932
G0 F6000 X128.567 Y133.316
G1 F1200 X128.631 Y133.455 E0.9773
G1 X128.723 Y133.576 E0.97882
G1 X128.893 Y133.754 E0.98128
G1 X129.066 Y133.988 E0.98418
G1 X129.084 Y134.013 E0.98449
G1 X129.217 Y134.192 E0.98671
G1 X129.352 Y134.374 E0.98897
G1 X129.486 Y134.556 E0.99123
G1 X129.564 Y134.661 E0.99253
G1 X129.7 Y134.845 E0.99482
G1 X129.837 Y135.031 E0.99712
G1 X129.913 Y135.134 E0.9984
G1 X130.043 Y135.31 E1.00058
G1 X130.118 Y135.412 E1.00185
G1 X130.202 Y135.527 E1.00327
G1 X130.665 Y136.153 E1.01104
G1 X130.712 Y136.253 E1.01214
G1 X130.785 Y136.367 E1.01349
G1 X130.839 Y136.422 E1.01426
G1 X130.891 Y136.475 E1.015
G1 X130.956 Y136.518 E1.01578
G1 X130.933 Y136.534
G1 X130.872 Y136.576 E1.01634
G1 X130.36 Y136.931 E1.02255
G1 X130.11 Y137.087 E1.02549
G1 X130.091 Y137.099 E1.02572
G1 X129.934 Y137.197 E1.02756
G1 X129.887 Y137.226 E1.02812
G1 X129.914 Y137.166 E1.02824
G1 X129.995 Y136.946 E1.02968
G1 X130 Y136.924 E1.02989
G1 X130.056 Y136.709 E1.03211
G1 X130.093 Y136.474 E1.03448
G1 X130.104 Y136.343 E1.03579
G1 X130.107 Y136.21 E1.03712
G1 X130.097 Y135.969 E1.03953
G1 X130.061 Y135.726 E1.04198
G1 X130.038 Y135.636 E1.04291
G1 X130.004 Y135.497 E1.04413
G1 X129.962 Y135.371 E1.04504
G1 X129.875 Y135.163 E1.04598
G1 X129.816 Y135.047 E1.04626
G1 X129.696 Y134.849 E1.04646
G1 X129.559 Y134.666 E1.04653
G1 X129.473 Y134.566 E1.0466
G1 X129.31 Y134.406 E1.04701
G1 X129.131 Y134.257 E1.04796
G1 X128.935 Y134.124 E1.04972
G1 X128.908 Y134.11 E1.05001
G1 X128.734 Y134.015 E1.05199
G1 X128.614 Y133.959 E1.05331
G1 X128.39 Y133.878 E1.05569
G1 X128.162 Y133.82 E1.05804
G1 X128.031 Y133.795 E1.05937
G1 X127.887 Y133.78 E1.06081
G1 X127.981 Y133.719 E1.061
