;FLAVOR:Marlin
;TIME:527
;Filament used: 0.0677133m
;Layer height: 0.12
;MINX:91.407
;MINY:90.633
;MINZ:0.12
;MAXX:143.593
;MAXY:143.622
;MAXZ:0.24
;Generated with Cura_SteamEngine 4.6.1
M140 S50
M105
M190 S50
M104 S200
M105
M109 S200
M82 ;absolute extrusion mode
; Ender 3 Custom Start G-code
G92 E0 ; Reset Extruder
G28 ; Home all axes
G1 Z2.0 F3000 ; Move Z Axis up little to prevent scratching of Heat Bed
G1 X0.1 Y20 Z0.3 F5000.0 ; Move to start position
G1 X0.1 Y200.0 Z0.3 F1500.0 E15 ; Draw the first line
G1 X0.4 Y200.0 Z0.3 F5000.0 ; Move to side a little
G1 X0.4 Y20 Z0.3 F1500.0 E30 ; Draw the second line
G92 E0 ; Reset Extruder
G1 Z2.0 F3000 ; Move Z Axis up little to prevent scratching of Heat Bed
G1 X5 Y20 Z0.3 F5000.0 ; Move over to prevent blob squish
G92 E0
G92 E0
G1 F2700 E-10
;LAYER_COUNT:2
;LAYER:0
M107
;MESH:logoBlue.stl
G0 F6000 X107.731 Y139.501 Z0.12
;TYPE:WALL-INNER
G1 F2700 E0
G1 F1200 X107.882 Y139.501 E0.00151
G1 X108.035 Y139.131 E0.0055
G1 X107.891 Y138.987 E0.00753
G1 X107.897 Y138.953 E0.00788
G1 X107.914 Y138.728 E0.01013
G1 X107.865 Y138.549 E0.01198
G1 X107.84 Y138.432 E0.01318
G1 X107.837 Y138.382 E0.01368
G1 X107.845 Y138.345 E0.01405
G1 X107.866 Y138.304 E0.01451
G1 X107.996 Y138.192 E0.01622
G1 X108.378 Y137.975 E0.02061
G1 X108.533 Y137.877 E0.02244
G1 X108.649 Y137.784 E0.02392
G1 X108.786 Y137.642 E0.02589
G1 X109.053 Y137.445 E0.0292
G1 X109.227 Y137.225 E0.032
G1 X109.113 Y136.942 E0.03504
G1 X108.982 Y136.847 E0.03666
G1 X108.579 Y136.573 E0.04152
G1 X108.441 Y136.519 E0.043
G1 X108.326 Y136.493 E0.04418
G1 X108.207 Y136.484 E0.04537
G1 X108.096 Y136.494 E0.04648
G1 X107.986 Y136.521 E0.04761
G1 X107.866 Y136.576 E0.04893
G1 X107.781 Y136.627 E0.04992
G1 X107.276 Y136.992 E0.05613
G1 X106.805 Y137.353 E0.06205
G1 X106.786 Y137.353 E0.06224
G1 X106.729 Y137.337 E0.06283
G1 X106.623 Y137.293 E0.06398
G1 X106.603 Y137.285 E0.06419
G1 X106.527 Y137.242 E0.06507
G1 X106.489 Y137.213 E0.06554
G1 X106.494 Y137.199 E0.06569
G1 X106.526 Y137.139 E0.06637
G1 X106.539 Y137.122 E0.06658
G1 X106.625 Y137.01 E0.06799
G1 X106.79 Y136.752 E0.07105
G1 X106.861 Y136.628 E0.07247
G1 X106.939 Y136.459 E0.07433
G1 X106.994 Y136.292 E0.07609
G1 X107.015 Y136.137 E0.07765
G1 X107.011 Y135.974 E0.07927
G1 X106.962 Y135.817 E0.08091
G1 X106.882 Y135.684 E0.08246
G1 X106.779 Y135.574 E0.08397
G1 X106.777 Y135.572 E0.08399
G1 X106.656 Y135.483 E0.08549
G1 X106.529 Y135.412 E0.08695
G1 X106.503 Y135.4 E0.08723
G1 X106.377 Y135.343 E0.08861
G1 X106.136 Y135.267 E0.09113
G1 X105.949 Y135.265 E0.093
G1 X105.765 Y135.376 E0.09514
G1 X105.388 Y136.039 E0.10275
G1 X105.167 Y136.224 E0.10563
G1 X105.213 Y136.354 E0.107
G1 X104.483 Y137.657 E0.12191
G1 X104.278 Y137.853 E0.12474
G1 X104.285 Y137.878 E0.125
G1 X104.311 Y137.96 E0.12585
G1 X104.128 Y138.284 E0.12957
G1 X103.906 Y138.49 E0.13259
G1 X103.949 Y138.6 E0.13377
G1 X103.81 Y138.85 E0.13662
G1 X103.762 Y138.995 E0.13815
G1 X103.769 Y139.187 E0.14006
G1 X103.81 Y139.259 E0.14089
G1 X103.865 Y139.354 E0.14199
G1 X103.89 Y139.374 E0.1423
G1 X103.984 Y139.451 E0.14352
G1 X104.077 Y139.507 E0.1446
G1 X104.71 Y139.855 E0.15181
G1 X105.093 Y140.065 E0.15617
G1 X105.558 Y140.308 E0.1614
G1 X105.772 Y140.42 E0.16381
G1 X105.891 Y140.468 E0.16509
G1 X106.046 Y140.51 E0.16669
G1 X106.06 Y140.514 E0.16684
G1 X106.213 Y140.53 E0.16837
G1 X106.38 Y140.53 E0.17004
G1 X106.432 Y140.522 E0.17057
G1 X106.467 Y140.515 E0.17092
G1 X106.676 Y140.469 E0.17306
G1 X106.763 Y140.436 E0.17399
G1 X106.961 Y140.343 E0.17617
G1 X107.035 Y140.298 E0.17703
G1 X107.277 Y140.118 E0.18004
G1 X107.501 Y139.882 E0.18329
G1 X107.692 Y139.591 E0.18676
G1 X107.731 Y139.501 E0.18774
G0 F6000 X107.601 Y139.301
;TYPE:WALL-OUTER
G1 F1200 X107.748 Y139.301 E0.18921
G1 X107.799 Y139.178 E0.19054
G1 X107.675 Y139.054 E0.19229
G1 X107.698 Y138.927 E0.19357
G1 X107.712 Y138.747 E0.19537
G1 X107.669 Y138.591 E0.19699
G1 X107.641 Y138.46 E0.19833
G1 X107.636 Y138.371 E0.19922
G1 X107.653 Y138.284 E0.2001
G1 X107.684 Y138.215 E0.20085
G1 X107.719 Y138.168 E0.20144
G1 X107.854 Y138.047 E0.20325
G1 X107.892 Y138.021 E0.20371
G1 X108.275 Y137.803 E0.20811
G1 X108.417 Y137.714 E0.20978
G1 X108.514 Y137.636 E0.21102
G1 X108.654 Y137.491 E0.21303
G1 X108.913 Y137.3 E0.21624
G1 X108.998 Y137.192 E0.21761
G1 X108.949 Y137.07 E0.21892
G1 X108.867 Y137.011 E0.21993
G1 X108.485 Y136.751 E0.22454
G1 X108.382 Y136.711 E0.22565
G1 X108.296 Y136.691 E0.22653
G1 X108.209 Y136.685 E0.2274
G1 X108.129 Y136.692 E0.2282
G1 X108.052 Y136.711 E0.22899
G1 X107.959 Y136.753 E0.23001
G1 X107.891 Y136.794 E0.2308
G1 X107.396 Y137.152 E0.2369
G1 X106.905 Y137.529 E0.24307
G1 X106.871 Y137.547 E0.24346
G1 X106.841 Y137.555 E0.24377
G1 X106.756 Y137.552 E0.24461
G1 X106.661 Y137.525 E0.2456
G1 X106.518 Y137.466 E0.24714
G1 X106.415 Y137.408 E0.24832
G1 X106.354 Y137.362 E0.24909
G1 X106.323 Y137.328 E0.24954
G1 X106.301 Y137.292 E0.24997
G1 X106.291 Y137.264 E0.25026
G1 X106.286 Y137.21 E0.2508
G1 X106.291 Y137.17 E0.25121
G1 X106.31 Y137.118 E0.25176
G1 X106.357 Y137.031 E0.25274
G1 X106.461 Y136.895 E0.25445
G1 X106.619 Y136.649 E0.25737
G1 X106.683 Y136.536 E0.25867
G1 X106.753 Y136.386 E0.26032
G1 X106.798 Y136.247 E0.26178
G1 X106.815 Y136.126 E0.26299
G1 X106.812 Y136.007 E0.26418
G1 X106.778 Y135.9 E0.2653
G1 X106.721 Y135.805 E0.26641
G1 X106.644 Y135.722 E0.26754
G1 X106.548 Y135.652 E0.26872
G1 X106.439 Y135.591 E0.26997
G1 X106.305 Y135.53 E0.27144
G1 X106.104 Y135.467 E0.27354
G1 X106.003 Y135.466 E0.27455
G1 X105.913 Y135.52 E0.2756
G1 X105.544 Y136.17 E0.28305
G1 X105.402 Y136.288 E0.2849
G1 X105.432 Y136.372 E0.28579
G1 X104.642 Y137.782 E0.30191
G1 X104.506 Y137.912 E0.30379
G1 X104.528 Y137.983 E0.30453
G1 X104.286 Y138.411 E0.30944
G1 X104.142 Y138.544 E0.31139
G1 X104.17 Y138.616 E0.31216
G1 X103.994 Y138.931 E0.31576
G1 X103.963 Y139.024 E0.31674
G1 X103.967 Y139.13 E0.3178
G1 X104.02 Y139.222 E0.31886
G1 X104.1 Y139.287 E0.31989
G1 X104.177 Y139.334 E0.32079
G1 X105.187 Y139.889 E0.33229
G1 X105.856 Y140.238 E0.33982
G1 X105.955 Y140.278 E0.34088
G1 X106.097 Y140.317 E0.34235
G1 X106.223 Y140.33 E0.34362
G1 X106.363 Y140.33 E0.34501
G1 X106.429 Y140.319 E0.34568
G1 X106.619 Y140.277 E0.34762
G1 X106.685 Y140.252 E0.34833
G1 X106.867 Y140.166 E0.35034
G1 X106.924 Y140.132 E0.351
G1 X107.144 Y139.968 E0.35374
G1 X107.344 Y139.757 E0.35664
G1 X107.516 Y139.495 E0.35976
G1 X107.601 Y139.301 E0.36188
G0 F6000 X107.721 Y139.484
G0 X108.266 Y139.159
G0 X109.094 Y138.444
;TYPE:WALL-INNER
G1 F1200 X108.677 Y138.861 E0.36776
G1 X108.738 Y139.005 E0.36932
G1 X108.706 Y139.069 E0.37004
G1 X108.614 Y139.336 E0.37285
G1 X108.54 Y139.679 E0.37635
G1 X108.521 Y140.032 E0.37988
G1 X108.537 Y140.272 E0.38228
G1 X108.564 Y140.449 E0.38407
G1 X108.626 Y140.697 E0.38662
G1 X108.698 Y140.895 E0.38872
G1 X108.795 Y141.099 E0.39098
G1 X108.946 Y141.34 E0.39381
G1 X109.05 Y141.477 E0.39553
G1 X109.235 Y141.678 E0.39826
G1 X109.437 Y141.849 E0.4009
G1 X109.579 Y141.953 E0.40265
G1 X109.631 Y141.983 E0.40325
G1 X109.784 Y142.07 E0.40501
G1 X109.811 Y142.086 E0.40532
G1 X109.97 Y142.16 E0.40707
G1 X110.219 Y142.249 E0.40971
G1 X110.488 Y142.31 E0.41246
G1 X110.576 Y142.322 E0.41335
G1 X110.667 Y142.336 E0.41427
G1 X110.905 Y142.347 E0.41664
G1 X110.913 Y142.348 E0.41672
G1 X111.137 Y142.338 E0.41896
G1 X111.425 Y142.292 E0.42187
G1 X111.656 Y142.229 E0.42426
G1 X111.824 Y142.167 E0.42605
G1 X112.076 Y142.045 E0.42884
G1 X112.286 Y141.91 E0.43133
G1 X112.47 Y141.765 E0.43367
G1 X112.598 Y141.647 E0.43541
G1 X112.78 Y141.441 E0.43815
G1 X112.882 Y141.298 E0.4399
G1 X112.998 Y141.107 E0.44213
G1 X113.122 Y140.842 E0.44505
G1 X113.197 Y140.621 E0.44738
G1 X113.252 Y140.379 E0.44986
G1 X113.275 Y140.198 E0.45168
G1 X113.287 Y139.918 E0.45447
G1 X113.27 Y139.681 E0.45684
G1 X113.238 Y139.496 E0.45872
G1 X113.164 Y139.226 E0.46151
G1 X113.097 Y139.06 E0.4633
G1 X112.963 Y138.795 E0.46626
G1 X112.869 Y138.647 E0.46801
G1 X112.714 Y138.444 E0.47056
G1 X112.523 Y138.248 E0.47329
G1 X112.392 Y138.13 E0.47505
G1 X112.193 Y137.986 E0.4775
G1 X112.044 Y137.895 E0.47924
G1 X111.789 Y137.772 E0.48207
G1 X111.623 Y137.71 E0.48383
G1 X111.349 Y137.636 E0.48667
G1 X111.17 Y137.608 E0.48847
G1 X110.886 Y137.591 E0.49131
G1 X110.586 Y137.611 E0.49431
G1 X110.285 Y137.672 E0.49738
G1 X110.052 Y137.751 E0.49983
G1 X109.964 Y137.787 E0.50078
G1 X109.723 Y137.909 E0.50348
G1 X109.478 Y138.072 E0.50641
G1 X109.258 Y138.262 E0.50931
G1 X109.094 Y138.444 E0.51176
G0 F6000 X109.136 Y138.715
;TYPE:WALL-OUTER
G1 F1200 X109.121 Y138.7 E0.51197
G1 X108.913 Y138.908 E0.5149
G1 X108.957 Y139.013 E0.51604
G1 X108.891 Y139.146 E0.51752
G1 X108.807 Y139.39 E0.5201
G1 X108.739 Y139.706 E0.52332
G1 X108.721 Y140.031 E0.52657
G1 X108.736 Y140.25 E0.52876
G1 X108.76 Y140.41 E0.53037
G1 X108.817 Y140.638 E0.53272
G1 X108.883 Y140.817 E0.53462
G1 X108.971 Y141.003 E0.53668
G1 X109.111 Y141.226 E0.5393
G1 X109.204 Y141.349 E0.54084
G1 X109.374 Y141.533 E0.54334
G1 X109.561 Y141.692 E0.54579
G1 X109.688 Y141.785 E0.54736
G1 X109.903 Y141.908 E0.54983
G1 X110.046 Y141.975 E0.55141
G1 X110.275 Y142.057 E0.55384
G1 X110.525 Y142.113 E0.55639
G1 X110.687 Y142.137 E0.55803
G1 X110.913 Y142.148 E0.56028
G1 X111.117 Y142.139 E0.56232
G1 X111.383 Y142.096 E0.56501
G1 X111.595 Y142.038 E0.5672
G1 X111.746 Y141.983 E0.56881
G1 X111.978 Y141.87 E0.57138
G1 X112.17 Y141.747 E0.57366
G1 X112.34 Y141.613 E0.57582
G1 X112.455 Y141.507 E0.57738
G1 X112.623 Y141.316 E0.57991
G1 X112.715 Y141.188 E0.58149
G1 X112.821 Y141.013 E0.58353
G1 X112.936 Y140.767 E0.58624
G1 X113.004 Y140.566 E0.58836
G1 X113.055 Y140.344 E0.59063
G1 X113.076 Y140.181 E0.59227
G1 X113.087 Y139.921 E0.59487
G1 X113.071 Y139.705 E0.59703
G1 X113.043 Y139.539 E0.59871
G1 X112.974 Y139.29 E0.60128
G1 X112.915 Y139.142 E0.60287
G1 X112.789 Y138.894 E0.60565
G1 X112.705 Y138.762 E0.60721
G1 X112.562 Y138.575 E0.60956
G1 X112.384 Y138.392 E0.61211
G1 X112.266 Y138.286 E0.61369
G1 X112.082 Y138.153 E0.61596
G1 X111.948 Y138.071 E0.61752
G1 X111.711 Y137.956 E0.62015
G1 X111.562 Y137.901 E0.62174
G1 X111.307 Y137.832 E0.62437
G1 X111.148 Y137.807 E0.62598
G1 X110.887 Y137.791 E0.62859
G1 X110.613 Y137.81 E0.63133
G1 X110.337 Y137.866 E0.63414
G1 X110.122 Y137.938 E0.6364
G1 X110.048 Y137.969 E0.6372
G1 X109.824 Y138.082 E0.6397
G1 X109.599 Y138.232 E0.6424
G1 X109.398 Y138.405 E0.64505
G1 X109.203 Y138.621 E0.64795
G1 X109.136 Y138.715 E0.6491
G0 F6000 X109.065 Y138.446
G0 X109.99 Y137.842
G0 X110.595 Y137.672
G0 X111.336 Y137.695
G0 X118.183 Y138.728
G0 X118.395 Y138.883
G0 X118.447 Y138.997
G0 X120.193 Y138.926
G0 X120.1 Y138.7
G0 X120.496 Y138.346
G0 X121.223 Y138.322
G0 X121.375 Y138.364
G0 X122.259 Y139.221
G0 X123.19 Y142.295
G0 X123.441 Y142.473
G0 X123.77 Y142.434
G0 X125.715 Y141.804
G0 X125.971 Y141.601
G0 X127.37 Y139.522
G0 X127.371 Y139.523
;TYPE:WALL-INNER
G1 F1200 X127.043 Y139.851 E0.65373
G1 X127.196 Y140.221 E0.65773
G1 X127.226 Y140.221 E0.65803
G1 X127.221 Y140.296 E0.65845
G1 X127.147 Y140.666 E0.66221
G1 X127.135 Y140.835 E0.6639
G1 X127.252 Y141.13 E0.66707
G1 X127.519 Y141.152 E0.66974
G1 X127.534 Y141.153 E0.66989
G1 X127.808 Y141.113 E0.67266
G1 X127.855 Y141.101 E0.67314
G1 X128.039 Y141.054 E0.67504
G1 X128.18 Y140.999 E0.67655
G1 X128.345 Y140.896 E0.67849
G1 X128.45 Y140.803 E0.67989
G1 X128.533 Y140.698 E0.68122
G1 X128.549 Y140.671 E0.68153
G1 X128.59 Y140.599 E0.68236
G1 X128.649 Y140.452 E0.68394
G1 X128.687 Y140.202 E0.68646
G1 X128.802 Y139.521 E0.69336
G1 X128.821 Y139.292 E0.69565
G1 X128.829 Y139.179 E0.69678
G1 X128.831 Y139.164 E0.69693
G1 X128.878 Y139.182 E0.69719
G1 X128.978 Y139.235 E0.69796
G1 X129.024 Y139.26 E0.69849
G1 X129.501 Y139.471 E0.70369
G1 X129.888 Y139.681 E0.70808
G1 X130.103 Y139.743 E0.71032
G1 X130.262 Y139.749 E0.7119
G1 X130.321 Y139.75 E0.71249
G1 X130.529 Y139.706 E0.71461
G1 X130.652 Y139.647 E0.71598
G1 X130.806 Y139.573 E0.71768
G1 X131.181 Y139.336 E0.72211
G1 X131.336 Y139.189 E0.72424
G1 X131.336 Y139.111 E0.72502
G1 X131.336 Y138.879 E0.72733
G1 X131.168 Y138.723 E0.72962
G1 X131.085 Y138.684 E0.73053
G1 X130.728 Y138.327 E0.73557
G1 X130.598 Y138.457 E0.73741
G1 X130.416 Y138.376 E0.73939
G1 X130.112 Y138.272 E0.7426
G1 X129.787 Y138.134 E0.74612
G1 X129.602 Y138.04 E0.74819
G1 X129.496 Y137.978 E0.74942
G1 X129.259 Y137.828 E0.75222
G1 X129.05 Y137.666 E0.75486
G1 X128.866 Y137.495 E0.75736
G1 X128.683 Y137.289 E0.76011
G1 X128.529 Y137.08 E0.7627
G1 X128.495 Y137.022 E0.76337
G1 X128.328 Y136.715 E0.76686
G1 X128.319 Y136.7 E0.76703
G1 X128.122 Y136.178 E0.7726
G1 X128.065 Y136.07 E0.77382
G1 X127.934 Y135.948 E0.77561
G1 X127.767 Y135.9 E0.77734
G1 X127.645 Y135.905 E0.77856
G1 X127.637 Y135.907 E0.77864
G1 X127.534 Y135.924 E0.77968
G1 X127.349 Y135.989 E0.78164
G1 X127.161 Y136.105 E0.78384
G1 X127.134 Y136.132 E0.78422
G1 X127.056 Y136.211 E0.78533
G1 X127.017 Y136.251 E0.78589
G1 X126.904 Y136.418 E0.7879
G1 X126.837 Y136.603 E0.78986
G1 X126.819 Y136.708 E0.79093
G1 X126.812 Y136.821 E0.79206
G1 X126.834 Y136.947 E0.79333
G1 X126.876 Y137.064 E0.79457
G1 X126.928 Y137.149 E0.79557
G1 X127.109 Y137.425 E0.79886
G1 X127.247 Y137.685 E0.8018
G1 X127.351 Y137.941 E0.80456
G1 X127.42 Y138.176 E0.807
G1 X127.466 Y138.423 E0.80951
G1 X127.467 Y138.444 E0.80972
G1 X127.484 Y138.667 E0.81195
G1 X127.486 Y138.685 E0.81213
G1 X127.484 Y138.871 E0.81398
G1 X127.478 Y138.916 E0.81444
G1 X127.459 Y139.119 E0.81647
G1 X127.444 Y139.205 E0.81734
G1 X127.39 Y139.459 E0.81993
G1 X127.371 Y139.523 E0.8206
G0 F6000 X127.519 Y139.722
;TYPE:WALL-OUTER
G1 F1200 X127.487 Y139.69 E0.82105
G1 X127.279 Y139.898 E0.82399
G1 X127.33 Y140.021 E0.82532
G1 X127.443 Y140.021 E0.82644
G1 X127.439 Y140.04 E0.82664
G1 X127.42 Y140.317 E0.82941
G1 X127.346 Y140.693 E0.83323
G1 X127.338 Y140.804 E0.83434
G1 X127.392 Y140.941 E0.83581
G1 X127.528 Y140.952 E0.83717
G1 X127.768 Y140.917 E0.83959
G1 X127.977 Y140.863 E0.84175
G1 X128.09 Y140.819 E0.84296
G1 X128.225 Y140.735 E0.84454
G1 X128.304 Y140.665 E0.8456
G1 X128.367 Y140.585 E0.84661
G1 X128.41 Y140.511 E0.84747
G1 X128.455 Y140.399 E0.84867
G1 X128.489 Y140.172 E0.85096
G1 X128.604 Y139.495 E0.85781
G1 X128.619 Y139.328 E0.85949
G1 X128.633 Y139.131 E0.86146
G1 X128.653 Y139.04 E0.86239
G1 X128.668 Y139.005 E0.86277
G1 X128.69 Y138.974 E0.86314
G1 X128.706 Y138.961 E0.86335
G1 X128.743 Y138.947 E0.86375
G1 X128.778 Y138.945 E0.8641
G1 X128.842 Y138.955 E0.86474
G1 X128.963 Y139 E0.86603
G1 X129.112 Y139.08 E0.86772
G1 X129.593 Y139.293 E0.87297
G1 X129.964 Y139.495 E0.87718
G1 X130.134 Y139.544 E0.87895
G1 X130.303 Y139.549 E0.88063
G1 X130.464 Y139.515 E0.88228
G1 X130.709 Y139.398 E0.88498
G1 X131.058 Y139.177 E0.88911
G1 X131.136 Y139.103 E0.89018
G1 X131.136 Y138.966 E0.89155
G1 X131.055 Y138.891 E0.89265
G1 X130.93 Y138.832 E0.89403
G1 X130.936 Y138.818 E0.89418
G1 X130.728 Y138.61 E0.89711
G1 X130.642 Y138.696 E0.89833
G1 X130.343 Y138.562 E0.9016
G1 X130.041 Y138.459 E0.90478
G1 X129.702 Y138.315 E0.90846
G1 X129.501 Y138.213 E0.9107
G1 X129.395 Y138.151 E0.91193
G1 X129.148 Y137.994 E0.91485
G1 X128.924 Y137.821 E0.91767
G1 X128.722 Y137.633 E0.92043
G1 X128.528 Y137.416 E0.92333
G1 X128.363 Y137.191 E0.92612
G1 X128.323 Y137.123 E0.9269
G1 X128.136 Y136.782 E0.93078
G1 X127.939 Y136.26 E0.93635
G1 X127.904 Y136.193 E0.93711
G1 X127.833 Y136.127 E0.93807
G1 X127.743 Y136.101 E0.93901
G1 X127.666 Y136.104 E0.93978
G1 X127.584 Y136.118 E0.94061
G1 X127.436 Y136.17 E0.94217
G1 X127.286 Y136.263 E0.94393
G1 X127.172 Y136.378 E0.94555
G1 X127.084 Y136.509 E0.94712
G1 X127.031 Y136.654 E0.94866
G1 X127.018 Y136.731 E0.94944
G1 X127.013 Y136.81 E0.95023
G1 X127.028 Y136.896 E0.9511
G1 X127.057 Y136.977 E0.95196
G1 X127.097 Y137.042 E0.95272
G1 X127.286 Y137.331 E0.95617
G1 X127.424 Y137.591 E0.95911
G1 X127.541 Y137.879 E0.96221
G1 X127.616 Y138.134 E0.96486
G1 X127.663 Y138.386 E0.96742
G1 X127.686 Y138.687 E0.97043
G1 X127.684 Y138.882 E0.97238
G1 X127.677 Y138.938 E0.97294
G1 X127.657 Y139.148 E0.97504
