;FLAVOR:Marlin
;TIME:667
;Filament used: 0.221975m
;Layer height: 0.2
;MINX:68.731
;MINY:85.74
;MINZ:0.2
;MAXX:143.269
;MAXY:160.26
;MAXZ:0.4
;Generated with Cura_SteamEngine 4.4.0
M140 S60
M105
M190 S60
M104 S200
M105
M109 S200
M82 ;absolute extrusion mode
M201 X500.00 Y500.00 Z100.00 E5000.00 ;Setup machine max acceleration
M203 X500.00 Y500.00 Z10.00 E50.00 ;Setup machine max feedrate
M204 P500.00 R1000.00 T500.00 ;Setup Print/Retract/Travel acceleration
M205 X8.00 Y8.00 Z0.40 E5.00 ;Setup Jerk
M220 S100 ;Reset Feedrate
M221 S100 ;Reset Flowrate

G28 ;Home

G92 E0 ;Reset Extruder
G1 Z2.0 F3000 ;Move Z Axis up
G1 X10.1 Y20 Z0.28 F5000.0 ;Move to start position
G1 X10.1 Y200.0 Z0.28 F1500.0 E15 ;Draw the first line
G1 X10.4 Y200.0 Z0.28 F5000.0 ;Move to side a little
G1 X10.4 Y20 Z0.28 F1500.0 E30 ;Draw the second line
G92 E0 ;Reset Extruder
G1 Z2.0 F3000 ;Move Z Axis up

G92 E0
G92 E0
G1 F1500 E-6.5
;LAYER_COUNT:2
;LAYER:0
M107
;MESH:rotary international logo v4 blue.stl(1)
G0 F6000 X75.05 Y142.581 Z0.2
;TYPE:WALL-INNER
G1 F1500 E0
G1 F1200 X75.108 Y142.574 E0.00146
G1 X75.126 Y142.571 E0.00191
G1 X75.228 Y142.538 E0.00459
G1 X75.299 Y142.515 E0.00645
G1 X75.329 Y142.505 E0.00724
G1 X75.242 Y142.579 E0.00806
G1 X75.19 Y142.632 E0.00819
G1 X75.15 Y142.674 E0.00833
G1 X75.125 Y142.7 E0.00884
G1 X75.104 Y142.666 E0.00905
G1 X75.095 Y142.652
G1 X75.068 Y142.609 E0.00935
G1 X75.05 Y142.581
G0 F6000 X75.06 Y142.277
G1 F1200 X75.207 Y142.231 E0.0132
G1 X75.35 Y142.16 E0.01718
G1 X78.951 Y140.066 E0.12109
G1 X79.691 Y139.636 E0.14244
G1 X79.971 Y139.473 E0.15052
G1 X80.114 Y139.359 E0.15508
G1 X80.218 Y139.276 E0.1584
G1 X80.341 Y139.178 E0.16233
G1 X80.382 Y138.846 E0.17067
G1 X80.336 Y138.634 E0.17608
G1 X80.289 Y138.509 E0.17941
G1 X80.284 Y138.497 E0.17974
G1 X80.225 Y138.373 E0.18316
G1 X80.158 Y138.257 E0.1865
G1 X80.083 Y138.145 E0.18987
G1 X80.017 Y138.058 E0.19259
G1 X80.003 Y138.041 E0.19314
G1 X79.912 Y137.936 E0.19661
G1 X79.737 Y137.767 E0.20267
G1 X79.667 Y137.713 E0.20488
G1 X79.633 Y137.686 E0.20596
G1 X79.525 Y137.615 E0.20919
G1 X79.401 Y137.555 E0.21262
G1 X79.251 Y137.511 E0.21652
G1 X79.011 Y137.502 E0.22251
G1 X76.547 Y138.904 E0.29323
G1 X74.822 Y139.919 E0.34316
G1 X74.166 Y140.322 E0.36236
G1 X74.022 Y140.446 E0.3671
G1 X73.933 Y140.564 E0.37079
G1 X73.891 Y140.646 E0.37309
G1 X73.859 Y140.71 E0.37487
G1 X73.83 Y140.88 E0.37918
G1 X73.831 Y141.028 E0.38287
G1 X73.868 Y141.166 E0.38643
G1 X73.893 Y141.222 E0.38796
G1 X73.914 Y141.268 E0.38922
G1 X73.889 Y141.225
G1 X73.86 Y141.171 E0.38928
G1 X73.793 Y141.05 E0.38965
G1 X73.73 Y140.936 E0.39086
G1 X73.664 Y140.818 E0.39265
G1 X73.63 Y140.755 E0.39423
G1 X73.554 Y140.619 E0.39812
G1 X73.23 Y140.006 E0.41541
G1 X72.917 Y139.385 E0.43276
G1 X72.617 Y138.762 E0.45001
G1 X72.324 Y138.124 E0.46752
G1 X72.046 Y137.485 E0.4849
G1 X71.741 Y136.738 E0.50503
G1 X71.67 Y136.53 E0.51051
G1 X71.628 Y136.371 E0.51462
G1 X71.626 Y136.355 E0.51502
G1 X71.608 Y136.247 E0.51775
G1 X71.606 Y136.145 E0.5203
G1 X71.625 Y136.058 E0.52252
G1 X71.682 Y135.974 E0.52505
G1 X71.755 Y135.911 E0.52745
G1 X71.811 Y135.872 E0.52916
G1 X71.942 Y135.798 E0.53291
G1 X72.154 Y135.706 E0.53867
G1 X77.477 Y133.879 E0.67906
G1 X77.579 Y133.856 E0.68167
G1 X77.669 Y133.841 E0.68395
G1 X77.781 Y133.835 E0.68674
G1 X77.807 Y133.833 E0.68739
G1 X77.851 Y133.836 E0.68849
G1 X77.964 Y133.868 E0.69142
G1 X78.028 Y133.907 E0.69329
G1 X78.08 Y133.952 E0.69501
G1 X78.112 Y133.987 E0.69619
G1 X78.16 Y134.047 E0.69811
G1 X78.249 Y134.183 E0.70216
G1 X78.318 Y134.315 E0.70588
G1 X78.584 Y134.935 E0.72271
G1 X78.818 Y135.456 E0.73695
G1 X79.062 Y135.973 E0.75121
G1 X79.313 Y136.484 E0.76542
G1 X79.574 Y136.988 E0.77957
G1 X79.843 Y137.486 E0.79367
G1 X79.878 Y137.548 E0.79528
G1 X79.937 Y137.654 E0.79787
G1 X80.051 Y137.857 E0.80161
G1 X80.12 Y137.978 E0.80352
G1 X80.183 Y138.086 E0.80493
G1 X80.251 Y138.202 E0.80618
G1 X80.319 Y138.317 E0.80738
G1 X80.388 Y138.435 E0.80877
G1 X80.405 Y138.464
G1 X80.461 Y138.556 E0.80981
G1 X80.569 Y138.731 E0.81292
G1 X80.699 Y138.943 E0.81912
G1 X80.951 Y139.341 E0.83087
G1 X80.999 Y139.416 E0.83309
G1 X81.011 Y139.434 E0.83363
G1 X81.083 Y139.542 E0.83687
G1 X81.153 Y139.648 E0.84004
G1 X81.31 Y139.883 E0.84709
G1 X81.359 Y139.956 E0.84928
G1 X81.447 Y140.086 E0.8532
G1 X81.349 Y139.964 E0.85326
G1 X81.293 Y139.899 E0.85335
G1 X81.103 Y139.682 E0.85443
G1 X81.004 Y139.595 E0.85533
G1 X80.921 Y139.545 E0.85607
G1 X80.882 Y139.521 E0.85619
G1 X80.746 Y139.472 E0.85888
G1 X80.624 Y139.453 E0.86196
G1 X80.502 Y139.449 E0.865
G1 X80.386 Y139.467 E0.86776
G1 X80.373 Y139.469 E0.86788
G1 X80.237 Y139.513 E0.87084
G1 X80.06 Y139.626 E0.87424
G1 X79.814 Y139.846 E0.88006
G1 X79.103 Y140.324 E0.89943
G1 X75.538 Y142.721 E1.00659
G1 X75.446 Y142.799 E1.0096
G1 X75.364 Y142.882 E1.01251
G1 X75.286 Y142.988 E1.01579
G1 X75.223 Y143.112 E1.01926
G1 X75.179 Y143.262 E1.02316
G1 X75.176 Y143.331 E1.02488
G1 X75.146 Y143.285
G1 X75.09 Y143.2 E1.02629
G1 X75.052 Y143.142 E1.02664
G1 X74.957 Y142.997 E1.03012
G1 X74.589 Y142.412 E1.04736
G1 X74.565 Y142.372 E1.04852
G1 X74.475 Y142.223 E1.05286
G1 X74.374 Y142.056 E1.05773
G1 X74.28 Y141.9 E1.06228
G1 X74.234 Y141.825 E1.06447
G1 X74.18 Y141.732 E1.06715
G1 X74.022 Y141.456 E1.07509
G1 X73.933 Y141.302 E1.07952
G1 X74.032 Y141.45 E1.07962
G1 X74.227 Y141.704 E1.08053
G1 X74.262 Y141.816 E1.08105
G1 X74.287 Y141.895 E1.08112
G1 X74.381 Y142.051 E1.08127
G1 X74.53 Y142.189 E1.08201
G1 X74.663 Y142.25 E1.08324
G1 X74.722 Y142.277 E1.08376
G1 X74.921 Y142.296 E1.08875
G1 X75.06 Y142.277 E1.09225
G0 F6000 X74.801 Y141.983
;TYPE:WALL-OUTER
G1 F1200 X74.915 Y141.994 E1.09511
G1 X74.995 Y141.983 E1.09712
G1 X75.095 Y141.952 E1.09973
G1 X75.208 Y141.896 E1.10288
G1 X79.801 Y139.225 E1.23542
G1 X80.058 Y139.02 E1.24362
G1 X80.078 Y138.86 E1.24764
G1 X80.047 Y138.719 E1.25124
G1 X80.008 Y138.614 E1.25403
G1 X79.96 Y138.514 E1.2568
G1 X79.903 Y138.416 E1.25963
G1 X79.839 Y138.32 E1.26251
G1 X79.77 Y138.23 E1.26534
G1 X79.694 Y138.142 E1.26824
G1 X79.541 Y137.994 E1.27355
G1 X79.459 Y137.931 E1.27613
G1 X79.377 Y137.877 E1.27857
G1 X79.292 Y137.836 E1.28093
G1 X79.202 Y137.809 E1.28327
G1 X79.086 Y137.805 E1.28617
G1 X76.697 Y139.164 E1.35473
G1 X74.977 Y140.176 E1.40451
G1 X74.344 Y140.565 E1.42304
G1 X74.242 Y140.653 E1.4264
G1 X74.188 Y140.724 E1.42863
G1 X74.147 Y140.805 E1.43089
G1 X74.13 Y140.904 E1.4334
G1 X74.131 Y140.987 E1.43547
G1 X74.152 Y141.065 E1.43749
G1 X74.184 Y141.137 E1.43945
G1 X74.276 Y141.275 E1.44359
G1 X74.489 Y141.552 E1.45231
G1 X74.503 Y141.582 E1.45313
G1 X74.562 Y141.771 E1.45807
G1 X74.616 Y141.86 E1.46067
G1 X74.698 Y141.936 E1.46346
G1 X74.801 Y141.983 E1.46628
G0 F6000 X74.716 Y142.301
G0 X80.514 Y139.636
G0 X80.894 Y139.745
G0 X81.465 Y140.459
G0 X81.523 Y140.731
G0 X81.685 Y142.221
;TYPE:WALL-INNER
G1 F1200 X81.754 Y142.019 E1.4716
G1 X81.801 Y141.883 E1.47519
G1 X81.968 Y141.396 E1.48804
G1 X81.986 Y141.343 E1.48943
G1 X82.043 Y141.421 E1.49036
G1 X82.319 Y141.78 E1.50166
G1 X82.361 Y141.834 E1.50336
G1 X82.19 Y141.88 E1.50585
G1 X82.021 Y141.958 E1.51049
G1 X81.874 Y142.059 E1.51403
G1 X81.685 Y142.221 E1.51583
G0 F6000 X82.058 Y142.297
G1 F1200 X81.461 Y142.809 E1.53545
G1 X81.46 Y142.81 E1.53548
G1 X81.045 Y143.165 E1.54911
G1 X81.221 Y142.648 E1.55616
G1 X81.222 Y142.647 E1.5562
G1 X81.715 Y141.207 E1.59416
G1 X81.742 Y141.074 E1.59755
G1 X81.749 Y141.008 E1.59921
G1 X81.755 Y140.951 E1.60064
G1 X81.755 Y140.825 E1.60378
G1 X81.74 Y140.698 E1.60697
G1 X81.712 Y140.585 E1.60987
G1 X81.678 Y140.48 E1.61263
G1 X81.632 Y140.376 E1.61546
G1 X81.617 Y140.348 E1.61625
G1 X81.555 Y140.239 E1.61938
G1 X81.626 Y140.342 E1.61944
G1 X81.644 Y140.367
G1 X81.709 Y140.456 E1.61975
G1 X81.771 Y140.541 E1.62045
G1 X81.835 Y140.628 E1.62163
G1 X81.901 Y140.718 E1.62297
G1 X81.961 Y140.8 E1.62443
G1 X81.994 Y140.846 E1.62575
G1 X82.283 Y141.241 E1.63796
G1 X82.622 Y141.68 E1.65179
G1 X82.811 Y141.915 E1.65931
G1 X82.876 Y141.996 E1.66191
G1 X82.948 Y142.085 E1.66476
G1 X82.97 Y142.112 E1.66563
G1 X83.029 Y142.183 E1.66793
G1 X83.112 Y142.283 E1.67117
G1 X83.17 Y142.352 E1.67342
G1 X83.097 Y142.296 E1.67353
G1 X82.979 Y142.225 E1.67413
G1 X82.93 Y142.203 E1.67414
G1 X82.848 Y142.166 E1.6751
G1 X82.711 Y142.13 E1.67732
G1 X82.607 Y142.12 E1.67958
G1 X82.569 Y142.115 E1.68054
G1 X82.423 Y142.128 E1.68419
G1 X82.292 Y142.163 E1.68758
G1 X82.17 Y142.219 E1.69093
G1 X82.058 Y142.297 E1.69433
G0 F6000 X82.786 Y142.342
G0 X83.695 Y142.965
G1 F1200 X83.797 Y143.078 E1.69813
G1 X83.908 Y143.201 E1.70226
G1 X83.97 Y143.27 E1.70457
G1 X84.054 Y143.364 E1.70772
G1 X84.106 Y143.42 E1.70963
G1 X84.428 Y143.767 E1.72143
G1 X84.811 Y144.163 E1.73518
G1 X85.082 Y144.434 E1.74474
G1 X84.794 Y144.184 E1.74514
G1 X84.379 Y143.825 E1.74752
G1 X84.012 Y143.508 E1.75172
G1 X83.938 Y143.586 E1.75441
G1 X83.838 Y143.693 E1.75806
G1 X83.717 Y143.821 E1.76245
G1 X83.665 Y143.876 E1.76434
G1 X83.603 Y143.94 E1.76656
G1 X83.49 Y144.057 E1.77062
G1 X83.377 Y144.173 E1.77466
G1 X83.248 Y144.306 E1.77928
G1 X83.182 Y144.374 E1.78165
G1 X83.005 Y144.585 E1.78852
G1 X82.916 Y144.735 E1.79287
G1 X82.864 Y144.916 E1.79757
G1 X82.862 Y144.975 E1.79904
G1 X82.857 Y145.117 E1.80258
G1 X82.916 Y145.306 E1.80752
G1 X82.992 Y145.43 E1.81115
G1 X83.073 Y145.526 E1.81428
G1 X83.202 Y145.633 E1.81846
G1 X83.245 Y145.658 E1.8197
G1 X83.633 Y146.048 E1.83343
G1 X83.975 Y146.366 E1.84508
G1 X83.34 Y147.057 E1.86849
G1 X82.657 Y147.819 E1.89401
G1 X81.98 Y148.584 E1.9195
G1 X81.253 Y149.422 E1.94717
G1 X81.16 Y149.558 E1.95128
G1 X81.113 Y149.646 E1.95377
G1 X81.073 Y149.745 E1.95643
G1 X81.048 Y149.84 E1.95888
G1 X81.042 Y149.865 E1.95952
G1 X81.031 Y150.017 E1.96333
G1 X81.05 Y150.166 E1.96707
G1 X81.081 Y150.26 E1.96954
G1 X81.085 Y150.272 E1.96986
G1 X81.075 Y150.263
G1 X81.014 Y150.206 E1.96995
G1 X80.929 Y150.127 E1.97145
G1 X80.859 Y150.062 E1.97241
G1 X80.84 Y150.045 E1.97302
G1 X80.58 Y149.802 E1.98189
G1 X80.098 Y149.334 E1.99865
G1 X79.617 Y148.851 E2.01566
G1 X79.147 Y148.362 E2.03258
G1 X78.845 Y148.035 E2.04368
G1 X78.784 Y147.969 E2.04592
G1 X78.712 Y147.891 E2.04857
G1 X78.635 Y147.807 E2.05141
G1 X78.624 Y147.795 E2.05182
G1 X78.64 Y147.801
G1 X78.777 Y147.83 E2.05278
G1 X78.93 Y147.834 E2.05504
G1 X79.019 Y147.818 E2.05697
G1 X79.068 Y147.808 E2.05821
G1 X79.201 Y147.757 E2.06177
G1 X79.341 Y147.664 E2.06596
G1 X79.461 Y147.556 E2.06999
G1 X79.642 Y147.336 E2.07709
G1 X82.26 Y145.093 E2.16309
G1 X82.663 Y144.764 E2.17607
G1 X82.708 Y144.727 E2.17695
G1 X82.828 Y144.629 E2.17933
G1 X82.955 Y144.525 E2.18076
G1 X83.164 Y144.354 E2.18191
G1 X83.236 Y144.295 E2.18206
G1 X83.375 Y144.172 E2.18222
G1 X83.488 Y144.056 E2.18222
G1 X83.591 Y143.929 E2.18236
G1 X83.634 Y143.858 E2.18248
G1 X83.678 Y143.785 E2.18284
G1 X83.75 Y143.611 E2.18436
G1 X83.777 Y143.465 E2.18642
G1 X83.782 Y143.44 E2.18653
G1 X83.782 Y143.362 E2.18801
G1 X83.783 Y143.314 E2.1886
G1 X83.753 Y143.118 E2.19145
G1 X83.695 Y142.965 E2.19203
G0 F6000 X83.531 Y143.627
G0 X82.575 Y145.223
G1 F1200 X82.641 Y145.431 E2.19747
G1 X82.671 Y145.48 E2.19891
G1 X82.748 Y145.606 E2.20259
G1 X82.861 Y145.74 E2.20696
G1 X83.03 Y145.88 E2.21244
G1 X83.058 Y145.896 E2.21324
G1 X83.424 Y146.264 E2.22619
G1 X83.552 Y146.383 E2.23055
G1 X83.118 Y146.855 E2.24654
G1 X82.433 Y147.619 E2.27214
G1 X81.754 Y148.386 E2.29769
G1 X81.015 Y149.238 E2.32583
G1 X80.932 Y149.359 E2.32949
G1 X80.903 Y149.402 E2.33078
G1 X80.841 Y149.519 E2.33408
G1 X80.812 Y149.592 E2.33604
G1 X80.807 Y149.603 E2.33634
G1 X80.784 Y149.582
G1 X80.756 Y149.554
G1 X80.719 Y149.518 E2.33748
G1 X80.311 Y149.122 E2.35167
G1 X79.83 Y148.639 E2.36867
G1 X79.32 Y148.105 E2.38709
G1 X79.317 Y148.102 E2.3872
G1 X79.289 Y148.073 E2.3882
G1 X79.269 Y148.052 E2.38893
G1 X79.339 Y148.025 E2.3898
G1 X79.525 Y147.902 E2.39418
G1 X79.528 Y147.899 E2.39429
G1 X79.678 Y147.764 E2.39932
G1 X79.859 Y147.545 E2.40641
G1 X82.466 Y145.316 E2.49197
G1 X82.51 Y145.279
G1 X82.575 Y145.223
G0 F6000 X79.017 Y147.629
G0 X78.694 Y147.623
G0 X78.503 Y147.524
G0 X77.902 Y146.937
G0 X77.675 Y146.404
G0 X77.696 Y146.148
G0 X78.291 Y143.683
G1 F1200 X78.145 Y144.112 E2.50328
G1 X77.535 Y145.9 E2.5504
G1 X77.505 Y146.028 E2.55368
G1 X77.5 Y146.051 E2.55427
G1 X77.485 Y146.178 E2.55746
G1 X77.481 Y146.303 E2.56058
G1 X77.49 Y146.429 E2.56373
G1 X77.502 Y146.49 E2.56528
G1 X77.468 Y146.448 E2.5653
G1 X77.402 Y146.369 E2.56572
G1 X77.359 Y146.317 E2.56597
G1 X77.341 Y146.294
G1 X77.285 Y146.224 E2.56714
G1 X77.27 Y146.206 E2.5677
G1 X76.933 Y145.784 E2.58117
G1 X76.521 Y145.246 E2.59808
G1 X76.305 Y144.953 E2.60716
G1 X76.278 Y144.916 E2.6083
G1 X76.221 Y144.839 E2.61069
G1 X76.162 Y144.759 E2.61317
G1 X76.133 Y144.721 E2.61436
G1 X76.184 Y144.742
G1 X76.318 Y144.766 E2.6157
G1 X76.471 Y144.773 E2.6184
G1 X76.517 Y144.765 E2.61947
G1 X76.626 Y144.745 E2.62223
G1 X76.641 Y144.741 E2.62262
G1 X76.734 Y144.711 E2.62506
G1 X76.844 Y144.659 E2.62809
G1 X76.967 Y144.588 E2.63164
G1 X77.667 Y144.116 E2.6527
G1 X77.918 Y143.942 E2.66031
G1 X77.919 Y143.941 E2.66035
G1 X78.291 Y143.683 E2.66627
G0 F6000 X77.714 Y144.447
G1 F1200 X77.571 Y144.867 E2.67734
G1 X77.365 Y145.469 E2.69321
G1 X77.275 Y145.732 E2.70014
G1 X77.106 Y145.512 E2.70401
G1 X76.79 Y145.102 E2.71692
G1 X76.777 Y145.085 E2.71746
G1 X76.757 Y145.059 E2.71828
G1 X76.731 Y145.026 E2.71932
G1 X76.844 Y144.991 E2.72086
G1 X76.983 Y144.925 E2.72391
G1 X77.002 Y144.914 E2.72444
G1 X77.126 Y144.843 E2.728
G1 X77.346 Y144.695 E2.73461
G1 X77.714 Y144.447 E2.74043
G1 F1500 E-3.75957
G0 F6000 X77.698 Y146.524
G0 X77.902 Y146.937
G0 X78.597 Y147.584
G0 X78.915 Y147.647
G0 X79.226 Y147.517
G0 X83.438 Y143.822
G0 X83.596 Y143.421
G0 X83.481 Y142.956
G0 X82.992 Y142.45
G0 X82.567 Y142.302
G0 X82.247 Y142.417
G0 X80.621 Y143.791
G0 X80.405 Y144.109
;TYPE:WALL-OUTER
G1 F1500 E2.74043
G1 F1200 X81.425 Y141.129 E2.819
G1 X81.445 Y141.029 E2.82154
G1 X81.455 Y140.935 E2.8239
G1 X81.455 Y140.843 E2.8262
G1 X81.444 Y140.752 E2.82848
G1 X81.423 Y140.667 E2.83067
G1 X81.397 Y140.587 E2.83277
G1 X81.363 Y140.51 E2.83487
G1 X81.296 Y140.391 E2.83827
G1 X81.208 Y140.267 E2.84207
G1 X81.119 Y140.157 E2.84559
G1 X80.89 Y139.894 E2.85429
G1 X80.826 Y139.838 E2.85642
G1 X80.752 Y139.793 E2.85858
G1 X80.671 Y139.764 E2.86072
G1 X80.596 Y139.752 E2.86262
G1 X80.521 Y139.75 E2.86449
G1 X80.443 Y139.762 E2.86646
G1 X80.366 Y139.787 E2.86848
G1 X80.242 Y139.866 E2.87214
G1 X80.001 Y140.081 E2.8802
G1 X75.719 Y142.961 E3.00893
G1 X75.65 Y143.019 E3.01118
G1 X75.593 Y143.077 E3.0132
G1 X75.542 Y143.146 E3.01534
G1 X75.503 Y143.223 E3.0175
G1 X75.477 Y143.312 E3.01981
G1 X75.472 Y143.414 E3.02236
G1 X75.498 Y143.531 E3.02535
G1 X75.557 Y143.636 E3.02835
G1 X75.638 Y143.723 E3.03132
G1 X75.712 Y143.78 E3.03365
G1 X75.747 Y143.819 E3.03495
G1 X75.794 Y143.904 E3.03738
G1 X75.853 Y144.026 E3.04076
G1 X75.935 Y144.177 E3.04504
G1 X75.994 Y144.266 E3.04771
G1 X76.053 Y144.329 E3.04986
G1 X76.123 Y144.383 E3.05207
G1 X76.199 Y144.424 E3.05422
G1 X76.268 Y144.452 E3.05608
G1 X76.352 Y144.467 E3.05821
G1 X76.451 Y144.472 E3.06068
G1 X76.554 Y144.453 E3.06329
G1 X76.624 Y144.431 E3.06512
G1 X76.704 Y144.393 E3.06733
G1 X76.808 Y144.333 E3.07033
G1 X77.498 Y143.868 E3.09108
G1 X78.87 Y142.917 E3.13273
G1 X77.824 Y145.983 E3.21354
G1 X77.796 Y146.103 E3.21661
G1 X77.784 Y146.201 E3.21907
G1 X77.781 Y146.296 E3.22144
G1 X77.788 Y146.389 E3.22377
G1 X77.809 Y146.497 E3.22651
G1 X77.835 Y146.581 E3.22871
G1 X77.868 Y146.66 E3.23084
G1 X77.906 Y146.736 E3.23296
G1 X77.993 Y146.867 E3.23689
G1 X78.138 Y147.034 E3.2424
G1 X78.573 Y147.433 E3.25713
G1 X78.649 Y147.482 E3.25938
G1 X78.727 Y147.513 E3.26148
G1 X78.812 Y147.531 E3.26364
G1 X78.906 Y147.533 E3.26599
G1 X78.987 Y147.518 E3.26804
G1 X79.063 Y147.489 E3.27007
G1 X79.156 Y147.427 E3.27286
G1 X79.243 Y147.348 E3.27579
G1 X79.428 Y147.124 E3.28304
G1 X82.07 Y144.861 E3.36982
G1 X83.042 Y144.066 E3.40114
G1 X83.168 Y143.955 E3.40533
G1 X83.263 Y143.857 E3.40873
G1 X83.345 Y143.756 E3.41198
