;FLAVOR:Marlin
;TIME:962
;Filament used: 0.618171m
;Layer height: 0.28
;MINX:68.741
;MINY:83.961
;MINZ:0.28
;MAXX:166.249
;MAXY:135.737
;MAXZ:5.88
;Generated with Cura_SteamEngine 4.6.1
M140 S50
M105
M190 S50
M104 S200
M105
M109 S200
M82 ;absolute extrusion mode
; Ender 3 Custom Start G-code
G92 E0 ; Reset Extruder
G28 ; Home all axes
G1 Z2.0 F3000 ; Move Z Axis up little to prevent scratching of Heat Bed
G1 X0.1 Y20 Z0.3 F5000.0 ; Move to start position
G1 X0.1 Y200.0 Z0.3 F1500.0 E15 ; Draw the first line
G1 X0.4 Y200.0 Z0.3 F5000.0 ; Move to side a little
G1 X0.4 Y20 Z0.3 F1500.0 E30 ; Draw the second line
G92 E0 ; Reset Extruder
G1 Z2.0 F3000 ; Move Z Axis up little to prevent scratching of Heat Bed
G1 X5 Y20 Z0.3 F5000.0 ; Move over to prevent blob squish
G92 E0
G92 E0
G1 F2700 E-5
;LAYER_COUNT:21
;LAYER:0
M107
G0 F6000 X82.658 Y84.778 Z0.28
;TYPE:SKIRT
G1 F2700 E0
G1 F1200 X85.459 Y84.776 E0.13043
G1 X86.56 Y84.761 E0.1817
G1 X89.063 Y84.766 E0.29825
G1 X89.756 Y84.761 E0.33052
G1 X95.595 Y84.762 E0.60241
G1 X96.293 Y84.772 E0.63491
G1 X97.112 Y84.817 E0.67311
G1 X97.272 Y84.832 E0.68059
G1 X99.953 Y85.059 E0.80587
G1 X102.495 Y85.203 E0.92443
G1 X105.021 Y85.274 E1.0421
G1 X107.555 Y85.274 E1.16009
G1 X110.094 Y85.201 E1.27837
G1 X112.643 Y85.057 E1.39725
G1 X115.599 Y84.807 E1.53538
G1 X116.152 Y84.776 E1.56117
G1 X116.791 Y84.761 E1.59094
G1 X118.275 Y84.762 E1.66004
G1 X118.976 Y84.772 E1.69268
G1 X119.878 Y84.825 E1.73476
G1 X120.771 Y84.957 E1.77679
G1 X121.65 Y85.168 E1.81888
G1 X122.506 Y85.456 E1.86094
G1 X123.333 Y85.818 E1.90297
G1 X124.125 Y86.252 E1.94503
G1 X124.875 Y86.755 E1.98708
G1 X125.769 Y87.494 E2.04108
G1 X126.307 Y87.993 E2.07525
G1 X128.256 Y89.756 E2.19763
G1 X130.174 Y91.394 E2.31507
G1 X132.159 Y92.996 E2.43385
G1 X134.158 Y94.517 E2.55081
G1 X136.241 Y96.011 E2.67017
G1 X138.357 Y97.44 E2.78907
G1 X140.487 Y98.792 E2.90654
G1 X142.661 Y100.087 E3.02437
G1 X144.891 Y101.332 E3.1433
G1 X147.156 Y102.513 E3.26224
G1 X149.416 Y103.612 E3.37926
G1 X151.742 Y104.662 E3.49809
G1 X154.054 Y105.629 E3.61479
G1 X156.606 Y106.595 E3.74185
G1 X157.357 Y106.885 E3.77933
G1 X158.185 Y107.247 E3.82141
G1 X158.713 Y107.527 E3.84924
G1 X159.529 Y107.994 E3.89302
G1 X159.825 Y108.173 E3.90913
G1 X160.577 Y108.674 E3.9512
G1 X161.408 Y109.354 E4.0012
G1 X161.595 Y109.524 E4.01297
G1 X161.96 Y109.873 E4.03648
G1 X162.475 Y110.39 E4.07046
G1 X163.084 Y111.057 E4.11252
G1 X163.631 Y111.776 E4.15459
G1 X164.112 Y112.54 E4.19663
G1 X164.524 Y113.343 E4.23865
G1 X164.863 Y114.181 E4.28074
G1 X165.127 Y115.044 E4.32277
G1 X165.313 Y115.928 E4.36483
G1 X165.42 Y116.825 E4.40689
G1 X165.448 Y117.711 E4.44817
G1 X165.423 Y119.273 E4.52091
G1 X165.449 Y123.087 E4.69851
G1 X165.415 Y123.989 E4.74054
G1 X165.301 Y124.885 E4.7826
G1 X165.109 Y125.767 E4.82463
G1 X164.839 Y126.629 E4.86669
G1 X164.495 Y127.464 E4.90875
G1 X164.077 Y128.265 E4.95082
G1 X163.591 Y129.026 E4.99286
G1 X163.039 Y129.741 E5.03492
G1 X162.626 Y130.2 E5.06367
G1 X162.457 Y130.377 E5.07507
G1 X162.149 Y130.686 E5.09539
G1 X161.63 Y131.185 E5.12891
G1 X160.952 Y131.781 E5.17094
G1 X160.048 Y132.431 E5.22279
G1 X159.838 Y132.565 E5.23439
G1 X159.444 Y132.803 E5.25582
G1 X158.835 Y133.154 E5.28855
G1 X158.034 Y133.57 E5.33058
G1 X156.925 Y134.008 E5.3861
G1 X156.316 Y134.208 E5.41595
G1 X155.998 Y134.306 E5.43145
G1 X155.629 Y134.414 E5.44935
G1 X154.752 Y134.629 E5.49139
G1 X153.888 Y134.763 E5.53211
G1 X153.103 Y134.85 E5.56888
G1 X152.736 Y134.884 E5.58605
G1 X152.4 Y134.909 E5.60174
G1 X151.497 Y134.936 E5.6438
G1 X150.715 Y134.895 E5.68026
G1 X149.856 Y134.812 E5.72045
G1 X149.23 Y134.736 E5.74981
G1 X148.398 Y134.6 E5.78907
G1 X147.829 Y134.481 E5.81614
G1 X145.996 Y134.073 E5.90358
G1 X143.515 Y133.593 E6.02125
G1 X141.013 Y133.182 E6.13931
G1 X138.523 Y132.847 E6.2563
G1 X135.958 Y132.574 E6.37641
G1 X133.425 Y132.376 E6.49472
G1 X130.929 Y132.253 E6.61108
G1 X128.363 Y132.198 E6.73059
G1 X125.828 Y132.217 E6.84864
G1 X123.259 Y132.308 E6.96834
G1 X120.767 Y132.467 E7.08461
G1 X118.201 Y132.704 E7.2046
G1 X115.703 Y133.005 E7.32176
G1 X113.187 Y133.382 E7.44023
G1 X110.688 Y133.828 E7.55843
G1 X108.229 Y134.34 E7.67538
G1 X107.139 Y134.583 E7.72739
G1 X106.265 Y134.729 E7.76865
G1 X105.39 Y134.833 E7.80968
G1 X104.767 Y134.892 E7.83882
G1 X103.865 Y134.937 E7.88087
G1 X103.323 Y134.926 E7.90611
G1 X102.08 Y134.866 E7.96406
G1 X101.709 Y134.842 E7.98137
G1 X99.19 Y134.755 E8.09874
G1 X96.662 Y134.74 E8.21645
G1 X95.97 Y134.757 E8.24868
G1 X93.821 Y134.779 E8.34876
G1 X91.213 Y134.779 E8.4702
G1 X90.564 Y134.77 E8.50042
G1 X89.662 Y134.718 E8.54249
G1 X88.769 Y134.586 E8.58452
G1 X87.89 Y134.375 E8.62662
G1 X87.034 Y134.088 E8.66866
G1 X86.207 Y133.726 E8.71069
G1 X85.415 Y133.292 E8.75274
G1 X84.664 Y132.79 E8.79481
G1 X83.961 Y132.223 E8.83686
G1 X83.31 Y131.597 E8.87892
G1 X82.718 Y130.915 E8.92097
G1 X82.188 Y130.184 E8.96301
G1 X81.725 Y129.408 E9.00509
G1 X81.221 Y128.324 E9.06075
G1 X80.798 Y127.256 E9.11424
G1 X79.801 Y124.781 E9.23849
G1 X78.776 Y122.433 E9.35778
G1 X77.695 Y120.132 E9.47616
G1 X76.543 Y117.854 E9.59503
G1 X75.36 Y115.668 E9.71077
G1 X74.071 Y113.438 E9.8307
G1 X72.729 Y111.263 E9.94971
G1 X71.66 Y109.622 E10.0409
G1 X71.273 Y109.042 E10.07337
G1 X70.806 Y108.269 E10.11542
G1 X70.408 Y107.458 E10.15749
G1 X70.084 Y106.615 E10.19954
G1 X69.836 Y105.747 E10.24158
G1 X69.666 Y104.86 E10.28363
G1 X69.56 Y103.566 E10.34409
G1 X69.541 Y102.445 E10.39629
G1 X69.542 Y95.482 E10.72052
G1 X69.552 Y94.817 E10.75149
G1 X69.606 Y93.915 E10.79357
G1 X69.739 Y93.022 E10.83561
G1 X69.95 Y92.144 E10.87765
G1 X70.239 Y91.288 E10.91972
G1 X70.602 Y90.461 E10.96178
G1 X71.036 Y89.67 E11.00379
G1 X71.539 Y88.919 E11.04588
G1 X72.107 Y88.217 E11.08793
G1 X72.734 Y87.567 E11.12998
G1 X73.416 Y86.975 E11.17203
G1 X74.148 Y86.446 E11.21409
G1 X74.924 Y85.984 E11.25614
G1 X75.738 Y85.593 E11.29819
G1 X76.583 Y85.274 E11.34024
G1 X77.453 Y85.032 E11.38229
G1 X78.341 Y84.868 E11.42434
G1 X79.464 Y84.774 E11.47682
G1 X80.071 Y84.761 E11.50509
G1 X81.522 Y84.762 E11.57265
G1 X82.658 Y84.778 E11.62555
G0 F6000 X82.664 Y84.378
G1 F1200 X85.453 Y84.376 E11.75542
G1 X86.561 Y84.361 E11.80702
G1 X89.062 Y84.366 E11.92348
G1 X89.754 Y84.361 E11.9557
G1 X95.601 Y84.362 E12.22796
G1 X96.299 Y84.372 E12.26047
G1 X97.15 Y84.419 E12.30015
G1 X97.323 Y84.435 E12.30824
G1 X99.974 Y84.66 E12.43213
G1 X102.495 Y84.803 E12.5497
G1 X105.032 Y84.874 E12.66788
G1 X107.543 Y84.874 E12.78481
G1 X110.095 Y84.801 E12.90369
G1 X112.623 Y84.658 E13.02159
G1 X115.565 Y84.409 E13.15907
G1 X116.14 Y84.376 E13.18589
G1 X116.791 Y84.361 E13.21621
G1 X118.281 Y84.362 E13.28559
G1 X118.982 Y84.372 E13.31824
G1 X119.901 Y84.425 E13.3611
G1 X120.812 Y84.558 E13.40397
G1 X121.708 Y84.769 E13.44683
G1 X122.583 Y85.057 E13.48973
G1 X123.429 Y85.42 E13.53259
G1 X124.24 Y85.855 E13.57545
G1 X125.011 Y86.359 E13.61834
G1 X126.041 Y87.201 E13.68028
G1 X126.562 Y87.685 E13.7134
G1 X128.501 Y89.438 E13.83511
G1 X130.461 Y91.112 E13.95514
G1 X132.385 Y92.665 E14.07027
G1 X134.411 Y94.206 E14.1888
G1 X136.491 Y95.699 E14.30802
G1 X138.548 Y97.088 E14.42359
G1 X140.699 Y98.453 E14.54222
G1 X142.866 Y99.744 E14.65967
G1 X145.065 Y100.971 E14.77693
G1 X147.337 Y102.156 E14.89625
G1 X149.577 Y103.246 E15.01224
G1 X151.912 Y104.3 E15.13153
G1 X154.207 Y105.259 E15.24735
G1 X156.75 Y106.222 E15.37397
G1 X157.501 Y106.512 E15.41146
G1 X158.345 Y106.88 E15.45433
G1 X158.911 Y107.179 E15.48414
G1 X159.736 Y107.652 E15.52842
G1 X160.032 Y107.831 E15.54453
G1 X160.799 Y108.341 E15.58742
G1 X161.677 Y109.058 E15.6402
G1 X161.864 Y109.228 E15.65197
G1 X162.244 Y109.59 E15.67641
G1 X162.759 Y110.107 E15.71039
G1 X163.38 Y110.787 E15.75327
G1 X163.939 Y111.518 E15.79612
G1 X164.433 Y112.295 E15.83899
G1 X164.858 Y113.112 E15.88187
G1 X165.21 Y113.963 E15.92476
G1 X165.487 Y114.841 E15.96763
G1 X165.687 Y115.739 E16.01046
G1 X165.808 Y116.652 E16.05335
G1 X165.848 Y117.715 E16.10288
G1 X165.823 Y119.282 E16.17586
G1 X165.849 Y123.084 E16.3529
G1 X165.815 Y124.004 E16.39577
G1 X165.702 Y124.918 E16.43865
G1 X165.509 Y125.818 E16.48151
G1 X165.24 Y126.698 E16.52436
G1 X164.895 Y127.552 E16.56725
G1 X164.477 Y128.372 E16.6101
G1 X163.989 Y129.153 E16.65299
G1 X163.436 Y129.889 E16.69585
G1 X162.916 Y130.476 E16.73237
G1 X162.747 Y130.653 E16.74376
G1 X162.427 Y130.974 E16.76487
G1 X161.908 Y131.473 E16.7984
G1 X161.217 Y132.082 E16.84128
G1 X160.263 Y132.768 E16.896
G1 X160.053 Y132.902 E16.9076
G1 X159.644 Y133.15 E16.92987
G1 X159.035 Y133.501 E16.9626
G1 X158.218 Y133.925 E17.00546
G1 X157.049 Y134.388 E17.06401
G1 X156.44 Y134.588 E17.09386
G1 X156.111 Y134.69 E17.1099
G1 X155.742 Y134.798 E17.1278
G1 X154.848 Y135.018 E17.17067
G1 X153.932 Y135.16 E17.21383
G1 X153.147 Y135.247 E17.25061
G1 X152.766 Y135.283 E17.26843
G1 X152.43 Y135.308 E17.28412
G1 X151.509 Y135.336 E17.32702
G1 X150.678 Y135.293 E17.36577
G1 X149.807 Y135.209 E17.40651
G1 X149.181 Y135.133 E17.43588
G1 X148.317 Y134.991 E17.47665
G1 X147.742 Y134.871 E17.504
G1 X145.933 Y134.468 E17.5903
G1 X143.453 Y133.988 E17.70792
G1 X140.965 Y133.58 E17.82532
G1 X138.459 Y133.242 E17.94307
G1 X135.921 Y132.972 E18.06191
G1 X133.41 Y132.776 E18.17919
G1 X130.901 Y132.652 E18.29617
G1 X128.357 Y132.598 E18.41465
G1 X125.809 Y132.617 E18.5333
G1 X123.335 Y132.705 E18.64857
G1 X120.758 Y132.869 E18.76881
G1 X118.281 Y133.098 E18.88464
G1 X115.743 Y133.404 E19.00368
G1 X113.244 Y133.778 E19.12134
G1 X110.775 Y134.219 E19.23812
G1 X108.26 Y134.742 E19.35774
G1 X107.538 Y134.907 E19.39223
G1 X107.222 Y134.974 E19.40727
G1 X106.314 Y135.126 E19.45014
G1 X105.427 Y135.231 E19.49173
G1 X104.804 Y135.29 E19.52087
G1 X103.885 Y135.337 E19.56371
G1 X103.305 Y135.325 E19.59073
G1 X102.054 Y135.265 E19.64905
G1 X101.704 Y135.243 E19.66538
G1 X99.174 Y135.155 E19.78325
G1 X96.669 Y135.14 E19.8999
G1 X95.974 Y135.157 E19.93227
G1 X93.821 Y135.179 E20.03253
G1 X91.207 Y135.179 E20.15425
G1 X90.558 Y135.17 E20.18447
G1 X89.639 Y135.117 E20.22733
G1 X88.728 Y134.985 E20.2702
G1 X87.832 Y134.774 E20.31306
G1 X86.957 Y134.486 E20.35595
G1 X86.111 Y134.124 E20.3988
G1 X85.299 Y133.689 E20.4417
G1 X84.528 Y133.186 E20.48456
G1 X83.804 Y132.617 E20.52744
G1 X83.132 Y131.988 E20.5703
G1 X82.517 Y131.303 E20.61317
G1 X81.964 Y130.567 E20.65603
G1 X81.477 Y129.786 E20.69889
G1 X81.059 Y128.965 E20.74179
G1 X80.849 Y128.472 E20.76674
G1 X80.427 Y127.406 E20.82013
G1 X79.422 Y124.912 E20.94533
G1 X78.419 Y122.614 E21.06208
G1 X77.334 Y120.304 E21.18092
G1 X76.2 Y118.061 E21.29795
G1 X74.997 Y115.838 E21.41565
G1 X73.743 Y113.669 E21.53231
G1 X72.375 Y111.45 E21.6537
G1 X71.357 Y109.889 E21.74047
G1 X70.94 Y109.264 E21.77546
G1 X70.463 Y108.477 E21.81831
G1 X70.056 Y107.651 E21.86119
G1 X69.722 Y106.793 E21.90406
G1 X69.464 Y105.909 E21.94694
G1 X69.283 Y105.007 E21.98978
G1 X69.182 Y104.092 E22.03265
G1 X69.16 Y103.573 E22.05683
G1 X69.141 Y102.445 E22.10937
G1 X69.142 Y95.476 E22.43387
G1 X69.152 Y94.811 E22.46484
G1 X69.206 Y93.892 E22.50771
G1 X69.339 Y92.981 E22.55058
G1 X69.551 Y92.085 E22.59345
G1 X69.84 Y91.21 E22.63636
G1 X70.204 Y90.365 E22.6792
G1 X70.639 Y89.554 E22.72205
G1 X71.144 Y88.783 E22.76497
G1 X71.713 Y88.06 E22.80781
G1 X72.343 Y87.388 E22.8507
G1 X73.029 Y86.774 E22.89357
G1 X73.765 Y86.222 E22.93641
G1 X74.547 Y85.735 E22.97931
G1 X75.368 Y85.319 E23.02216
G1 X76.222 Y84.975 E23.06504
G1 X77.102 Y84.706 E23.10788
G1 X78.003 Y84.515 E23.15077
G1 X78.917 Y84.403 E23.19365
G1 X79.453 Y84.374 E23.21864
G1 X80.071 Y84.361 E23.24743
G1 X81.528 Y84.362 E23.31527
G1 X82.664 Y84.378 E23.36817
G0 F6000 X82.669 Y83.978
G1 F1200 X85.446 Y83.976 E23.49748
G1 X86.561 Y83.961 E23.54941
G1 X89.059 Y83.966 E23.66572
G1 X89.751 Y83.961 E23.69795
G1 X95.607 Y83.962 E23.97063
G1 X96.305 Y83.972 E24.00313
G1 X97.188 Y84.02 E24.04431
G1 X97.394 Y84.04 E24.05395
G1 X100.032 Y84.263 E24.17722
G1 X102.493 Y84.403 E24.292
G1 X105.043 Y84.474 E24.41078
G1 X107.567 Y84.474 E24.52831
G1 X110.062 Y84.402 E24.64454
G1 X112.568 Y84.261 E24.76141
G1 X115.532 Y84.01 E24.89992
G1 X116.128 Y83.976 E24.92772
G1 X116.791 Y83.961 E24.9586
G1 X118.287 Y83.962 E25.02826
G1 X118.988 Y83.972 E25.0609
G1 X119.924 Y84.025 E25.10456
G1 X120.853 Y84.158 E25.14826
G1 X121.766 Y84.37 E25.1919
G1 X122.659 Y84.658 E25.23559
G1 X123.523 Y85.022 E25.27925
G1 X124.354 Y85.458 E25.32295
G1 X125.144 Y85.963 E25.36661
G1 X125.888 Y86.533 E25.41025
G1 X126.313 Y86.908 E25.43664
G1 X126.861 Y87.416 E25.47143
G1 X128.746 Y89.121 E25.58979
G1 X130.688 Y90.78 E25.70872
G1 X132.655 Y92.368 E25.82643
G1 X134.658 Y93.891 E25.9436
G1 X136.703 Y95.358 E26.06079
G1 X138.765 Y96.751 E26.17666
G1 X140.913 Y98.115 E26.29515
G1 X143.086 Y99.409 E26.41291
G1 X145.266 Y100.625 E26.52915
G1 X147.49 Y101.785 E26.64594
G1 X149.78 Y102.899 E26.76452
G1 X152.052 Y103.924 E26.88059
G1 X154.359 Y104.89 E26.99705
G1 X156.895 Y105.848 E27.12328
G1 X157.646 Y106.138 E27.16076
G1 X158.505 Y106.513 E27.20441
G1 X159.108 Y106.831 E27.23615
G1 X159.943 Y107.309 E27.28095
G1 X160.239 Y107.488 E27.29706
G1 X161.02 Y108.007 E27.34072
G1 X161.946 Y108.762 E27.39636
G1 X162.133 Y108.932 E27.40813
G1 X162.527 Y109.308 E27.43349
G1 X163.042 Y109.825 E27.46747
G1 X163.675 Y110.517 E27.51114
G1 X164.247 Y111.26 E27.5548
G1 X164.753 Y112.05 E27.59848
G1 X165.19 Y112.88 E27.64216
G1 X165.555 Y113.744 E27.68583
G1 X165.845 Y114.636 E27.72951
G1 X166.058 Y115.549 E27.77316
G1 X166.193 Y116.477 E27.81683
G1 X166.248 Y117.72 E27.87477
G1 X166.223 Y119.29 E27.94788
G1 X166.249 Y123.081 E28.12441
G1 X166.215 Y124.019 E28.16812
G1 X166.102 Y124.95 E28.21179
G1 X165.91 Y125.867 E28.25541
G1 X165.64 Y126.766 E28.29912
G1 X165.295 Y127.638 E28.34279
G1 X164.876 Y128.477 E28.38645
G1 X164.388 Y129.278 E28.43013
G1 X163.833 Y130.034 E28.4738
G1 X163.205 Y130.752 E28.51822
G1 X163.036 Y130.929 E28.52961
G1 X162.704 Y131.262 E28.55151
G1 X162.185 Y131.761 E28.58503
G1 X161.482 Y132.382 E28.62871
G1 X160.478 Y133.105 E28.68632
G1 X160.268 Y133.239 E28.69792
G1 X159.844 Y133.496 E28.72101
G1 X159.235 Y133.847 E28.75374
G1 X158.403 Y134.281 E28.79743
G1 X157.174 Y134.768 E28.85899
G1 X156.565 Y134.968 E28.88884
G1 X156.223 Y135.074 E28.90551
G1 X155.854 Y135.182 E28.92341
G1 X154.943 Y135.407 E28.96711
G1 X153.976 Y135.558 E29.01268
G1 X153.191 Y135.645 E29.04946
G1 X152.795 Y135.682 E29.06798
G1 X152.459 Y135.707 E29.08367
G1 X151.522 Y135.736 E29.12732
G1 X150.642 Y135.691 E29.16835
G1 X149.759 Y135.606 E29.20965
G1 X149.133 Y135.53 E29.23902
G1 X148.236 Y135.383 E29.28134
G1 X147.655 Y135.262 E29.30898
G1 X145.841 Y134.858 E29.39551
G1 X143.383 Y134.383 E29.51208
G1 X140.879 Y133.972 E29.63024
G1 X138.401 Y133.638 E29.74667
G1 X135.922 Y133.374 E29.86276
G1 X133.39 Y133.176 E29.98102
G1 X130.873 Y133.052 E30.09836
G1 X128.352 Y132.998 E30.21578
G1 X125.826 Y133.017 E30.3334
G1 X123.338 Y133.105 E30.44933
G1 X120.787 Y133.268 E30.56835
G1 X118.329 Y133.495 E30.68329
G1 X115.813 Y133.798 E30.8013
G1 X113.302 Y134.175 E30.91953
G1 X110.821 Y134.617 E31.03687
G1 X108.388 Y135.123 E31.15259
G1 X107.621 Y135.299 E31.18923
G1 X107.305 Y135.366 E31.20427
G1 X106.363 Y135.523 E31.24874
G1 X105.465 Y135.629 E31.29085
G1 X104.842 Y135.688 E31.31999
G1 X103.905 Y135.737 E31.36368
G1 X103.286 Y135.725 E31.39251
G1 X102.029 Y135.664 E31.45111
G1 X101.665 Y135.641 E31.46809
G1 X99.192 Y135.555 E31.58331
G1 X96.678 Y135.54 E31.70038
G1 X95.978 Y135.557 E31.73298
G1 X93.821 Y135.579 E31.83342
G1 X91.201 Y135.579 E31.95542
G1 X90.552 Y135.57 E31.98565
G1 X89.616 Y135.517 E32.0293
G1 X88.688 Y135.384 E32.07295
G1 X87.774 Y135.173 E32.11663
G1 X86.881 Y134.885 E32.16032
G1 X86.017 Y134.522 E32.20396
G1 X85.186 Y134.086 E32.24766
G1 X84.396 Y133.582 E32.29129
G1 X83.651 Y133.011 E32.335
G1 X82.958 Y132.38 E32.37864
G1 X82.321 Y131.692 E32.4223
G1 X81.745 Y130.951 E32.466
G1 X81.234 Y130.165 E32.50966
G1 X80.791 Y129.338 E32.55334
G1 X80.477 Y128.619 E32.58988
G1 X80.031 Y127.492 E32.64631
G1 X79.061 Y125.085 E32.76715
G1 X78.048 Y122.765 E32.88503
