;FLAVOR:Marlin
;TIME:10873
;Filament used: 5.79367m
;Layer height: 0.2
;MINX:12
;MINY:53.967
;MINZ:0.2
;MAXX:223
;MAXY:145.678
;MAXZ:6
;Generated with Cura_SteamEngine 4.6.1
M140 S50
M105
M190 S50
M104 S200
M105
M109 S200
M82 ;absolute extrusion mode
; Ender 3 Custom Start G-code
G92 E0 ; Reset Extruder
G28 ; Home all axes
G1 Z2.0 F3000 ; Move Z Axis up little to prevent scratching of Heat Bed
G1 X0.1 Y20 Z0.3 F5000.0 ; Move to start position
G1 X0.1 Y200.0 Z0.3 F1500.0 E15 ; Draw the first line
G1 X0.4 Y200.0 Z0.3 F5000.0 ; Move to side a little
G1 X0.4 Y20 Z0.3 F1500.0 E30 ; Draw the second line
G92 E0 ; Reset Extruder
G1 Z2.0 F3000 ; Move Z Axis up little to prevent scratching of Heat Bed
G1 X5 Y20 Z0.3 F5000.0 ; Move over to prevent blob squish
G92 E0
G92 E0
G1 F2700 E-5
;LAYER_COUNT:30
;LAYER:0
M107
G0 F6000 X212.137 Y54.778 Z0.2
;TYPE:SKIRT
G1 F2700 E0
G1 F1200 X213.039 Y54.831 E0.03005
G1 X213.932 Y54.963 E0.06008
G1 X214.81 Y55.174 E0.09011
G1 X215.666 Y55.462 E0.12015
G1 X216.493 Y55.824 E0.15018
G1 X217.285 Y56.259 E0.18023
G1 X218.036 Y56.761 E0.21027
G1 X218.739 Y57.328 E0.24031
G1 X219.389 Y57.955 E0.27035
G1 X219.981 Y58.637 E0.30039
G1 X220.511 Y59.368 E0.33042
G1 X220.973 Y60.144 E0.36046
G1 X221.366 Y60.957 E0.39049
G1 X221.684 Y61.802 E0.42052
G1 X221.927 Y62.672 E0.45056
G1 X222.092 Y63.56 E0.4806
G1 X222.187 Y64.69 E0.51832
G1 X222.2 Y65.297 E0.53851
G1 X222.2 Y133.942 E2.82166
G1 X222.19 Y134.795 E2.85003
G1 X222.139 Y135.697 E2.88008
G1 X222.008 Y136.591 E2.91013
G1 X221.799 Y137.469 E2.94015
G1 X221.513 Y138.326 E2.9702
G1 X221.152 Y139.154 E3.00024
G1 X220.72 Y139.946 E3.03025
G1 X220.219 Y140.698 E3.0603
G1 X219.653 Y141.402 E3.09035
G1 X219.028 Y142.053 E3.12036
G1 X218.347 Y142.647 E3.15042
G1 X217.616 Y143.178 E3.18047
G1 X216.842 Y143.642 E3.21048
G1 X216.029 Y144.036 E3.24053
G1 X215.185 Y144.356 E3.27055
G1 X214.315 Y144.601 E3.30061
G1 X213.428 Y144.767 E3.33063
G1 X212.277 Y144.865 E3.36905
G1 X211.67 Y144.878 E3.38924
G1 X23.707 Y144.878 E9.64092
G1 X22.877 Y144.868 E9.66853
G1 X21.976 Y144.817 E9.69854
G1 X21.082 Y144.685 E9.7286
G1 X20.204 Y144.476 E9.75862
G1 X19.347 Y144.189 E9.78868
G1 X18.52 Y143.828 E9.81869
G1 X17.727 Y143.395 E9.84874
G1 X16.976 Y142.894 E9.87877
G1 X16.272 Y142.328 E9.90881
G1 X15.621 Y141.702 E9.93885
G1 X15.028 Y141.021 E9.96888
G1 X14.498 Y140.29 E9.99891
G1 X14.034 Y139.515 E10.02896
G1 X13.64 Y138.702 E10.05901
G1 X13.32 Y137.858 E10.08903
G1 X13.076 Y136.988 E10.11908
G1 X12.91 Y136.1 E10.14913
G1 X12.813 Y134.945 E10.18768
G1 X12.8 Y134.336 E10.20794
G1 X12.8 Y65.641 E12.49274
G1 X12.81 Y64.838 E12.51945
G1 X12.862 Y63.936 E12.5495
G1 X12.994 Y63.043 E12.57953
G1 X13.204 Y62.165 E12.60955
G1 X13.491 Y61.308 E12.63961
G1 X13.853 Y60.481 E12.66964
G1 X14.286 Y59.689 E12.69966
G1 X14.788 Y58.938 E12.72971
G1 X15.355 Y58.234 E12.75977
G1 X15.981 Y57.584 E12.78979
G1 X16.662 Y56.991 E12.81982
G1 X17.394 Y56.461 E12.84988
G1 X18.169 Y55.998 E12.8799
G1 X18.982 Y55.605 E12.90994
G1 X19.827 Y55.285 E12.93999
G1 X20.696 Y55.042 E12.97
G1 X21.584 Y54.876 E13.00005
G1 X22.723 Y54.78 E13.03807
G1 X23.33 Y54.767 E13.05826
G1 X211.293 Y54.767 E19.30993
G1 X211.439 Y54.768 E19.31479
G1 X212.137 Y54.778 E19.33801
G0 F6000 X212.143 Y54.378
G1 F1200 X213.062 Y54.431 E19.36863
G1 X213.973 Y54.564 E19.39925
G1 X214.869 Y54.775 E19.42986
G1 X215.743 Y55.063 E19.46047
G1 X216.59 Y55.426 E19.49112
G1 X217.401 Y55.861 E19.52173
G1 X218.171 Y56.365 E19.55234
G1 X218.895 Y56.934 E19.58296
G1 X219.567 Y57.564 E19.6136
G1 X220.182 Y58.249 E19.64422
G1 X220.735 Y58.985 E19.67484
G1 X221.222 Y59.766 E19.70545
G1 X221.639 Y60.587 E19.73608
G1 X221.984 Y61.441 E19.76671
G1 X222.253 Y62.321 E19.79732
G1 X222.445 Y63.222 E19.82796
G1 X222.558 Y64.135 E19.85856
G1 X222.587 Y64.679 E19.87668
G1 X222.6 Y65.297 E19.89724
G1 X222.6 Y133.942 E22.18038
G1 X222.59 Y134.8 E22.20892
G1 X222.539 Y135.719 E22.23953
G1 X222.408 Y136.631 E22.27017
G1 X222.198 Y137.527 E22.30078
G1 X221.912 Y138.402 E22.3314
G1 X221.551 Y139.249 E22.36202
G1 X221.117 Y140.061 E22.39265
G1 X220.615 Y140.833 E22.42327
G1 X220.047 Y141.558 E22.45391
G1 X219.419 Y142.231 E22.48452
G1 X218.735 Y142.847 E22.51514
G1 X218 Y143.401 E22.54575
G1 X217.22 Y143.89 E22.57637
G1 X216.4 Y144.309 E22.607
G1 X215.547 Y144.655 E22.63761
G1 X214.667 Y144.926 E22.66824
G1 X213.767 Y145.119 E22.69885
G1 X212.853 Y145.234 E22.72949
G1 X212.288 Y145.265 E22.74831
G1 X211.67 Y145.278 E22.76887
G1 X23.707 Y145.278 E29.02055
G1 X22.872 Y145.268 E29.04832
G1 X21.953 Y145.216 E29.07894
G1 X21.042 Y145.085 E29.10955
G1 X20.146 Y144.875 E29.14016
G1 X19.271 Y144.588 E29.17079
G1 X18.424 Y144.226 E29.20142
G1 X17.612 Y143.792 E29.23205
G1 X16.841 Y143.29 E29.26265
G1 X16.116 Y142.722 E29.29328
G1 X15.443 Y142.093 E29.32392
G1 X14.828 Y141.409 E29.35451
G1 X14.274 Y140.674 E29.38512
G1 X13.786 Y139.893 E29.41575
G1 X13.367 Y139.073 E29.44638
G1 X13.021 Y138.22 E29.477
G1 X12.751 Y137.34 E29.50761
G1 X12.558 Y136.439 E29.53826
G1 X12.444 Y135.526 E29.56886
G1 X12.413 Y134.955 E29.58788
G1 X12.4 Y134.336 E29.60847
G1 X12.4 Y65.641 E31.89328
G1 X12.41 Y64.833 E31.92016
G1 X12.462 Y63.913 E31.9508
G1 X12.594 Y63.002 E31.98142
G1 X12.805 Y62.106 E32.01204
G1 X13.092 Y61.231 E32.04266
G1 X13.455 Y60.385 E32.07328
G1 X13.889 Y59.573 E32.10391
G1 X14.392 Y58.802 E32.13452
G1 X14.961 Y58.078 E32.16515
G1 X15.589 Y57.406 E32.19574
G1 X16.274 Y56.79 E32.22638
G1 X17.01 Y56.237 E32.257
G1 X17.791 Y55.749 E32.28763
G1 X18.611 Y55.331 E32.31825
G1 X19.465 Y54.986 E32.34888
G1 X20.345 Y54.716 E32.3795
G1 X21.245 Y54.524 E32.4101
G1 X22.159 Y54.41 E32.44074
G1 X22.712 Y54.38 E32.45916
G1 X23.33 Y54.367 E32.47972
G1 X211.293 Y54.367 E38.73139
G1 X211.445 Y54.368 E38.73645
G1 X212.143 Y54.378 E38.75967
G0 F6000 X212.149 Y53.978
G1 F1200 X213.085 Y54.032 E38.79085
G1 X214.013 Y54.164 E38.82203
G1 X214.927 Y54.376 E38.85323
G1 X215.819 Y54.665 E38.88442
G1 X216.684 Y55.028 E38.91562
G1 X217.514 Y55.464 E38.9468
G1 X218.305 Y55.969 E38.97802
G1 X219.049 Y56.54 E39.00921
G1 X219.742 Y57.172 E39.0404
G1 X220.379 Y57.86 E39.07159
G1 X220.954 Y58.601 E39.10278
G1 X221.465 Y59.387 E39.13397
G1 X221.907 Y60.215 E39.16518
G1 X222.276 Y61.077 E39.19637
G1 X222.571 Y61.967 E39.22756
G1 X222.789 Y62.879 E39.25874
G1 X222.929 Y63.807 E39.28996
G1 X222.987 Y64.668 E39.31866
G1 X223 Y65.297 E39.33958
G1 X223 Y133.942 E41.62273
G1 X222.99 Y134.805 E41.65143
G1 X222.939 Y135.742 E41.68264
G1 X222.807 Y136.67 E41.71382
G1 X222.598 Y137.584 E41.745
G1 X222.311 Y138.477 E41.7762
G1 X221.949 Y139.343 E41.80742
G1 X221.515 Y140.174 E41.8386
G1 X221.011 Y140.965 E41.8698
G1 X220.442 Y141.71 E41.90098
G1 X219.811 Y142.405 E41.9322
G1 X219.124 Y143.043 E41.96338
G1 X218.385 Y143.62 E41.99456
G1 X217.599 Y144.132 E42.02576
G1 X216.773 Y144.575 E42.05694
G1 X215.911 Y144.947 E42.08816
G1 X215.022 Y145.243 E42.11933
G1 X214.11 Y145.463 E42.15053
G1 X213.183 Y145.604 E42.18172
G1 X212.299 Y145.665 E42.21119
G1 X211.67 Y145.678 E42.23212
G1 X23.707 Y145.678 E48.48379
G1 X22.867 Y145.668 E48.51173
G1 X21.931 Y145.616 E48.54291
G1 X21.002 Y145.484 E48.57412
G1 X20.088 Y145.274 E48.60531
G1 X19.195 Y144.987 E48.63651
G1 X18.33 Y144.624 E48.66771
G1 X17.499 Y144.19 E48.69889
G1 X16.708 Y143.686 E48.73009
G1 X15.963 Y143.116 E48.76129
G1 X15.269 Y142.485 E48.79248
G1 X14.632 Y141.798 E48.82364
G1 X14.055 Y141.058 E48.85485
G1 X13.543 Y140.272 E48.88605
G1 X13.1 Y139.445 E48.91726
G1 X12.729 Y138.584 E48.94844
G1 X12.433 Y137.694 E48.97964
G1 X12.214 Y136.782 E49.01083
G1 X12.073 Y135.855 E49.04202
G1 X12.013 Y134.966 E49.07165
G1 X12 Y134.336 E49.09261
G1 X12 Y65.641 E51.37742
G1 X12.01 Y64.827 E51.40449
G1 X12.063 Y63.891 E51.43567
G1 X12.195 Y62.962 E51.46688
G1 X12.406 Y62.048 E51.49808
G1 X12.694 Y61.156 E51.52926
G1 X13.057 Y60.291 E51.56046
G1 X13.492 Y59.46 E51.59166
G1 X13.996 Y58.67 E51.62282
G1 X14.566 Y57.925 E51.65402
G1 X15.198 Y57.231 E51.68524
G1 X15.886 Y56.594 E51.71643
G1 X16.626 Y56.018 E51.74762
G1 X17.412 Y55.506 E51.77882
G1 X18.239 Y55.064 E51.81001
G1 X19.101 Y54.694 E51.84121
G1 X19.991 Y54.398 E51.8724
G1 X20.903 Y54.18 E51.90359
G1 X21.83 Y54.039 E51.93478
G1 X22.701 Y53.98 E51.96381
G1 X23.33 Y53.967 E51.98474
G1 X211.293 Y53.967 E58.23641
G1 X211.451 Y53.968 E58.24167
G1 X212.149 Y53.978 E58.26488
G1 F2700 E53.26488
;MESH:trophy text final.stl
G0 F6000 X186.79 Y70.056
G0 X186.628 Y69.052
G0 X184.154 Y70.269
G0 X183.158 Y72.359
G0 X181.888 Y73.164
G0 X179.994 Y73.082
G0 X154.693 Y88.199
G0 X153.734 Y91.015
G0 X152.751 Y91.639
G0 X149.992 Y91.358
G0 X149.605 Y93.528
G0 X149.627 Y93.62
G0 X123.085 Y110.451
G0 X124.547 Y110.451
G0 X123.844 Y111.918
G0 X123.422 Y112.494
G0 X122.918 Y112.891
G0 X121.471 Y113.456
;TYPE:WALL-INNER
G1 F2700 E58.26488
G1 F1200 X122.233 Y113.369 E58.29039
G1 X122.943 Y113.077 E58.31593
G1 X123.54 Y112.607 E58.3412
G1 X123.986 Y111.995 E58.36639
G1 X124.271 Y111.24 E58.39323
G1 X124.356 Y110.451 E58.41962
G1 X124.271 Y109.662 E58.44601
G1 X123.986 Y108.907 E58.47286
G1 X123.54 Y108.294 E58.49807
G1 X122.942 Y107.825 E58.52335
G1 X122.235 Y107.534 E58.54878
G1 X121.485 Y107.443 E58.5739
G1 X120.749 Y107.531 E58.59856
G1 X120.04 Y107.818 E58.624
G1 X119.442 Y108.283 E58.64919
G1 X118.993 Y108.895 E58.67444
G1 X118.704 Y109.648 E58.70126
G1 X118.616 Y110.436 E58.72764
G1 X118.696 Y111.225 E58.75401
G1 X118.978 Y111.98 E58.78082
G1 X119.422 Y112.595 E58.80605
G1 X120.016 Y113.068 E58.8313
G1 X120.723 Y113.362 E58.85677
G1 X121.471 Y113.456 E58.88184
G0 F6000 X121.473 Y113.053
;TYPE:WALL-OUTER
G1 F1200 X122.132 Y112.978 E58.9039
G1 X122.739 Y112.728 E58.92574
G1 X123.249 Y112.327 E58.94732
G1 X123.631 Y111.803 E58.96888
G1 X123.879 Y111.146 E58.99224
G1 X123.954 Y110.451 E59.01549
G1 X123.879 Y109.756 E59.03874
G1 X123.631 Y109.099 E59.0621
G1 X123.249 Y108.574 E59.08369
G1 X122.739 Y108.174 E59.10525
G1 X122.133 Y107.925 E59.12704
G1 X121.485 Y107.846 E59.14875
G1 X120.85 Y107.922 E59.17002
G1 X120.242 Y108.168 E59.19184
G1 X119.731 Y108.565 E59.21336
G1 X119.347 Y109.088 E59.23494
G1 X119.096 Y109.743 E59.25827
G1 X119.018 Y110.438 E59.28153
G1 X119.089 Y111.133 E59.30477
G1 X119.334 Y111.79 E59.32809
G1 X119.714 Y112.316 E59.34967
G1 X120.221 Y112.72 E59.37123
G1 X120.827 Y112.972 E59.39306
G1 X121.473 Y113.053 E59.41472
G0 F6000 X121.471 Y113.493
G0 X121.503 Y114.218
;TYPE:WALL-INNER
G1 F1200 X120.373 Y114.101 E59.4525
G1 X119.879 Y113.945 E59.46973
G1 X119.384 Y113.734 E59.48763
G1 X118.554 Y113.145 E59.52148
G1 X118.228 Y112.783 E59.53768
G1 X117.94 Y112.39 E59.55389
G1 X117.714 Y111.926 E59.57106
G1 X117.545 Y111.463 E59.58745
G1 X117.456 Y110.962 E59.60437
G1 X117.418 Y110.451 E59.62142
G1 X117.456 Y109.939 E59.63849
G1 X117.545 Y109.439 E59.65538
G1 X117.713 Y108.98 E59.67164
G1 X117.942 Y108.509 E59.68906
G1 X118.228 Y108.119 E59.70514
G1 X118.554 Y107.757 E59.72135
G1 X119.384 Y107.168 E59.7552
G1 X119.879 Y106.957 E59.77309
G1 X120.373 Y106.801 E59.79033
G1 X121.486 Y106.68 E59.82756
G1 X122.578 Y106.797 E59.86409
G1 X123.084 Y106.953 E59.8817
G1 X123.574 Y107.161 E59.89941
G1 X124.406 Y107.749 E59.93329
G1 X124.725 Y108.097 E59.94899
G1 X125.026 Y108.508 E59.96594
G1 X125.248 Y108.959 E59.98266
G1 X125.421 Y109.432 E59.99941
G1 X125.512 Y109.936 E60.01644
G1 X125.549 Y110.434 E60.03305
G1 X125.515 Y110.958 E60.05052
G1 X125.428 Y111.454 E60.06726
G1 X125.262 Y111.913 E60.0835
G1 X125.033 Y112.382 E60.10086
G1 X124.749 Y112.776 E60.11701
G1 X124.425 Y113.135 E60.1331
G1 X123.601 Y113.721 E60.16673
G1 X123.1 Y113.938 E60.18489
G1 X122.605 Y114.096 E60.20217
G1 X121.503 Y114.218 E60.23904
G0 F6000 X121.506 Y114.621
;TYPE:WALL-OUTER
G1 F1200 X120.293 Y114.495 E60.27961
G1 X119.737 Y114.319 E60.299
G1 X119.19 Y114.086 E60.31878
G1 X118.285 Y113.444 E60.35568
G1 X117.917 Y113.036 E60.37396
G1 X117.597 Y112.598 E60.392
G1 X117.344 Y112.08 E60.41117
G1 X117.157 Y111.567 E60.42933
G1 X117.059 Y111.012 E60.44808
G1 X117.017 Y110.451 E60.46679
G1 X117.059 Y109.889 E60.48553
G1 X117.157 Y109.335 E60.50425
G1 X117.344 Y108.822 E60.52241
G1 X117.597 Y108.303 E60.54161
G1 X117.917 Y107.866 E60.55963
G1 X118.285 Y107.458 E60.5779
G1 X119.19 Y106.816 E60.61481
G1 X119.737 Y106.583 E60.63458
G1 X120.293 Y106.407 E60.65398
G1 X121.486 Y106.277 E60.69389
G1 X122.657 Y106.403 E60.73306
G1 X123.22 Y106.577 E60.75266
G1 X123.772 Y106.811 E60.7726
G1 X124.67 Y107.445 E60.80917
G1 X125.036 Y107.844 E60.82717
G1 X125.37 Y108.301 E60.846
G1 X125.618 Y108.805 E60.86468
G1 X125.809 Y109.326 E60.88314
G1 X125.909 Y109.884 E60.90199
G1 X125.95 Y110.434 E60.92034
G1 X125.912 Y111.007 E60.93944
G1 X125.816 Y111.556 E60.95798
G1 X125.631 Y112.069 E60.97611
G1 X125.378 Y112.587 E60.99529
G1 X125.058 Y113.03 E61.01346
G1 X124.692 Y113.436 E61.03164
G1 X123.799 Y114.071 E61.06809
G1 X123.238 Y114.314 E61.08842
G1 X122.687 Y114.49 E61.10766
G1 X121.506 Y114.621 E61.14718
G0 F6000 X121.505 Y114.181
G0 X122.39 Y113.727
;TYPE:SKIN
G1 F1200 X123.142 Y113.417 E61.17424
G1 X123.823 Y112.88 E61.20308
G1 X124.333 Y112.182 E61.23183
G1 X124.653 Y111.331 E61.26207
G1 X124.748 Y110.451 E61.29151
G1 X124.653 Y109.571 E61.32095
G1 X124.333 Y108.72 E61.35119
G1 X123.823 Y108.021 E61.37997
G1 X123.141 Y107.485 E61.40882
G1 X122.367 Y107.167 E61.43665
G1 X122.499 Y107.181 E61.44107
G1 X122.955 Y107.321 E61.45693
G1 X123.385 Y107.504 E61.47248
G1 X124.148 Y108.043 E61.50355
G1 X124.424 Y108.345 E61.51715
G1 X124.692 Y108.712 E61.53227
G1 X124.886 Y109.104 E61.54682
G1 X125.042 Y109.532 E61.56197
G1 X125.125 Y109.992 E61.57751
G1 X125.157 Y110.429 E61.59209
G1 X125.126 Y110.919 E61.60842
G1 X125.05 Y111.351 E61.62301
G1 X124.902 Y111.76 E61.63747
G1 X124.695 Y112.185 E61.6532
G1 X124.444 Y112.533 E61.66747
G1 X124.167 Y112.84 E61.68122
G1 X123.408 Y113.379 E61.71218
G1 X122.967 Y113.57 E61.72817
G1 X122.523 Y113.712 E61.74367
G1 X122.39 Y113.727 E61.74812
G1 F2700 E56.74812
G0 F6000 X122.419 Y114.006
G0 X121.677 Y114.038
G0 X120.656 Y113.938
G0 X120.706 Y113.553
G0 X120.706 Y113.472
G0 X120.598 Y113.732
G1 F2700 E61.74812
G1 F1200 X120.451 Y113.717 E61.75304
G1 X120.017 Y113.58 E61.76817
G1 X119.575 Y113.391 E61.78416
G1 X118.815 Y112.852 E61.81515
G1 X118.521 Y112.525 E61.82978
G1 X118.279 Y112.194 E61.84342
G1 X118.075 Y111.776 E61.85889
G1 X117.923 Y111.357 E61.87371
G1 X117.842 Y110.904 E61.88902
G1 X117.808 Y110.449 E61.90419
G1 X117.842 Y109.996 E61.9193
G1 X117.923 Y109.539 E61.93474
G1 X118.07 Y109.138 E61.94894
G1 X118.28 Y108.706 E61.96492
G1 X118.523 Y108.374 E61.9786
G1 X118.815 Y108.05 E61.99311
G1 X119.575 Y107.511 E62.0241
G1 X120.017 Y107.322 E62.04009
G1 X120.451 Y107.185 E62.05522
G1 X120.606 Y107.168 E62.06041
G1 X119.843 Y107.477 E62.08779
G1 X119.159 Y108.008 E62.11659
G1 X118.648 Y108.706 E62.14536
G1 X118.322 Y109.555 E62.17561
G1 X118.224 Y110.434 E62.20503
G1 X118.313 Y111.315 E62.23448
G1 X118.631 Y112.165 E62.26466
G1 X119.137 Y112.866 E62.29342
G1 X119.815 Y113.407 E62.32227
G1 X120.598 Y113.732 E62.35047
G0 F6000 X120.705 Y113.475
G0 X119.54 Y112.482
G0 X119.201 Y112.014
G0 X118.532 Y110.696
G0 X118.094 Y110.74
G1 F1200 X117.98 Y110.626 E62.35583
G0 F6000 X118.091 Y110.172
G1 F1200 X117.994 Y110.074 E62.36041
G0 F6000 X118.148 Y109.663
G1 F1200 X118.075 Y109.59 E62.36385
G1 F2700 E57.36385
G0 F6000 X117.644 Y109.513
G0 X118.124 Y108.615
G0 X118.824 Y108.802
G0 X120.122 Y107.959
G0 X120.791 Y107.689
G0 X121.485 Y107.605
G0 X122.194 Y107.692
G0 X122.861 Y107.966
G0 X123.422 Y108.407
G0 X123.763 Y108.874
G0 X124.441 Y110.214
G0 X124.877 Y110.169
G1 F2700 E62.36385
G1 F1200 X124.986 Y110.278 E62.36897
G0 F6000 X124.877 Y110.735
G1 F1200 X124.97 Y110.828 E62.37335
G0 F6000 X124.822 Y111.245
G1 F1200 X124.893 Y111.316 E62.37669
G1 F2700 E57.37669
G0 F6000 X125.307 Y111.468
G0 X124.885 Y112.296
G0 X124.31 Y113.007
G0 X123.516 Y113.571
G0 X122.995 Y113.769
G0 X122.86 Y113.338
G0 X122.182 Y113.485
G0 X122.207 Y113.722
;TYPE:SKIN
G1 F2700 E62.37669
G1 F1200 X122.037 Y113.552 E62.38069
G0 F6000 X121.783 Y113.581
G1 F1200 X122.183 Y113.981 E62.39009
