;FLAVOR:Marlin
;TIME:250
;Filament used: 0.052793m
;Layer height: 0.2
;MINX:92.264
;MINY:93.268
;MINZ:0.2
;MAXX:127.733
;MAXY:128.732
;MAXZ:1
;Generated with Cura_SteamEngine 4.4.0
M140 S60
M105
M190 S60
M104 S200
M105
M109 S200
M82 ;absolute extrusion mode
M201 X500.00 Y500.00 Z100.00 E5000.00 ;Setup machine max acceleration
M203 X500.00 Y500.00 Z10.00 E50.00 ;Setup machine max feedrate
M204 P500.00 R1000.00 T500.00 ;Setup Print/Retract/Travel acceleration
M205 X8.00 Y8.00 Z0.40 E5.00 ;Setup Jerk
M220 S100 ;Reset Feedrate
M221 S100 ;Reset Flowrate

G28 ;Home

G92 E0 ;Reset Extruder
G1 Z2.0 F3000 ;Move Z Axis up
G1 X10.1 Y20 Z0.28 F5000.0 ;Move to start position
G1 X10.1 Y200.0 Z0.28 F1500.0 E15 ;Draw the first line
G1 X10.4 Y200.0 Z0.28 F5000.0 ;Move to side a little
G1 X10.4 Y20 Z0.28 F1500.0 E30 ;Draw the second line
G92 E0 ;Reset Extruder
G1 Z2.0 F3000 ;Move Z Axis up

G92 E0
G92 E0
G1 F1500 E-6.5
;LAYER_COUNT:2
;LAYER:0
M107
G1 F300 Z0.8
;MESH:rotary international logo v4 blue.stl
G0 F6000 X110.394 Y126.685 Z0.8
;TYPE:WALL-OUTER
G1 F300 Z0.2
G1 F1500 E0
G1 F1200 X110.515 Y126.991 E0.00821
G1 X110.602 Y127.189 E0.0136
G1 X110.609 Y127.226 E0.01454
G1 X110.61 Y127.234 E0.01474
G1 X110.597 Y127.236 E0.01507
G1 X110.562 Y127.236 E0.01594
G1 X110.384 Y127.206 E0.02045
G1 X110.209 Y127.241 E0.0249
G1 X110.204 Y127.24 E0.02503
G1 X110.206 Y127.223 E0.02545
G1 X110.22 Y127.174 E0.02672
G1 X110.304 Y126.959 E0.03248
G1 X110.394 Y126.685 E0.03968
G1 F1500 E-6.46032
G1 F300 Z0.8
G0 F6000 X104.464 Y125.227 Z0.8
G1 F300 Z0.2
G1 F1500 E0.03968
G1 F1200 X104.777 Y125.281 E0.0476
G1 X104.938 Y125.329 E0.05179
G1 X105.004 Y125.368 E0.0537
G1 X105.039 Y125.4 E0.05489
G1 X105.059 Y125.428 E0.05574
G1 X105.077 Y125.466 E0.05679
G1 X105.099 Y125.553 E0.05903
G1 X105.1 Y125.583 E0.05978
G1 X105.094 Y125.614 E0.06057
G1 X105.081 Y125.645 E0.06141
G1 X105.058 Y125.675 E0.06235
G1 X105.029 Y125.7 E0.06331
G1 X104.96 Y125.737 E0.06526
G1 X104.902 Y125.748 E0.06673
G1 X104.873 Y125.731 E0.06757
G1 X104.8 Y125.701 E0.06954
G1 X104.486 Y125.611 E0.07769
G1 X104.425 Y125.574 E0.07947
G1 X104.401 Y125.539 E0.08052
G1 X104.394 Y125.519 E0.08105
G1 X104.388 Y125.484 E0.08194
G1 X104.394 Y125.4 E0.08404
G1 X104.403 Y125.356 E0.08516
G1 X104.434 Y125.266 E0.08753
G1 X104.464 Y125.227 E0.08876
G0 F6000 X104.678 Y125.467
;TYPE:SKIN
G1 F1200 X104.913 Y125.49 E0.09303
G1 F1500 E-6.40697
G1 F300 Z0.8
G0 F6000 X109.99 Y115.21 Z0.8
;TYPE:WALL-OUTER
G1 F300 Z0.2
G1 F1500 E0.09303
G1 F1200 X110.418 Y115.182 E0.10373
G1 X110.832 Y115.113 E0.1142
G1 X111.135 Y115.036 E0.122
G1 X111.522 Y114.9 E0.13223
G1 X111.803 Y114.775 E0.1399
G1 X112.093 Y114.618 E0.14813
G1 X112.224 Y114.537 E0.15197
G1 X112.432 Y114.395 E0.15825
G1 X112.552 Y114.302 E0.16204
G1 X112.706 Y114.176 E0.167
G1 X112.855 Y114.042 E0.172
G1 X112.998 Y113.9 E0.17703
G1 X113.132 Y113.751 E0.18203
G1 X113.261 Y113.597 E0.18704
G1 X113.382 Y113.436 E0.19206
G1 X113.611 Y113.081 E0.2026
G1 X113.752 Y112.811 E0.2102
G1 X113.907 Y112.439 E0.22025
G1 X114.025 Y112.049 E0.23042
G1 X114.087 Y111.746 E0.23813
G1 X114.127 Y111.436 E0.24593
G1 X114.142 Y111.122 E0.25377
G1 X114.142 Y110.961 E0.25779
G1 X114.134 Y110.786 E0.26216
G1 X114.119 Y110.613 E0.26649
G1 X114.097 Y110.441 E0.27081
G1 X114.068 Y110.272 E0.27509
G1 X114.034 Y110.107 E0.27929
G1 X113.993 Y109.942 E0.28353
G1 X113.946 Y109.781 E0.28772
G1 X113.892 Y109.622 E0.29191
G1 X113.833 Y109.466 E0.29607
G1 X113.769 Y109.314 E0.30018
G1 X113.623 Y109.019 E0.30839
G1 X113.541 Y108.877 E0.31248
G1 X113.453 Y108.737 E0.31661
G1 X113.285 Y108.496 E0.32394
G1 X113.056 Y108.218 E0.33292
G1 X112.804 Y107.962 E0.34188
G1 X112.531 Y107.728 E0.35085
G1 X112.239 Y107.519 E0.35981
G1 X112.033 Y107.393 E0.36583
G1 X111.82 Y107.279 E0.37186
G1 X111.599 Y107.178 E0.37792
G1 X111.372 Y107.089 E0.384
G1 X111.138 Y107.013 E0.39014
G1 X110.899 Y106.952 E0.39629
G1 X110.654 Y106.904 E0.40252
G1 X110.404 Y106.871 E0.40881
G1 X110.151 Y106.853 E0.41514
G1 X110.02 Y106.85 E0.41841
G1 X109.692 Y106.858 E0.42659
G1 X109.353 Y106.895 E0.4351
G1 X109.188 Y106.923 E0.43927
G1 X109.023 Y106.957 E0.44347
G1 X108.706 Y107.046 E0.45169
G1 X108.549 Y107.1 E0.45583
G1 X108.397 Y107.159 E0.4599
G1 X108.247 Y107.223 E0.46396
G1 X108.1 Y107.294 E0.46804
G1 X107.955 Y107.37 E0.47212
G1 X107.815 Y107.452 E0.47617
G1 X107.678 Y107.539 E0.48022
G1 X107.546 Y107.63 E0.48422
G1 X107.416 Y107.726 E0.48825
G1 X107.289 Y107.828 E0.49231
G1 X107.051 Y108.043 E0.50031
G1 X106.937 Y108.159 E0.50437
G1 X106.828 Y108.278 E0.50839
G1 X106.624 Y108.527 E0.51642
G1 X106.529 Y108.658 E0.52046
G1 X106.439 Y108.793 E0.52451
G1 X106.354 Y108.933 E0.52859
G1 X106.202 Y109.217 E0.53663
G1 X106.132 Y109.367 E0.54076
G1 X106.012 Y109.672 E0.54893
G1 X105.917 Y109.985 E0.55709
G1 X105.845 Y110.31 E0.5654
G1 X105.82 Y110.475 E0.56956
G1 X105.801 Y110.643 E0.57378
G1 X105.788 Y110.812 E0.578
G1 X105.781 Y111.104 E0.58529
G1 X105.799 Y111.419 E0.59316
G1 X105.859 Y111.829 E0.6035
G1 X105.96 Y112.225 E0.61369
G1 X106.06 Y112.514 E0.62132
G1 X106.181 Y112.792 E0.62888
G1 X106.262 Y112.952 E0.63336
G1 X106.36 Y113.127 E0.63836
G1 X106.467 Y113.297 E0.64337
G1 X106.58 Y113.463 E0.64838
G1 X106.702 Y113.623 E0.6534
G1 X106.831 Y113.776 E0.65839
G1 X106.967 Y113.924 E0.66341
G1 X107.146 Y114.101 E0.66969
G1 X107.259 Y114.2 E0.67343
G1 X107.412 Y114.327 E0.67839
G1 X107.574 Y114.448 E0.68344
G1 X107.741 Y114.559 E0.68844
G1 X107.913 Y114.663 E0.69345
G1 X108.201 Y114.817 E0.7016
G1 X108.573 Y114.972 E0.71165
G1 X108.961 Y115.089 E0.72176
G1 X109.262 Y115.153 E0.72944
G1 X109.569 Y115.194 E0.73716
G1 X109.99 Y115.21 E0.74767
G0 F6000 X109.822 Y115.304
G1 F1200 X109.608 Y115.294 E0.75302
G1 X109.294 Y115.258 E0.7609
G1 X108.994 Y115.2 E0.76852
G1 X108.683 Y115.115 E0.77657
G1 X108.398 Y115.013 E0.78412
G1 X108.12 Y114.889 E0.79171
G1 X107.756 Y114.69 E0.80206
G1 X107.412 Y114.455 E0.81245
G1 X107.102 Y114.198 E0.8225
G1 X106.878 Y113.978 E0.83033
G1 X106.615 Y113.674 E0.84036
G1 X106.373 Y113.335 E0.85075
G1 X106.163 Y112.973 E0.86119
G1 X105.993 Y112.602 E0.87137
G1 X105.885 Y112.303 E0.8793
G1 X105.803 Y112.01 E0.88689
G1 X105.741 Y111.698 E0.89482
G1 X105.702 Y111.378 E0.90286
G1 X105.687 Y111.056 E0.9109
G1 X105.69 Y110.829 E0.91657
G1 X105.716 Y110.515 E0.92443
G1 X105.769 Y110.186 E0.93274
G1 X105.87 Y109.786 E0.94303
G1 X105.977 Y109.479 E0.95114
G1 X106.145 Y109.104 E0.96139
G1 X106.292 Y108.84 E0.96893
G1 X106.53 Y108.485 E0.97959
G1 X106.787 Y108.172 E0.98969
G1 X106.996 Y107.956 E0.99719
G1 X107.312 Y107.68 E1.00765
G1 X107.562 Y107.496 E1.0154
G1 X107.817 Y107.335 E1.02292
G1 X108.102 Y107.184 E1.03097
G1 X108.384 Y107.059 E1.03866
G1 X108.675 Y106.955 E1.04637
G1 X108.991 Y106.867 E1.05455
G1 X109.298 Y106.807 E1.06236
G1 X109.622 Y106.768 E1.0705
G1 X109.955 Y106.753 E1.07881
G1 X110.288 Y106.762 E1.08712
G1 X110.613 Y106.798 E1.09528
G1 X110.923 Y106.855 E1.10314
G1 X111.229 Y106.936 E1.11104
G1 X111.532 Y107.042 E1.11904
G1 X111.911 Y107.211 E1.1294
G1 X112.181 Y107.362 E1.13711
G1 X112.521 Y107.592 E1.14735
G1 X112.835 Y107.853 E1.15754
G1 X113.06 Y108.074 E1.1654
G1 X113.323 Y108.382 E1.17551
G1 X113.501 Y108.631 E1.18314
G1 X113.67 Y108.905 E1.19117
G1 X113.855 Y109.274 E1.20147
G1 X113.971 Y109.564 E1.20926
G1 X114.072 Y109.88 E1.21754
G1 X114.145 Y110.186 E1.22538
G1 X114.185 Y110.409 E1.23104
G1 X114.222 Y110.729 E1.23907
G1 X114.236 Y111.179 E1.2503
G1 X114.217 Y111.5 E1.25832
G1 X114.174 Y111.814 E1.26623
G1 X114.106 Y112.127 E1.27422
G1 X114.018 Y112.42 E1.28185
G1 X113.944 Y112.619 E1.28715
G1 X113.772 Y112.994 E1.29744
G1 X113.623 Y113.256 E1.30496
G1 X113.394 Y113.588 E1.31502
G1 X113.127 Y113.906 E1.32538
G1 X112.908 Y114.126 E1.33312
G1 X112.6 Y114.388 E1.34321
G1 X112.431 Y114.513 E1.34845
G1 X112.076 Y114.736 E1.35891
G1 X111.898 Y114.832 E1.36395
G1 X111.614 Y114.963 E1.37175
G1 X111.216 Y115.106 E1.3823
G1 X110.901 Y115.192 E1.39045
G1 X110.594 Y115.251 E1.39825
G1 X110.265 Y115.289 E1.40651
G1 X109.822 Y115.304 E1.41757
G1 F1500 E-5.08243
G1 F300 Z0.8
G0 F6000 X117.63 Y125.134 Z0.8
;TYPE:WALL-INNER
G1 F300 Z0.2
G1 F1500 E1.41757
G1 F1200 X117.611 Y125.136 E1.41804
G1 X117.581 Y125.125 E1.41884
G1 X117.571 Y125.121 E1.41911
G1 X117.549 Y125.099 E1.41988
G1 X117.542 Y125.091 E1.42015
G1 X117.532 Y125.073 E1.42066
G1 X117.527 Y125.057 E1.42108
G1 X117.523 Y125.044 E1.42142
G1 X117.524 Y125.024 E1.42192
G1 X117.528 Y124.983 E1.42295
G1 X117.55 Y124.966 E1.42364
G1 X117.588 Y124.936 E1.42485
G1 X117.614 Y124.934 E1.42526
G1 X117.653 Y124.931 E1.426
G1 X117.683 Y124.95 E1.42661
G1 X117.694 Y124.958 E1.42685
G1 X117.705 Y124.974 E1.42712
G1 X117.721 Y124.996 E1.42755
G1 X117.723 Y125.007 E1.4276
G1 X117.729 Y125.04 E1.42813
G1 X117.715 Y125.07 E1.42858
G1 X117.67 Y125.117 E1.42968
G1 X117.63 Y125.134 E1.43035
G0 F6000 X117.711 Y125.425
G1 F1200 X117.623 Y125.438 E1.43257
G1 X117.558 Y125.434 E1.43419
G1 X117.474 Y125.409 E1.43638
G1 X117.438 Y125.393 E1.43736
G1 X117.378 Y125.353 E1.43916
G1 X117.303 Y125.275 E1.44186
G1 X117.257 Y125.197 E1.44412
G1 X117.232 Y125.122 E1.44609
G1 X117.223 Y125.073 E1.44733
G1 X117.223 Y124.955 E1.45028
G1 X117.243 Y124.885 E1.45209
G1 X117.26 Y124.847 E1.45313
G1 X117.292 Y124.796 E1.45463
G1 X117.358 Y124.728 E1.457
G1 X117.42 Y124.683 E1.45891
G1 X117.493 Y124.65 E1.46091
G1 X117.584 Y124.63 E1.46323
G1 X117.663 Y124.628 E1.4652
G1 X117.739 Y124.642 E1.46713
G1 X117.809 Y124.671 E1.46902
G1 X117.9 Y124.737 E1.47183
G1 X117.956 Y124.803 E1.47398
G1 X117.996 Y124.87 E1.47593
G1 X118.018 Y124.936 E1.47767
G1 X118.03 Y125.029 E1.48001
G1 X118.025 Y125.093 E1.48161
G1 X118.007 Y125.161 E1.48336
G1 X117.961 Y125.246 E1.48577
G1 X117.882 Y125.333 E1.4887
G1 X117.845 Y125.359 E1.48983
G1 X117.814 Y125.382 E1.4908
G1 X117.711 Y125.425 E1.49358
G0 F6000 X117.836 Y125.701
;TYPE:WALL-OUTER
G1 F1200 X117.773 Y125.719 E1.49521
G1 X117.698 Y125.733 E1.49712
G1 X117.624 Y125.738 E1.49897
G1 X117.554 Y125.736 E1.50071
G1 X117.498 Y125.728 E1.50213
G1 X117.419 Y125.709 E1.50415
G1 X117.359 Y125.687 E1.50575
G1 X117.3 Y125.66 E1.50736
G1 X117.234 Y125.62 E1.50929
G1 X117.186 Y125.584 E1.51079
G1 X117.134 Y125.538 E1.51252
G1 X117.092 Y125.493 E1.51405
G1 X117.051 Y125.439 E1.51575
G1 X117.008 Y125.37 E1.51777
G1 X116.98 Y125.314 E1.51934
G1 X116.955 Y125.249 E1.52107
G1 X116.938 Y125.186 E1.5227
G1 X116.924 Y125.105 E1.52475
G1 X116.919 Y124.966 E1.52822
G1 X116.928 Y124.899 E1.52991
G1 X116.946 Y124.826 E1.53178
G1 X116.964 Y124.774 E1.53315
G1 X116.996 Y124.705 E1.53505
G1 X117.03 Y124.646 E1.53675
G1 X117.069 Y124.595 E1.53835
G1 X117.115 Y124.544 E1.54007
G1 X117.162 Y124.501 E1.54165
G1 X117.222 Y124.454 E1.54356
G1 X117.278 Y124.419 E1.5452
G1 X117.345 Y124.386 E1.54707
G1 X117.405 Y124.363 E1.54867
G1 X117.468 Y124.346 E1.5503
G1 X117.543 Y124.332 E1.5522
G1 X117.62 Y124.327 E1.55412
G1 X117.684 Y124.328 E1.55572
G1 X117.757 Y124.338 E1.55756
G1 X117.83 Y124.356 E1.55944
G1 X117.885 Y124.376 E1.56089
G1 X117.951 Y124.406 E1.5627
G1 X118.004 Y124.438 E1.56425
G1 X118.069 Y124.485 E1.56625
G1 X118.114 Y124.526 E1.56777
G1 X118.157 Y124.573 E1.56936
G1 X118.204 Y124.633 E1.57126
G1 X118.243 Y124.695 E1.57308
G1 X118.271 Y124.751 E1.57465
G1 X118.293 Y124.807 E1.57615
G1 X118.312 Y124.876 E1.57793
G1 X118.325 Y124.952 E1.57986
G1 X118.33 Y125.029 E1.58178
G1 X118.328 Y125.097 E1.58348
G1 X118.32 Y125.152 E1.58486
G1 X118.302 Y125.227 E1.58679
G1 X118.279 Y125.289 E1.58844
G1 X118.216 Y125.405 E1.59173
G1 X118.171 Y125.467 E1.59364
G1 X118.122 Y125.52 E1.59544
G1 X118.076 Y125.562 E1.597
G1 X118.02 Y125.606 E1.59877
G1 X117.957 Y125.646 E1.60063
G1 X117.836 Y125.701 E1.60395
G0 F6000 X117.723 Y125.392
G1 F1500 E-4.89605
G1 F300 Z0.8
G0 F6000 X122.167 Y120.86 Z0.8
G1 F300 Z0.2
G1 F1500 E1.60395
G1 F1200 X122.707 Y121.044 E1.61818
G1 X122.49 Y121.359 E1.62772
G1 X122.471 Y121.335 E1.62849
G1 X122.167 Y120.86 E1.64255
G1 F1500 E-4.85745
G1 F300 Z0.8
G0 F6000 X123.481 Y120.1 Z0.8
;TYPE:WALL-INNER
G1 F300 Z0.2
G1 F1500 E1.64255
G1 F1200 X122.08 Y119.636 E1.67937
G1 X121.731 Y119.521 E1.68853
G1 X121.69 Y119.507 E1.68962
G1 X121.772 Y119.395 E1.69154
G1 X121.902 Y119.2 E1.69739
G1 X121.915 Y119.18 E1.69798
G1 X121.923 Y119.169 E1.69832
G1 X121.94 Y119.196
G1 X122.057 Y119.303 E1.70096
G1 X122.167 Y119.372 E1.7042
G1 X123.481 Y120.1 E1.72182
G1 F1500 E-4.77818
G1 F300 Z0.8
G0 F6000 X123.659 Y121.643 Z0.8
G1 F300 Z0.2
G1 F1500 E1.72182
G1 F1200 X123.695 Y121.658 E1.7228
G1 X123.526 Y121.877 E1.72771
G1 X123.323 Y122.138 E1.73596
G1 X123.298 Y122.17 E1.73697
G1 X123.288 Y122.182 E1.73736
G1 X123.257 Y122.139 E1.73787
G1 X123.28 Y122.106 E1.73805
G1 X123.494 Y121.853 E1.73937
G1 X123.659 Y121.643 E1.74024
G1 F1500 E-4.75976
G1 F300 Z0.8
G0 F6000 X121.308 Y121.662 Z0.8
G1 F300 Z0.2
G1 F1500 E1.74024
G1 F1200 X120.629 Y120.934 E1.76508
G1 X120.617 Y120.927 E1.76542
G1 X120.583 Y120.906 E1.76642
G1 X120.739 Y120.725 E1.77049
G1 X120.777 Y120.787
G1 X120.802 Y120.828
G1 X121.308 Y121.662 E1.77863
G1 F1500 E-4.72137
G1 F300 Z0.8
G0 F6000 X122.558 Y123.082 Z0.8
;TYPE:WALL-OUTER
G1 F300 Z0.2
G1 F1500 E1.77863
G1 F1200 X122.72 Y123.033 E1.78285
G1 X123.011 Y122.788 E1.79234
G1 X123.069 Y122.72 E1.79457
G1 X123.109 Y122.627 E1.7971
G1 X123.127 Y122.517 E1.79988
G1 X123.084 Y122.41 E1.80276
G1 X123.002 Y122.3 E1.80618
G1 X122.958 Y122.212 E1.80863
G1 X122.946 Y122.162 E1.80991
G1 X122.946 Y122.101 E1.81144
G1 X122.954 Y122.072 E1.81219
G1 X122.988 Y122 E1.81417
G1 X123.035 Y121.932 E1.81623
G1 X123.26 Y121.665 E1.82494
G1 X123.412 Y121.465 E1.83121
G1 X123.484 Y121.392 E1.83377
G1 X123.54 Y121.355 E1.83544
G1 X123.585 Y121.338 E1.83664
G1 X123.613 Y121.334 E1.83735
G1 X123.658 Y121.333 E1.83847
G1 X123.741 Y121.352 E1.8406
G1 X123.865 Y121.404 E1.84395
G1 X123.995 Y121.435 E1.84728
G1 X124.119 Y121.377 E1.8507
G1 X124.19 Y121.307 E1.85319
G1 X124.235 Y121.249 E1.85502
G1 X124.285 Y121.169 E1.85737
G1 X124.386 Y120.966 E1.86303
G1 X124.429 Y120.838 E1.86639
G1 X124.342 Y120.691 E1.87066
G1 X124.227 Y120.644 E1.87375
G1 X124.105 Y120.622 E1.87685
G1 X121.52 Y119.767 E1.94477
G1 X121.402 Y119.801 E1.94783
G1 X121.329 Y119.849 E1.95001
G1 X121.266 Y119.905 E1.95211
G1 X121.181 Y120.01 E1.95548
G1 X121.08 Y120.186 E1.96054
G1 X121.031 Y120.312 E1.96391
G1 X121.012 Y120.383 E1.96575
G1 X121.001 Y120.493 E1.96851
G1 X121.014 Y120.599 E1.97117
G1 X122.36 Y122.815 E2.03585
G1 X122.432 Y122.972 E2.04015
G1 X122.558 Y123.082 E2.04433
G1 F1500 E-4.45567
G1 F300 Z0.8
G0 F6000 X118.616 Y123.413 Z0.8
;TYPE:WALL-INNER
G1 F300 Z0.2
G1 F1500 E2.04433
G1 F1200 X118.573 Y123.388 E2.04557
G1 X118.481 Y123.334 E2.04823
G1 X118.431 Y123.313 E2.04958
G1 X118.32 Y123.264 E2.05261
G1 X118.306 Y123.258 E2.05299
G1 X118.193 Y123.221 E2.05595
G1 X118.128 Y123.199 E2.05767
G1 X117.996 Y123.17 E2.06104
G1 X118.072 Y123.118 E2.06115
G1 X118.166 Y123.054 E2.06285
G1 X118.272 Y122.981 E2.06533
G1 X118.326 Y123.058 E2.06706
G1 X118.378 Y123.131 E2.06828
G1 X118.404 Y123.157
G1 X118.47 Y123.221 E2.06898
G1 X118.528 Y123.297 E2.06977
G1 X118.583 Y123.369 E2.06993
G1 X118.616 Y123.413 E2.07007
G0 F6000 X119.481 Y124.585
G1 F1200 X119.538 Y124.662 E2.07246
G1 X119.638 Y124.798 E2.07667
G1 X119.728 Y124.92 E2.08045
G1 X119.813 Y125.034 E2.084
G1 X119.866 Y125.139 E2.08693
G1 X119.969 Y125.271 E2.09111
G1 X119.671 Y125.477 E2.10015
G1 X119.609 Y125.517 E2.10199
G1 X119.495 Y125.591 E2.10538
G1 X119.44 Y125.627 E2.10702
G1 X119.466 Y125.547 E2.10744
G1 X119.49 Y125.438 E2.10828
G1 X119.507 Y125.36 E2.10918
G1 X119.529 Y125.172 E2.1139
G1 X119.533 Y125.065 E2.11658
G1 X119.533 Y125.039 E2.11688
G1 X119.53 Y124.879 E2.11943
G1 X119.505 Y124.687 E2.12164
G1 X119.481 Y124.585 E2.12196
G1 F1500 E-4.37804
G1 F300 Z0.8
G0 F6000 X121.108 Y124.126 Z0.8
G1 F300 Z0.2
G1 F1500 E2.12196
G1 F1200 X121.267 Y124.174 E2.1261
G1 X121.343 Y124.197 E2.12808
G1 X121.243 Y124.283 E2.12947
G1 X121.232 Y124.292
G1 X121.108 Y124.126 E2.13113
G0 F6000 X120.324 Y123.578
;TYPE:WALL-OUTER
G1 F1200 X121.574 Y123.953 E2.16369
