;FLAVOR:Marlin
;TIME:964
;Filament used: 0.618931m
;Layer height: 0.28
;MINX:68.751
;MINY:83.935
;MINZ:0.28
;MAXX:166.258
;MAXY:135.707
;MAXZ:5.88
;Generated with Cura_SteamEngine 4.6.1
M140 S50
M105
M190 S50
M104 S200
M105
M109 S200
M82 ;absolute extrusion mode
; Ender 3 Custom Start G-code
G92 E0 ; Reset Extruder
G28 ; Home all axes
G1 Z2.0 F3000 ; Move Z Axis up little to prevent scratching of Heat Bed
G1 X0.1 Y20 Z0.3 F5000.0 ; Move to start position
G1 X0.1 Y200.0 Z0.3 F1500.0 E15 ; Draw the first line
G1 X0.4 Y200.0 Z0.3 F5000.0 ; Move to side a little
G1 X0.4 Y20 Z0.3 F1500.0 E30 ; Draw the second line
G92 E0 ; Reset Extruder
G1 Z2.0 F3000 ; Move Z Axis up little to prevent scratching of Heat Bed
G1 X5 Y20 Z0.3 F5000.0 ; Move over to prevent blob squish
G92 E0
G92 E0
G1 F2700 E-5
;LAYER_COUNT:21
;LAYER:0
M107
G0 F6000 X148.859 Y84.736 Z0.28
;TYPE:SKIRT
G1 F2700 E0
G1 F1200 X151.621 Y84.757 E0.12861
G1 X152.499 Y84.741 E0.1695
G1 X153.244 Y84.736 E0.2042
G1 X154.723 Y84.736 E0.27306
G1 X155.38 Y84.745 E0.30366
G1 X156.281 Y84.797 E0.34568
G1 X157.175 Y84.929 E0.38776
G1 X158.053 Y85.14 E0.42981
G1 X158.909 Y85.427 E0.47185
G1 X159.737 Y85.789 E0.51393
G1 X160.529 Y86.222 E0.55596
G1 X161.28 Y86.724 E0.59802
G1 X161.983 Y87.291 E0.64008
G1 X162.633 Y87.917 E0.6821
G1 X163.226 Y88.599 E0.72418
G1 X163.756 Y89.33 E0.76622
G1 X164.219 Y90.105 E0.80826
G1 X164.612 Y90.918 E0.85031
G1 X164.931 Y91.763 E0.89237
G1 X165.175 Y92.633 E0.93444
G1 X165.34 Y93.521 E0.9765
G1 X165.419 Y94.297 E1.01282
G1 X165.437 Y94.58 E1.02602
G1 X165.458 Y95.226 E1.05612
G1 X165.458 Y102.787 E1.40819
G1 X165.448 Y103.485 E1.44069
G1 X165.395 Y104.387 E1.48277
G1 X165.263 Y105.28 E1.5248
G1 X165.052 Y106.158 E1.56685
G1 X164.764 Y107.014 E1.6089
G1 X164.402 Y107.841 E1.65094
G1 X163.797 Y108.905 E1.70793
G1 X163.014 Y110.105 E1.77465
G1 X162.793 Y110.433 E1.79307
G1 X161.436 Y112.577 E1.91122
G1 X160.153 Y114.739 E2.02828
G1 X158.913 Y116.967 E2.14701
G1 X157.731 Y119.241 E2.26635
G1 X156.634 Y121.506 E2.38354
G1 X155.589 Y123.83 E2.50219
G1 X154.605 Y126.195 E2.62147
G1 X153.825 Y128.21 E2.72208
G1 X153.462 Y129.037 E2.76413
G1 X153.028 Y129.829 E2.80618
G1 X152.525 Y130.579 E2.84823
G1 X151.958 Y131.282 E2.89029
G1 X151.33 Y131.931 E2.93234
G1 X150.648 Y132.523 E2.97439
G1 X149.916 Y133.052 E3.01645
G1 X149.141 Y133.515 E3.05848
G1 X148.327 Y133.907 E3.10055
G1 X147.482 Y134.225 E3.14259
G1 X146.612 Y134.467 E3.18464
G1 X145.724 Y134.632 E3.2267
G1 X145.054 Y134.703 E3.25807
G1 X144.725 Y134.727 E3.27343
G1 X143.983 Y134.754 E3.30801
G1 X141.03 Y134.753 E3.44551
G1 X138.536 Y134.716 E3.56165
G1 X135.951 Y134.725 E3.68202
G1 X133.369 Y134.808 E3.80231
G1 X132.201 Y134.872 E3.85678
G1 X131.561 Y134.895 E3.8866
G1 X130.3 Y134.863 E3.94534
G1 X129.505 Y134.793 E3.9825
G1 X129.161 Y134.756 E3.99861
G1 X128.728 Y134.703 E4.01892
G1 X127.902 Y134.568 E4.0579
G1 X127.216 Y134.424 E4.09054
G1 X125.77 Y134.098 E4.15956
G1 X123.296 Y133.613 E4.27695
G1 X120.802 Y133.197 E4.39469
G1 X118.244 Y132.845 E4.51492
G1 X115.744 Y132.573 E4.63202
G1 X113.202 Y132.368 E4.75077
G1 X110.674 Y132.237 E4.86864
G1 X108.138 Y132.177 E4.98676
G1 X105.571 Y132.187 E5.10629
G1 X103.076 Y132.27 E5.22253
G1 X100.512 Y132.427 E5.34215
G1 X97.977 Y132.654 E5.46066
G1 X95.492 Y132.948 E5.57718
G1 X92.951 Y133.321 E5.69677
G1 X90.455 Y133.76 E5.81477
G1 X87.974 Y134.27 E5.93272
G1 X87.17 Y134.453 E5.97111
G1 X86.721 Y134.548 E5.99248
G1 X85.864 Y134.692 E6.03295
G1 X85.178 Y134.777 E6.06513
G1 X84.862 Y134.811 E6.07993
G1 X84.288 Y134.864 E6.10677
G1 X83.386 Y134.907 E6.14882
G1 X82.688 Y134.885 E6.18134
G1 X82.196 Y134.853 E6.2043
G1 X81.825 Y134.823 E6.22163
G1 X81.265 Y134.766 E6.24784
G1 X80.372 Y134.634 E6.28987
G1 X79.612 Y134.458 E6.3262
G1 X79.275 Y134.366 E6.34247
G1 X78.801 Y134.224 E6.36551
G1 X78.138 Y134.008 E6.39798
G1 X77.293 Y133.691 E6.44
G1 X76.272 Y133.186 E6.49304
G1 X75.49 Y132.738 E6.53501
G1 X75.165 Y132.541 E6.5527
G1 X74.414 Y132.039 E6.59476
G1 X73.583 Y131.359 E6.64476
G1 X73.381 Y131.175 E6.65749
G1 X73.023 Y130.832 E6.68057
G1 X72.531 Y130.338 E6.71304
G1 X71.923 Y129.67 E6.7551
G1 X71.376 Y128.952 E6.79713
G1 X70.894 Y128.187 E6.83923
G1 X70.483 Y127.384 E6.88123
G1 X70.144 Y126.547 E6.92328
G1 X69.88 Y125.683 E6.96535
G1 X69.694 Y124.799 E7.00742
G1 X69.587 Y123.902 E7.04948
G1 X69.558 Y123.093 E7.08717
G1 X69.566 Y121.804 E7.1472
G1 X69.58 Y121.273 E7.17193
G1 X69.551 Y117.645 E7.34087
G1 X69.584 Y116.742 E7.38295
G1 X69.697 Y115.846 E7.425
G1 X69.888 Y114.963 E7.46707
G1 X70.157 Y114.101 E7.50911
G1 X70.501 Y113.266 E7.55116
G1 X70.917 Y112.465 E7.59319
G1 X71.403 Y111.703 E7.63528
G1 X71.954 Y110.988 E7.67731
G1 X72.383 Y110.511 E7.70718
G1 X72.562 Y110.324 E7.71924
G1 X72.863 Y110.021 E7.73912
G1 X73.372 Y109.532 E7.77199
G1 X74.051 Y108.936 E7.81406
G1 X74.952 Y108.289 E7.86571
G1 X75.162 Y108.155 E7.87731
G1 X75.551 Y107.919 E7.8985
G1 X76.168 Y107.563 E7.93167
G1 X76.97 Y107.147 E7.97373
G1 X77.762 Y106.819 E8.01365
G1 X77.931 Y106.757 E8.02203
G1 X80.444 Y105.806 E8.14715
G1 X82.751 Y104.858 E8.26329
G1 X85.097 Y103.815 E8.38284
G1 X87.395 Y102.714 E8.50149
G1 X89.627 Y101.567 E8.61834
G1 X91.871 Y100.332 E8.73761
G1 X94.074 Y99.037 E8.8566
G1 X96.207 Y97.7 E8.97382
G1 X98.307 Y96.3 E9.09134
G1 X100.401 Y94.817 E9.21083
G1 X102.449 Y93.278 E9.33011
G1 X104.395 Y91.727 E9.44599
G1 X106.346 Y90.079 E9.56491
G1 X108.255 Y88.371 E9.68418
G1 X109.021 Y87.656 E9.73298
G1 X109.319 Y87.387 E9.75167
G1 X110.016 Y86.812 E9.79374
G1 X110.76 Y86.301 E9.83577
G1 X111.547 Y85.857 E9.87785
G1 X112.37 Y85.486 E9.91988
G1 X113.223 Y85.188 E9.96196
G1 X114.099 Y84.967 E10.00402
G1 X114.991 Y84.825 E10.04608
G1 X115.476 Y84.781 E10.06876
G1 X115.806 Y84.759 E10.08416
G1 X116.477 Y84.736 E10.11542
G1 X118.004 Y84.736 E10.18653
G1 X118.662 Y84.745 E10.21717
G1 X119.545 Y84.795 E10.25835
G1 X119.709 Y84.812 E10.26603
G1 X122.345 Y85.035 E10.38921
G1 X124.827 Y85.177 E10.50497
G1 X127.387 Y85.249 E10.62422
G1 X129.919 Y85.249 E10.74212
G1 X132.461 Y85.177 E10.86054
G1 X134.999 Y85.034 E10.9789
G1 X137.981 Y84.782 E11.11825
G1 X138.519 Y84.751 E11.14335
G1 X138.837 Y84.741 E11.15816
G1 X139.156 Y84.736 E11.17302
G1 X145.082 Y84.735 E11.44896
G1 X146.897 Y84.741 E11.53347
G1 X148.859 Y84.736 E11.62483
G0 F6000 X148.862 Y84.336
G1 F1200 X151.617 Y84.357 E11.75312
G1 X152.496 Y84.341 E11.79405
G1 X153.244 Y84.336 E11.82888
G1 X154.728 Y84.336 E11.89799
G1 X155.385 Y84.345 E11.92858
G1 X156.304 Y84.398 E11.97145
G1 X157.215 Y84.53 E12.01431
G1 X158.112 Y84.74 E12.05721
G1 X158.986 Y85.028 E12.10006
G1 X159.833 Y85.391 E12.14296
G1 X160.644 Y85.825 E12.1858
G1 X161.415 Y86.328 E12.22866
G1 X162.139 Y86.897 E12.27154
G1 X162.812 Y87.526 E12.31443
G1 X163.427 Y88.211 E12.3573
G1 X163.98 Y88.947 E12.40017
G1 X164.468 Y89.728 E12.44305
G1 X164.885 Y90.548 E12.48588
G1 X165.231 Y91.401 E12.52875
G1 X165.5 Y92.282 E12.57164
G1 X165.693 Y93.182 E12.6145
G1 X165.819 Y94.271 E12.66555
G1 X165.837 Y94.554 E12.67875
G1 X165.858 Y95.226 E12.71006
G1 X165.858 Y102.793 E13.06241
G1 X165.848 Y103.491 E13.09491
G1 X165.795 Y104.41 E13.13778
G1 X165.662 Y105.321 E13.18065
G1 X165.451 Y106.217 E13.22351
G1 X165.163 Y107.091 E13.26636
G1 X164.8 Y107.938 E13.30927
G1 X164.132 Y109.123 E13.37261
G1 X163.346 Y110.328 E13.4396
G1 X163.131 Y110.648 E13.45755
G1 X161.775 Y112.789 E13.57556
G1 X160.504 Y114.931 E13.69154
G1 X159.26 Y117.167 E13.81068
G1 X158.089 Y119.42 E13.92892
G1 X157.001 Y121.665 E14.04508
G1 X155.946 Y124.012 E14.1649
G1 X154.981 Y126.33 E14.28182
G1 X154.198 Y128.354 E14.38287
G1 X153.829 Y129.198 E14.42576
G1 X153.388 Y130.006 E14.46863
G1 X152.879 Y130.773 E14.51149
G1 X152.305 Y131.493 E14.55437
G1 X151.67 Y132.16 E14.59725
G1 X150.98 Y132.77 E14.64013
G1 X150.24 Y133.317 E14.68298
G1 X149.456 Y133.798 E14.72581
G1 X148.632 Y134.21 E14.76871
G1 X147.776 Y134.548 E14.81156
G1 X146.893 Y134.811 E14.85446
G1 X145.991 Y134.996 E14.89734
G1 X145.083 Y135.102 E14.93991
G1 X144.754 Y135.126 E14.95527
G1 X143.983 Y135.154 E14.99119
G1 X141.024 Y135.153 E15.12898
G1 X138.531 Y135.116 E15.24507
G1 X135.966 Y135.125 E15.36451
G1 X133.403 Y135.207 E15.48392
G1 X132.216 Y135.272 E15.53927
G1 X131.576 Y135.295 E15.56909
G1 X130.265 Y135.261 E15.63016
G1 X129.47 Y135.191 E15.66732
G1 X129.112 Y135.153 E15.68408
G1 X128.679 Y135.1 E15.70439
G1 X127.821 Y134.96 E15.74488
G1 X127.128 Y134.814 E15.77785
G1 X125.711 Y134.494 E15.8455
G1 X123.225 Y134.007 E15.96345
G1 X120.718 Y133.589 E16.0818
G1 X118.216 Y133.245 E16.1994
G1 X115.701 Y132.971 E16.3172
G1 X113.185 Y132.768 E16.43474
G1 X110.643 Y132.636 E16.55327
G1 X108.13 Y132.577 E16.67031
G1 X105.587 Y132.587 E16.78873
G1 X103.076 Y132.67 E16.90571
G1 X100.573 Y132.823 E17.02248
G1 X98.023 Y133.052 E17.1417
G1 X95.526 Y133.348 E17.25878
G1 X93.013 Y133.717 E17.37705
G1 X90.527 Y134.154 E17.49459
G1 X88.028 Y134.667 E17.61338
G1 X87.253 Y134.844 E17.65039
G1 X86.804 Y134.939 E17.67176
G1 X85.913 Y135.089 E17.71384
G1 X85.227 Y135.174 E17.74602
G1 X84.899 Y135.209 E17.76138
G1 X84.325 Y135.262 E17.78823
G1 X83.405 Y135.307 E17.83112
G1 X82.662 Y135.285 E17.86573
G1 X82.17 Y135.253 E17.88869
G1 X81.785 Y135.221 E17.90667
G1 X81.225 Y135.164 E17.93289
G1 X80.314 Y135.031 E17.97576
G1 X79.506 Y134.844 E18.01437
G1 X79.169 Y134.752 E18.03064
G1 X78.677 Y134.605 E18.05455
G1 X78.014 Y134.389 E18.08702
G1 X77.152 Y134.066 E18.12988
G1 X76.075 Y133.534 E18.18582
G1 X75.282 Y133.08 E18.22837
G1 X74.957 Y132.883 E18.24606
G1 X74.192 Y132.372 E18.2889
G1 X73.314 Y131.654 E18.34171
G1 X73.112 Y131.47 E18.35444
G1 X72.739 Y131.114 E18.37845
G1 X72.247 Y130.62 E18.41091
G1 X71.627 Y129.94 E18.45376
G1 X71.067 Y129.209 E18.49664
G1 X70.574 Y128.432 E18.53949
G1 X70.149 Y127.615 E18.58237
G1 X69.797 Y126.764 E18.62525
G1 X69.52 Y125.886 E18.66812
G1 X69.32 Y124.988 E18.71096
G1 X69.199 Y124.075 E18.75385
G1 X69.158 Y123.091 E18.7997
G1 X69.166 Y121.794 E18.8601
G1 X69.18 Y121.266 E18.88469
G1 X69.151 Y117.648 E19.05317
G1 X69.184 Y116.728 E19.09604
G1 X69.296 Y115.814 E19.13891
G1 X69.488 Y114.913 E19.18181
G1 X69.757 Y114.033 E19.22466
G1 X70.101 Y113.179 E19.26753
G1 X70.518 Y112.358 E19.31041
G1 X71.004 Y111.576 E19.35328
G1 X71.557 Y110.84 E19.39615
G1 X72.094 Y110.234 E19.43385
G1 X72.273 Y110.047 E19.4459
G1 X72.586 Y109.733 E19.46655
G1 X73.095 Y109.244 E19.49941
G1 X73.786 Y108.636 E19.54227
G1 X74.737 Y107.952 E19.59682
G1 X74.947 Y107.818 E19.60842
G1 X75.352 Y107.573 E19.63046
G1 X75.969 Y107.217 E19.66363
G1 X76.785 Y106.792 E19.70647
G1 X77.625 Y106.443 E19.74882
G1 X77.803 Y106.378 E19.75765
G1 X80.298 Y105.434 E19.88186
G1 X82.616 Y104.481 E19.99857
G1 X84.912 Y103.461 E20.11555
G1 X87.205 Y102.362 E20.23395
G1 X89.458 Y101.204 E20.35191
G1 X91.681 Y99.981 E20.47005
G1 X93.854 Y98.703 E20.58744
G1 X95.978 Y97.372 E20.70416
G1 X98.1 Y95.957 E20.82292
G1 X100.152 Y94.503 E20.94002
G1 X102.187 Y92.974 E21.05855
G1 X104.171 Y91.393 E21.17668
G1 X106.067 Y89.792 E21.29223
G1 X107.998 Y88.064 E21.41289
G1 X108.753 Y87.359 E21.46099
G1 X109.051 Y87.09 E21.47968
G1 X109.761 Y86.503 E21.52258
G1 X110.519 Y85.98 E21.56546
G1 X111.319 Y85.525 E21.60831
G1 X112.156 Y85.141 E21.65119
G1 X113.023 Y84.831 E21.69407
G1 X113.913 Y84.598 E21.73691
G1 X114.821 Y84.442 E21.77981
G1 X115.449 Y84.381 E21.80919
G1 X115.779 Y84.359 E21.82459
G1 X116.476 Y84.336 E21.85706
G1 X118.009 Y84.336 E21.92844
G1 X118.667 Y84.345 E21.95908
G1 X119.585 Y84.397 E22.0019
G1 X119.781 Y84.417 E22.01107
G1 X122.329 Y84.633 E22.13014
G1 X124.862 Y84.777 E22.24828
G1 X127.398 Y84.849 E22.36642
G1 X129.907 Y84.849 E22.48325
G1 X132.464 Y84.777 E22.60236
G1 X134.976 Y84.635 E22.71951
G1 X137.947 Y84.384 E22.85835
G1 X138.507 Y84.351 E22.88447
G1 X138.825 Y84.341 E22.89928
G1 X139.156 Y84.336 E22.9147
G1 X145.082 Y84.335 E23.19064
G1 X146.895 Y84.341 E23.27506
G1 X148.862 Y84.336 E23.36665
G0 F6000 X148.865 Y83.936
G1 F1200 X151.612 Y83.957 E23.49457
G1 X152.493 Y83.941 E23.5356
G1 X153.244 Y83.936 E23.57057
G1 X154.734 Y83.936 E23.63995
G1 X155.391 Y83.945 E23.67054
G1 X156.327 Y83.998 E23.7142
G1 X157.256 Y84.13 E23.75789
G1 X158.169 Y84.341 E23.80152
G1 X159.062 Y84.629 E23.84521
G1 X159.927 Y84.992 E23.8889
G1 X160.757 Y85.428 E23.93255
G1 X161.548 Y85.932 E23.97623
G1 X162.293 Y86.502 E24.0199
G1 X162.986 Y87.134 E24.06358
G1 X163.623 Y87.822 E24.10724
G1 X164.199 Y88.562 E24.1509
G1 X164.71 Y89.348 E24.19456
G1 X165.153 Y90.176 E24.23828
G1 X165.523 Y91.037 E24.28192
G1 X165.818 Y91.927 E24.32558
G1 X166.037 Y92.839 E24.36925
G1 X166.177 Y93.767 E24.41295
G1 X166.218 Y94.246 E24.43534
G1 X166.236 Y94.529 E24.44854
G1 X166.258 Y95.226 E24.48102
G1 X166.258 Y102.799 E24.83365
G1 X166.248 Y103.497 E24.86615
G1 X166.194 Y104.433 E24.90981
G1 X166.062 Y105.361 E24.95345
G1 X165.85 Y106.275 E24.99714
G1 X165.561 Y107.167 E25.0408
G1 X165.198 Y108.032 E25.08449
G1 X164.762 Y108.862 E25.12814
G1 X164.467 Y109.341 E25.15434
G1 X163.468 Y110.864 E25.23915
G1 X162.114 Y113.002 E25.35699
G1 X160.848 Y115.135 E25.47249
G1 X159.606 Y117.367 E25.59142
G1 X158.46 Y119.573 E25.70718
G1 X157.362 Y121.839 E25.82443
G1 X156.323 Y124.151 E25.94246
G1 X155.344 Y126.501 E26.061
G1 X154.571 Y128.499 E26.16075
G1 X154.196 Y129.358 E26.2044
G1 X153.749 Y130.183 E26.24809
G1 X153.233 Y130.966 E26.29175
G1 X152.652 Y131.702 E26.33542
G1 X152.011 Y132.387 E26.3791
G1 X151.314 Y133.014 E26.42275
G1 X150.565 Y133.58 E26.46647
G1 X149.772 Y134.079 E26.5101
G1 X148.939 Y134.51 E26.55377
G1 X148.072 Y134.868 E26.59745
G1 X147.177 Y135.15 E26.64114
G1 X146.262 Y135.356 E26.68481
G1 X145.112 Y135.501 E26.73879
G1 X144.783 Y135.525 E26.75415
G1 X143.983 Y135.554 E26.79142
G1 X141.018 Y135.553 E26.92949
G1 X138.527 Y135.516 E27.04549
G1 X135.945 Y135.526 E27.16572
G1 X133.438 Y135.605 E27.28251
G1 X132.23 Y135.672 E27.33885
G1 X131.59 Y135.695 E27.36867
G1 X130.23 Y135.66 E27.43202
G1 X129.435 Y135.59 E27.46918
G1 X129.064 Y135.551 E27.48655
G1 X128.631 Y135.498 E27.50686
G1 X127.74 Y135.351 E27.54891
G1 X127.04 Y135.205 E27.58221
G1 X125.617 Y134.884 E27.65014
G1 X123.114 Y134.393 E27.76891
G1 X120.67 Y133.986 E27.88428
G1 X118.156 Y133.64 E28.00244
G1 X115.698 Y133.372 E28.11758
G1 X113.133 Y133.166 E28.2374
G1 X110.648 Y133.037 E28.35327
G1 X108.122 Y132.977 E28.47092
G1 X105.601 Y132.987 E28.58831
G1 X103.08 Y133.07 E28.70576
G1 X100.598 Y133.222 E28.82155
G1 X98.07 Y133.449 E28.93974
G1 X95.559 Y133.746 E29.05748
G1 X93.103 Y134.107 E29.17307
G1 X90.578 Y134.551 E29.29244
G1 X88.15 Y135.049 E29.40786
G1 X87.336 Y135.236 E29.44675
G1 X86.887 Y135.331 E29.46812
G1 X85.963 Y135.486 E29.51174
G1 X85.277 Y135.571 E29.54393
G1 X84.935 Y135.607 E29.55994
G1 X84.361 Y135.66 E29.58678
G1 X83.425 Y135.707 E29.63042
G1 X82.636 Y135.684 E29.66718
G1 X82.144 Y135.652 E29.69014
G1 X81.744 Y135.618 E29.70883
G1 X81.184 Y135.561 E29.73504
G1 X80.256 Y135.427 E29.7787
G1 X79.401 Y135.23 E29.81956
G1 X79.064 Y135.138 E29.83582
G1 X78.554 Y134.985 E29.86061
G1 X77.891 Y134.769 E29.89308
G1 X77.012 Y134.441 E29.93677
G1 X75.878 Y133.882 E29.99564
G1 X75.075 Y133.422 E30.03873
G1 X74.75 Y133.225 E30.05643
G1 X73.969 Y132.705 E30.10012
G1 X73.045 Y131.95 E30.15568
G1 X72.843 Y131.766 E30.1684
G1 X72.456 Y131.396 E30.19334
G1 X71.964 Y130.902 E30.2258
G1 X71.331 Y130.21 E30.26947
G1 X70.76 Y129.467 E30.3131
G1 X70.253 Y128.677 E30.35681
G1 X69.816 Y127.847 E30.40049
G1 X69.451 Y126.983 E30.44417
G1 X69.161 Y126.092 E30.4878
G1 X68.948 Y125.178 E30.5315
G1 X68.814 Y124.25 E30.57516
G1 X68.758 Y123.089 E30.62928
G1 X68.767 Y121.784 E30.69005
G1 X68.78 Y121.289 E30.71311
G1 X68.751 Y117.651 E30.88251
G1 X68.784 Y116.714 E30.92617
G1 X68.896 Y115.782 E30.96988
G1 X69.087 Y114.864 E31.01354
G1 X69.356 Y113.966 E31.05719
G1 X69.7 Y113.093 E31.10088
G1 X70.118 Y112.253 E31.14457
G1 X70.605 Y111.452 E31.18822
G1 X71.159 Y110.695 E31.2319
G1 X71.805 Y109.958 E31.27754
G1 X71.984 Y109.771 E31.28959
G1 X72.309 Y109.445 E31.31103
G1 X72.818 Y108.956 E31.34389
G1 X73.522 Y108.335 E31.38761
