;FLAVOR:Marlin
;TIME:6380
;Filament used: 3.10902m
;Layer height: 0.2
;MINX:91.038
;MINY:92.356
;MINZ:0.2
;MAXX:173.016
;MAXY:174.342
;MAXZ:6
;POSTPROCESSED
;Generated with Cura_SteamEngine 4.6.1
M140 S50
M105
M190 S50
M104 S200
M105
M109 S200
M82 ;absolute extrusion mode
; Ender 3 Custom Start G-code
G92 E0 ; Reset Extruder
G28 ; Home all axes
G1 Z2.0 F3000 ; Move Z Axis up little to prevent scratching of Heat Bed
G1 X0.1 Y20 Z0.3 F5000.0 ; Move to start position
G1 X0.1 Y200.0 Z0.3 F1500.0 E15 ; Draw the first line
G1 X0.4 Y200.0 Z0.3 F5000.0 ; Move to side a little
G1 X0.4 Y20 Z0.3 F1500.0 E30 ; Draw the second line
G92 E0 ; Reset Extruder
G1 Z2.0 F3000 ; Move Z Axis up little to prevent scratching of Heat Bed
G1 X5 Y20 Z0.3 F5000.0 ; Move over to prevent blob squish
G92 E0
G92 E0
G1 F2700 E-5
;LAYER_COUNT:30
;LAYER:0
M107
G0 F6000 X134.306 Y93.167 Z0.2
;TYPE:SKIRT
G1 F2700 E0
G1 F1200 X135.208 Y93.22 E0.03005
G1 X136.437 Y93.423 E0.07148
G1 X138.94 Y93.996 E0.15689
G1 X142.052 Y94.616 E0.26243
G1 X142.889 Y94.828 E0.29114
G1 X144.229 Y95.239 E0.33776
G1 X144.888 Y95.457 E0.36085
G1 X145.636 Y95.737 E0.38741
G1 X146.205 Y95.979 E0.40798
G1 X147.938 Y96.749 E0.47105
G1 X151.057 Y98.022 E0.5831
G1 X151.878 Y98.398 E0.61313
G1 X152.324 Y98.641 E0.63003
G1 X153.026 Y99.048 E0.65701
G1 X153.794 Y99.509 E0.68681
G1 X154.363 Y99.861 E0.70906
G1 X155.109 Y100.369 E0.73908
G1 X155.808 Y100.942 E0.76914
G1 X156.273 Y101.387 E0.79055
G1 X158.288 Y103.438 E0.88618
G1 X159.919 Y105.013 E0.96159
G1 X160.292 Y105.393 E0.9793
G1 X161.415 Y106.603 E1.03421
G1 X161.863 Y107.113 E1.05678
G1 X162.222 Y107.546 E1.07549
G1 X162.706 Y108.162 E1.10155
G1 X164.401 Y110.266 E1.19141
G1 X165.105 Y111.092 E1.22751
G1 X165.68 Y111.783 E1.25741
G1 X166.226 Y112.502 E1.28743
G1 X166.521 Y112.954 E1.30539
G1 X167.017 Y113.761 E1.33689
G1 X167.348 Y114.32 E1.3585
G1 X167.667 Y114.876 E1.37982
G1 X168.15 Y115.831 E1.41541
G1 X168.362 Y116.316 E1.43302
G1 X169.174 Y118.266 E1.50328
G1 X170.443 Y121.074 E1.60576
G1 X170.873 Y122.197 E1.64576
G1 X171.228 Y123.318 E1.68487
G1 X171.42 Y123.984 E1.70792
G1 X171.592 Y124.633 E1.73025
G1 X171.784 Y125.515 E1.76028
G1 X171.921 Y126.781 E1.80263
G1 X171.954 Y127.572 E1.82896
G1 X171.988 Y129.307 E1.88668
G1 X172.162 Y132.659 E1.99832
G1 X172.189 Y133.049 E2.01132
G1 X172.212 Y133.566 E2.02853
G1 X172.216 Y133.771 E2.03535
G1 X172.216 Y134.147 E2.04786
G1 X172.198 Y135.112 E2.07996
G1 X172.174 Y135.84 E2.10418
G1 X172.105 Y136.74 E2.13421
G1 X171.997 Y137.427 E2.15734
G1 X171.504 Y139.993 E2.24424
G1 X170.997 Y143.111 E2.34931
G1 X170.812 Y143.995 E2.37935
G1 X170.563 Y144.822 E2.40808
G1 X170.085 Y146.184 E2.45608
G1 X169.85 Y146.802 E2.47808
G1 X169.627 Y147.342 E2.49751
G1 X169.191 Y148.316 E2.533
G1 X168.158 Y150.716 E2.6199
G1 X167.484 Y152.399 E2.6802
G1 X167.374 Y152.66 E2.68962
G1 X166.987 Y153.476 E2.71966
G1 X166.754 Y153.893 E2.73555
G1 X166.09 Y154.996 E2.77837
G1 X165.683 Y155.642 E2.80376
G1 X165.168 Y156.384 E2.83381
G1 X164.73 Y156.921 E2.85685
G1 X163.131 Y158.748 E2.93761
G1 X161.987 Y160.147 E2.99771
G1 X161.171 Y161.123 E3.04003
G1 X160.78 Y161.565 E3.05965
G1 X159.987 Y162.409 E3.09817
G1 X159.753 Y162.65 E3.10934
G1 X159.154 Y163.247 E3.13747
G1 X158.487 Y163.855 E3.16749
G1 X157.699 Y164.45 E3.20033
G1 X155.456 Y165.979 E3.29062
G1 X153.72 Y167.228 E3.36175
G1 X153.197 Y167.614 E3.38337
G1 X152.298 Y168.207 E3.41919
G1 X152.008 Y168.377 E3.43037
G1 X151.675 Y168.563 E3.44306
G1 X150.834 Y169.014 E3.4748
G1 X150.214 Y169.336 E3.49803
G1 X149.395 Y169.716 E3.52806
G1 X148.929 Y169.895 E3.54467
G1 X148.457 Y170.061 E3.56131
G1 X146.461 Y170.727 E3.63129
G1 X144.079 Y171.599 E3.71566
G1 X142.21 Y172.304 E3.7821
G1 X141.498 Y172.557 E3.80723
G1 X140.635 Y172.822 E3.83726
G1 X139.751 Y173.009 E3.86731
G1 X138.711 Y173.127 E3.90212
G1 X138.245 Y173.154 E3.91765
G1 X136.082 Y173.25 E3.98966
G1 X133.68 Y173.424 E4.06976
G1 X132.703 Y173.508 E4.10237
G1 X131.595 Y173.542 E4.13924
G1 X131.097 Y173.527 E4.15582
G1 X130.018 Y173.463 E4.19177
G1 X129.321 Y173.41 E4.21502
G1 X128.752 Y173.35 E4.23405
G1 X127.593 Y173.195 E4.27294
G1 X126.864 Y173.087 E4.29745
G1 X124.318 Y172.786 E4.38272
G1 X122.728 Y172.634 E4.43584
G1 X121.834 Y172.509 E4.46587
G1 X120.954 Y172.304 E4.49592
G1 X120.014 Y171.991 E4.52887
G1 X119.075 Y171.627 E4.56237
G1 X118.744 Y171.492 E4.57426
G1 X118.086 Y171.21 E4.59807
G1 X117.331 Y170.849 E4.6259
G1 X116.575 Y170.449 E4.65435
G1 X114.259 Y169.262 E4.74091
G1 X113.393 Y168.848 E4.77283
G1 X112.499 Y168.406 E4.806
G1 X111.526 Y167.856 E4.84318
G1 X110.8 Y167.39 E4.87187
G1 X110.257 Y167.029 E4.89356
G1 X109.674 Y166.631 E4.91704
G1 X108.99 Y166.121 E4.94541
G1 X108.396 Y165.636 E4.97092
G1 X107.252 Y164.677 E5.02057
G1 X105.23 Y163.077 E5.10633
G1 X104.591 Y162.58 E5.13325
G1 X103.903 Y161.995 E5.16329
G1 X103.259 Y161.338 E5.19389
G1 X102.349 Y160.319 E5.23933
G1 X101.914 Y159.808 E5.26165
G1 X101.226 Y158.902 E5.29949
G1 X100.95 Y158.493 E5.3159
G1 X99.517 Y156.425 E5.39958
G1 X98.693 Y155.316 E5.44553
G1 X97.893 Y154.201 E5.49118
G1 X97.4 Y153.445 E5.52119
G1 X97.029 Y152.759 E5.54713
G1 X96.561 Y151.808 E5.58239
G1 X96.406 Y151.479 E5.59448
G1 X95.97 Y150.496 E5.63025
G1 X95.702 Y149.853 E5.65342
G1 X94.234 Y146.508 E5.77492
G1 X93.704 Y145.361 E5.81694
G1 X93.362 Y144.525 E5.84698
G1 X93.175 Y143.951 E5.86706
G1 X92.789 Y142.618 E5.91322
G1 X92.59 Y141.85 E5.93961
G1 X92.402 Y140.967 E5.96963
G1 X92.279 Y139.844 E6.00721
G1 X92.192 Y138.234 E6.06084
G1 X91.991 Y135.446 E6.15381
G1 X91.875 Y134.089 E6.1991
G1 X91.838 Y133.166 E6.22983
G1 X91.85 Y131.758 E6.27666
G1 X91.874 Y131.037 E6.30065
G1 X91.944 Y130.136 E6.33071
G1 X92.135 Y129.056 E6.36719
G1 X92.435 Y127.781 E6.41075
G1 X92.508 Y127.496 E6.42054
G1 X93.067 Y124.97 E6.50659
G1 X93.4 Y123.277 E6.56398
G1 X93.613 Y122.4 E6.59399
G1 X93.789 Y121.853 E6.61311
G1 X94.31 Y120.389 E6.66479
G1 X95.02 Y118.547 E6.73045
G1 X95.922 Y116.104 E6.81706
G1 X96.505 Y114.4 E6.87696
G1 X96.835 Y113.56 E6.90698
G1 X97.278 Y112.679 E6.93978
G1 X97.779 Y111.797 E6.97352
G1 X98.062 Y111.32 E6.99196
G1 X98.432 Y110.717 E7.0155
G1 X98.938 Y109.969 E7.04553
G1 X99.541 Y109.232 E7.0772
G1 X101.261 Y107.319 E7.16277
G1 X102.309 Y106.077 E7.21682
G1 X103.234 Y105.001 E7.26401
G1 X103.57 Y104.629 E7.28068
G1 X104.105 Y104.067 E7.30649
G1 X104.542 Y103.624 E7.32719
G1 X105.034 Y103.135 E7.35026
G1 X105.702 Y102.528 E7.38028
G1 X106.421 Y101.982 E7.41031
G1 X107.064 Y101.571 E7.43569
G1 X107.596 Y101.259 E7.4562
G1 X109.791 Y99.94 E7.54138
G1 X110.763 Y99.315 E7.57981
G1 X111.638 Y98.767 E7.61415
G1 X111.915 Y98.6 E7.62491
G1 X113.108 Y97.91 E7.67075
G1 X113.772 Y97.549 E7.69588
G1 X114.584 Y97.153 E7.72593
G1 X115.04 Y96.968 E7.7423
G1 X115.284 Y96.876 E7.75097
G1 X117.788 Y95.905 E7.8403
G1 X120.293 Y94.851 E7.93069
G1 X120.863 Y94.636 E7.95095
G1 X122.346 Y94.139 E8.00297
G1 X123.059 Y93.919 E8.02779
G1 X123.933 Y93.692 E8.05782
G1 X124.823 Y93.542 E8.08784
G1 X125.758 Y93.471 E8.11903
G1 X128.265 Y93.395 E8.20245
G1 X130.853 Y93.247 E8.28867
G1 X131.723 Y93.188 E8.31767
G1 X132.223 Y93.167 E8.33432
G1 X132.9 Y93.156 E8.35684
G1 X133.608 Y93.157 E8.38039
G1 X134.306 Y93.167 E8.4036
G0 F6000 X134.312 Y92.767
G1 F1200 X135.231 Y92.82 E8.43422
G1 X136.527 Y93.034 E8.47791
G1 X139.009 Y93.603 E8.5626
G1 X142.134 Y94.225 E8.66858
G1 X143.003 Y94.445 E8.69839
G1 X144.355 Y94.859 E8.74542
G1 X145.014 Y95.077 E8.76851
G1 X145.791 Y95.369 E8.79612
G1 X146.368 Y95.613 E8.81695
G1 X148.116 Y96.39 E8.88058
G1 X151.207 Y97.652 E8.99162
G1 X152.045 Y98.034 E9.02225
G1 X152.524 Y98.295 E9.0404
G1 X153.231 Y98.704 E9.06756
G1 X154.005 Y99.169 E9.0976
G1 X154.574 Y99.521 E9.11985
G1 X155.335 Y100.038 E9.15045
G1 X156.048 Y100.62 E9.18106
G1 X156.559 Y101.107 E9.20454
G1 X158.587 Y103.172 E9.3008
G1 X160.197 Y104.726 E9.37523
G1 X160.585 Y105.12 E9.39362
G1 X161.716 Y106.339 E9.44893
G1 X162.164 Y106.849 E9.4715
G1 X162.537 Y107.299 E9.49095
G1 X163.039 Y107.938 E9.51797
G1 X164.701 Y110.001 E9.60608
G1 X165.412 Y110.836 E9.64256
G1 X165.987 Y111.527 E9.67246
G1 X166.545 Y112.259 E9.70307
G1 X166.862 Y112.744 E9.72235
G1 X167.361 Y113.556 E9.75404
G1 X167.695 Y114.121 E9.77587
G1 X168.014 Y114.677 E9.79719
G1 X168.516 Y115.669 E9.83417
G1 X168.731 Y116.162 E9.85206
G1 X169.531 Y118.085 E9.92133
G1 X170.808 Y120.909 E10.02442
G1 X171.254 Y122.076 E10.06597
G1 X171.609 Y123.197 E10.10508
G1 X171.806 Y123.882 E10.12879
G1 X171.978 Y124.531 E10.15112
G1 X172.175 Y125.43 E10.18173
G1 X172.321 Y126.763 E10.22633
G1 X172.354 Y127.564 E10.25299
G1 X172.388 Y129.278 E10.31001
G1 X172.563 Y132.666 E10.42285
G1 X172.588 Y133.021 E10.43468
G1 X172.612 Y133.558 E10.45256
G1 X172.616 Y133.763 E10.45938
G1 X172.616 Y134.154 E10.47239
G1 X172.598 Y135.125 E10.50469
G1 X172.574 Y135.853 E10.52891
G1 X172.504 Y136.771 E10.55954
G1 X172.39 Y137.502 E10.58414
G1 X171.892 Y140.095 E10.67196
G1 X171.391 Y143.175 E10.77575
G1 X171.204 Y144.076 E10.80636
G1 X170.941 Y144.954 E10.83684
G1 X170.459 Y146.327 E10.88524
G1 X170.224 Y146.945 E10.90723
G1 X169.992 Y147.505 E10.92739
G1 X169.552 Y148.489 E10.96324
G1 X168.525 Y150.873 E11.04958
G1 X167.853 Y152.555 E11.10982
G1 X167.743 Y152.816 E11.11924
G1 X167.349 Y153.648 E11.14986
G1 X167.098 Y154.097 E11.16697
G1 X166.428 Y155.209 E11.21015
G1 X166.021 Y155.855 E11.23554
G1 X165.497 Y156.612 E11.26617
G1 X165.031 Y157.185 E11.29073
G1 X163.445 Y158.998 E11.37085
G1 X162.294 Y160.404 E11.43128
G1 X161.478 Y161.38 E11.4736
G1 X161.071 Y161.839 E11.494
G1 X160.278 Y162.683 E11.53252
G1 X160.036 Y162.933 E11.54409
G1 X159.437 Y163.53 E11.57222
G1 X158.757 Y164.151 E11.60285
G1 X157.924 Y164.781 E11.63758
G1 X155.693 Y166.302 E11.72739
G1 X153.958 Y167.55 E11.79848
G1 X153.435 Y167.936 E11.8201
G1 X152.501 Y168.552 E11.85731
G1 X152.211 Y168.722 E11.86849
G1 X151.865 Y168.916 E11.88168
G1 X151.019 Y169.369 E11.9136
G1 X150.399 Y169.691 E11.93684
G1 X149.564 Y170.079 E11.96746
G1 X149.063 Y170.272 E11.98532
G1 X148.584 Y170.44 E12.0022
G1 X146.621 Y171.096 E12.07104
G1 X144.198 Y171.982 E12.15685
G1 X142.344 Y172.681 E12.22275
G1 X141.632 Y172.934 E12.24788
G1 X140.752 Y173.204 E12.2785
G1 X139.852 Y173.397 E12.30911
G1 X138.735 Y173.526 E12.34651
G1 X138.263 Y173.553 E12.36223
G1 X136.128 Y173.648 E12.43332
G1 X133.666 Y173.827 E12.51542
G1 X132.737 Y173.906 E12.54643
G1 X131.585 Y173.942 E12.58476
G1 X131.076 Y173.926 E12.6017
G1 X130.651 Y173.904 E12.61585
G1 X129.987 Y173.861 E12.63799
G1 X129.29 Y173.808 E12.66124
G1 X128.7 Y173.747 E12.68096
G1 X127.535 Y173.591 E12.72006
G1 X126.829 Y173.487 E12.74379
G1 X124.277 Y173.185 E12.82926
G1 X122.69 Y173.033 E12.88229
G1 X121.778 Y172.905 E12.91292
G1 X120.881 Y172.699 E12.94353
G1 X119.87 Y172.364 E12.97896
G1 X118.931 Y172 E13.01245
G1 X118.586 Y171.86 E13.02483
G1 X117.928 Y171.578 E13.04864
G1 X117.144 Y171.203 E13.07755
G1 X116.385 Y170.801 E13.10612
G1 X114.069 Y169.614 E13.19268
G1 X113.216 Y169.206 E13.22412
G1 X112.322 Y168.764 E13.25729
G1 X111.31 Y168.193 E13.29594
G1 X110.579 Y167.724 E13.32483
G1 X110.032 Y167.36 E13.34668
G1 X109.449 Y166.962 E13.37016
G1 X108.738 Y166.432 E13.39966
G1 X108.139 Y165.943 E13.42537
G1 X107.009 Y164.996 E13.47441
G1 X104.915 Y163.339 E13.56323
G1 X104.345 Y162.896 E13.58724
G1 X103.644 Y162.3 E13.61784
G1 X102.961 Y161.605 E13.65025
G1 X102.045 Y160.578 E13.69602
G1 X101.61 Y160.067 E13.71834
G1 X100.894 Y159.125 E13.75769
G1 X100.649 Y158.762 E13.77226
G1 X99.177 Y156.637 E13.85824
G1 X98.368 Y155.549 E13.90333
G1 X97.568 Y154.434 E13.94898
G1 X97.065 Y153.664 E13.97957
G1 X96.67 Y152.935 E14.00714
G1 X96.202 Y151.984 E14.0424
G1 X96.041 Y151.642 E14.05497
G1 X95.601 Y150.65 E14.09106
G1 X95.353 Y150.054 E14.11253
G1 X93.853 Y146.637 E14.23665
G1 X93.341 Y145.529 E14.27725
G1 X92.991 Y144.677 E14.30789
G1 X92.791 Y144.063 E14.32936
G1 X92.492 Y143.044 E14.36468
G1 X92.402 Y142.719 E14.3759
G1 X92.203 Y141.951 E14.40229
G1 X92.011 Y141.05 E14.43293
G1 X91.88 Y139.865 E14.47258
G1 X91.795 Y138.3 E14.52471
G1 X91.593 Y135.48 E14.61874
G1 X91.477 Y134.123 E14.66404
G1 X91.438 Y133.163 E14.696
G1 X91.45 Y131.744 E14.7432
G1 X91.474 Y131.023 E14.76719
G1 X91.544 Y130.105 E14.79781
G1 X91.746 Y128.965 E14.83632
G1 X92.048 Y127.682 E14.88016
G1 X92.118 Y127.407 E14.8896
G1 X92.668 Y124.925 E14.97415
G1 X93.007 Y123.2 E15.03262
G1 X93.224 Y122.305 E15.06325
G1 X93.412 Y121.72 E15.08369
G1 X93.936 Y120.246 E15.13572
G1 X94.657 Y118.375 E15.20241
G1 X95.553 Y115.95 E15.2884
G1 X96.127 Y114.271 E15.34741
G1 X96.462 Y113.413 E15.37805
G1 X96.93 Y112.482 E15.41271
G1 X97.434 Y111.594 E15.44667
G1 X97.721 Y111.111 E15.46535
G1 X98.091 Y110.508 E15.48888
G1 X98.606 Y109.745 E15.5195
G1 X99.244 Y108.964 E15.55304
G1 X100.955 Y107.062 E15.63813
G1 X102.006 Y105.816 E15.69235
G1 X102.931 Y104.74 E15.73954
G1 X103.28 Y104.353 E15.75688
G1 X103.82 Y103.787 E15.78289
G1 X104.26 Y103.341 E15.80373
G1 X104.752 Y102.852 E15.8268
G1 X105.432 Y102.232 E15.85741
G1 X106.164 Y101.673 E15.88804
G1 X106.862 Y101.226 E15.91561
G1 X107.394 Y100.914 E15.93613
G1 X109.574 Y99.603 E16.02073
G1 X110.551 Y98.976 E16.05935
G1 X111.426 Y98.428 E16.09368
G1 X111.713 Y98.255 E16.10483
G1 X112.917 Y97.558 E16.1511
G1 X113.581 Y97.197 E16.17624
G1 X114.408 Y96.793 E16.20685
G1 X114.899 Y96.594 E16.22447
G1 X115.136 Y96.504 E16.2329
G1 X117.625 Y95.539 E16.32169
G1 X120.141 Y94.481 E16.41247
G1 X120.734 Y94.258 E16.43355
G1 X122.228 Y93.757 E16.48596
G1 X122.941 Y93.537 E16.51077
G1 X123.831 Y93.304 E16.54137
G1 X124.739 Y93.149 E16.57201
G1 X125.746 Y93.071 E16.6056
G1 X128.23 Y92.996 E16.68826
G1 X130.902 Y92.843 E16.77728
G1 X131.696 Y92.789 E16.80374
G1 X132.216 Y92.767 E16.82106
G1 X132.9 Y92.756 E16.84381
G1 X133.614 Y92.757 E16.86756
G1 X134.312 Y92.767 E16.89077
G0 F6000 X134.318 Y92.367
G1 F1200 X135.254 Y92.421 E16.92196
G1 X136.616 Y92.644 E16.96786
G1 X139.111 Y93.215 E17.05299
G1 X142.216 Y93.833 E17.15829
G1 X143.118 Y94.062 E17.18924
G1 X144.481 Y94.48 E17.23666
G1 X145.14 Y94.698 E17.25975
G1 X145.946 Y95 E17.28837
G1 X146.53 Y95.248 E17.30948
G1 X148.252 Y96.014 E17.37216
G1 X151.358 Y97.281 E17.48373
G1 X152.211 Y97.67 E17.51491
G1 X152.724 Y97.948 E17.53432
G1 X153.437 Y98.361 E17.56172
G1 X154.215 Y98.828 E17.59191
G1 X154.784 Y99.18 E17.61416
G1 X155.56 Y99.707 E17.64536
G1 X156.288 Y100.298 E17.67655
G1 X156.844 Y100.826 E17.70205
G1 X158.868 Y102.886 E17.7981
G1 X160.475 Y104.438 E17.87241
G1 X160.877 Y104.847 E17.89148
G1 X162.016 Y106.075 E17.94719
G1 X162.464 Y106.585 E17.96977
G1 X162.852 Y107.052 E17.98996
G1 X163.376 Y107.719 E18.01817
G1 X165.018 Y109.758 E18.10525
G1 X165.719 Y110.58 E18.14118
G1 X166.294 Y111.271 E18.17108
G1 X166.863 Y112.017 E18.20228
G1 X167.202 Y112.534 E18.22284
G1 X167.705 Y113.352 E18.25478
G1 X168.042 Y113.922 E18.27681
G1 X168.361 Y114.478 E18.29813
G1 X168.882 Y115.508 E18.33652
G1 X169.101 Y116.008 E18.35467
G1 X169.919 Y117.972 E18.42544
G1 X171.172 Y120.745 E18.52665
G1 X171.636 Y121.955 E18.56975
G1 X171.991 Y123.076 E18.60886
G1 X172.193 Y123.779 E18.63319
G1 X172.365 Y124.428 E18.65552
G1 X172.566 Y125.344 E18.68671
G1 X172.689 Y126.274 E18.71791
G1 X172.721 Y126.745 E18.73361
G1 X172.754 Y127.556 E18.76061
G1 X172.788 Y129.28 E18.81796
G1 X172.961 Y132.618 E18.92913
G1 X172.987 Y132.993 E18.94163
G1 X173.012 Y133.55 E18.96018
G1 X173.016 Y133.755 E18.967
G1 X173.016 Y134.161 E18.9805
G1 X172.998 Y135.138 E19.013
G1 X172.974 Y135.866 E19.03723
G1 X172.903 Y136.802 E19.06845
G1 X172.783 Y137.578 E19.09456
G1 X172.286 Y140.17 E19.18235
G1 X171.786 Y143.239 E19.28577
G1 X171.596 Y144.157 E19.31695
G1 X171.319 Y145.085 E19.34916
G1 X170.833 Y146.469 E19.39795
G1 X170.598 Y147.087 E19.41994
G1 X170.357 Y147.669 E19.44089
G1 X169.928 Y148.628 E19.47583
G1 X168.893 Y151.031 E19.56285
G1 X168.222 Y152.71 E19.62299
G1 X168.112 Y152.971 E19.63241
G1 X167.711 Y153.819 E19.66361
G1 X167.442 Y154.3 E19.68194
G1 X166.767 Y155.423 E19.72552
G1 X166.36 Y156.069 E19.75091
G1 X165.827 Y156.84 E19.78209
