;FLAVOR:Marlin
;TIME:4679
;Filament used: 3.5055m
;Layer height: 0.28
;MINX:76.514
;MINY:76.5
;MINZ:0.28
;MAXX:158.492
;MAXY:158.49
;MAXZ:5.88
;POSTPROCESSED
;Generated with Cura_SteamEngine 4.6.1
M140 S50
M105
M190 S50
M104 S200
M105
M109 S200
M82 ;absolute extrusion mode
G28
G29
G1 Z2.0 F3000 ; Move Z Axis up little to prevent scratching of Heat Bed
G1 X0.1 Y20 Z0.3 F5000.0 ; Move to start position
G1 X0.1 Y200.0 Z0.3 F1500.0 E15 ; Draw the first line
G1 X0.4 Y200.0 Z0.3 F5000.0 ; Move to side a little
G1 X0.4 Y20 Z0.3 F1500.0 E30 ; Draw the second line
G92 E0 ; Reset Extruder
G1 Z2.0 F3000 ; Move Z Axis up little to prevent scratching of Heat Bed
G1 X5 Y20 Z0.3 F5000.0 ; Move over to prevent blob squish
; Script based on an original created by tjjfvi (https://github.com/tjjfvi)
; An up-to-date version of the tjjfvi's original script can be found
; here:  https://csi.t6.fyi/
; Note - This script will only work in Cura V4.2 and above!
; --- Global Settings
; layer_height = 0.28
; smooth_spiralized_contours = True
; magic_mesh_surface_mode = normal
; machine_extruder_count = 1
; --- Single Extruder Settings
; speed_z_hop = 5
; retraction_amount = 5
; retraction_hop = 0.2
; retraction_hop_enabled = False
; retraction_enable = True
; retraction_speed = 45
; retraction_retract_speed = 45
; retraction_prime_speed = 45
; speed_travel = 200.0
G92 E0
G92 E0
G1 F2700 E-5
;LAYER_COUNT:21
;LAYER:0
M107
G0 F6000 X119.782 Y77.311 Z0.28
;TYPE:SKIRT
G1 F2700 E0
G1 F1200 X120.684 Y77.364 E0.04207
G1 X121.912 Y77.567 E0.10003
G1 X124.458 Y78.15 E0.22165
G1 X127.51 Y78.756 E0.36654
G1 X128.399 Y78.981 E0.40924
G1 X129.175 Y79.215 E0.44698
G1 X129.671 Y79.373 E0.47122
G1 X130.37 Y79.603 E0.50549
G1 X131.204 Y79.918 E0.547
G1 X131.617 Y80.096 E0.56794
G1 X133.493 Y80.927 E0.66348
G1 X136.541 Y82.17 E0.81676
G1 X137.741 Y82.754 E0.8789
G1 X138.515 Y83.199 E0.92047
G1 X139.267 Y83.651 E0.96133
G1 X139.838 Y84.004 E0.99258
G1 X140.584 Y84.512 E1.03461
G1 X141.282 Y85.085 E1.07666
G1 X141.752 Y85.534 E1.10693
G1 X143.767 Y87.586 E1.24084
G1 X145.42 Y89.183 E1.34787
G1 X145.792 Y89.562 E1.3726
G1 X146.88 Y90.735 E1.44709
G1 X147.338 Y91.256 E1.4794
G1 X147.702 Y91.695 E1.50595
G1 X148.225 Y92.361 E1.54538
G1 X149.876 Y94.41 E1.66791
G1 X150.575 Y95.23 E1.71808
G1 X151.155 Y95.927 E1.7603
G1 X151.702 Y96.646 E1.80237
G1 X152.002 Y97.105 E1.8279
G1 X152.514 Y97.94 E1.87351
G1 X152.803 Y98.429 E1.89996
G1 X153.145 Y99.023 E1.93188
G1 X153.662 Y100.051 E1.98546
G1 X153.848 Y100.483 E2.00736
G1 X154.638 Y102.382 E2.10313
G1 X155.921 Y105.219 E2.24812
G1 X156.354 Y106.353 E2.30464
G1 X156.801 Y107.785 E2.37449
G1 X156.895 Y108.125 E2.39092
G1 X157.068 Y108.778 E2.42237
G1 X157.26 Y109.66 E2.4644
G1 X157.397 Y110.925 E2.52365
G1 X157.43 Y111.716 E2.56052
G1 X157.464 Y113.451 E2.64132
G1 X157.638 Y116.803 E2.79761
G1 X157.665 Y117.193 E2.81582
G1 X157.688 Y117.71 E2.83991
G1 X157.692 Y117.915 E2.84946
G1 X157.692 Y118.291 E2.86697
G1 X157.674 Y119.257 E2.91196
G1 X157.65 Y119.984 E2.94583
G1 X157.581 Y120.884 E2.98786
G1 X157.474 Y121.565 E3.01996
G1 X156.969 Y124.204 E3.14507
G1 X156.471 Y127.261 E3.2893
G1 X156.287 Y128.145 E3.33134
G1 X156.051 Y128.933 E3.36964
G1 X155.652 Y130.083 E3.42632
G1 X155.341 Y130.909 E3.46742
G1 X155.104 Y131.484 E3.49638
G1 X154.681 Y132.428 E3.54455
G1 X153.63 Y134.874 E3.66851
G1 X152.922 Y136.635 E3.75689
G1 X152.548 Y137.457 E3.79894
G1 X152.242 Y138.015 E3.82858
G1 X151.8 Y138.761 E3.86895
G1 X151.537 Y139.188 E3.8923
G1 X151.148 Y139.802 E3.92615
G1 X150.368 Y140.873 E3.98784
G1 X150.063 Y141.233 E4.00981
G1 X148.636 Y142.862 E4.11066
G1 X147.439 Y144.325 E4.19868
G1 X146.646 Y145.271 E4.25615
G1 X146.26 Y145.705 E4.2832
G1 X145.442 Y146.575 E4.33881
G1 X145.217 Y146.807 E4.35385
G1 X144.636 Y147.387 E4.39208
G1 X143.97 Y147.996 E4.4341
G1 X143.176 Y148.596 E4.48044
G1 X140.898 Y150.149 E4.60882
G1 X139.122 Y151.427 E4.71071
G1 X138.69 Y151.746 E4.73571
G1 X137.833 Y152.314 E4.78359
G1 X137.524 Y152.497 E4.80031
G1 X137.157 Y152.704 E4.81993
G1 X136.307 Y153.16 E4.86484
G1 X135.684 Y153.483 E4.89752
G1 X134.864 Y153.863 E4.9396
G1 X134.405 Y154.039 E4.96249
G1 X133.933 Y154.205 E4.98579
G1 X131.937 Y154.871 E5.08377
G1 X129.555 Y155.743 E5.20189
G1 X127.686 Y156.448 E5.2949
G1 X126.974 Y156.701 E5.33008
G1 X126.111 Y156.966 E5.37212
G1 X125.227 Y157.153 E5.41419
G1 X124.172 Y157.272 E5.46363
G1 X123.716 Y157.298 E5.4849
G1 X121.554 Y157.395 E5.58567
G1 X119.172 Y157.567 E5.69688
G1 X118.17 Y157.653 E5.74371
G1 X116.846 Y157.68 E5.80537
G1 X116.104 Y157.645 E5.83996
G1 X115.494 Y157.607 E5.86842
G1 X114.797 Y157.554 E5.90097
G1 X114.227 Y157.494 E5.92766
G1 X113.122 Y157.346 E5.97957
G1 X112.438 Y157.245 E6.01176
G1 X109.829 Y156.935 E6.1341
G1 X108.207 Y156.779 E6.20998
G1 X107.313 Y156.654 E6.25201
G1 X106.434 Y156.449 E6.29404
G1 X105.494 Y156.136 E6.34017
G1 X104.537 Y155.765 E6.38797
G1 X104.216 Y155.635 E6.40409
G1 X103.563 Y155.356 E6.43716
G1 X102.785 Y154.984 E6.47731
G1 X102.078 Y154.608 E6.5146
G1 X99.763 Y153.419 E6.63578
G1 X98.869 Y152.992 E6.68192
G1 X97.975 Y152.55 E6.72836
G1 X97.015 Y152.008 E6.77969
G1 X96.294 Y151.547 E6.81954
G1 X95.713 Y151.161 E6.85202
G1 X95.163 Y150.786 E6.88302
G1 X94.477 Y150.274 E6.92287
G1 X93.945 Y149.841 E6.95481
G1 X92.695 Y148.794 E7.03074
G1 X90.018 Y146.686 E7.1894
G1 X89.334 Y146.096 E7.23146
G1 X88.737 Y145.485 E7.27124
G1 X87.825 Y144.463 E7.33502
G1 X87.387 Y143.948 E7.3665
G1 X86.713 Y143.062 E7.41834
G1 X86.427 Y142.64 E7.44208
G1 X84.971 Y140.54 E7.56106
G1 X84.164 Y139.452 E7.62414
G1 X83.378 Y138.359 E7.68683
G1 X82.884 Y137.603 E7.72888
G1 X82.504 Y136.902 E7.76601
G1 X82.025 Y135.927 E7.81659
G1 X81.873 Y135.603 E7.83326
G1 X81.446 Y134.641 E7.88227
G1 X81.211 Y134.076 E7.91076
G1 X79.71 Y130.649 E8.08497
G1 X79.181 Y129.508 E8.14353
G1 X78.838 Y128.672 E8.18561
G1 X78.646 Y128.084 E8.21441
G1 X78.349 Y127.069 E8.26366
G1 X78.265 Y126.762 E8.27848
G1 X78.066 Y125.994 E8.31542
G1 X77.878 Y125.111 E8.35746
G1 X77.755 Y123.988 E8.41006
G1 X77.669 Y122.396 E8.4843
G1 X77.467 Y119.59 E8.6153
G1 X77.351 Y118.233 E8.67871
G1 X77.314 Y117.31 E8.72173
G1 X77.326 Y115.902 E8.78729
G1 X77.35 Y115.181 E8.82088
G1 X77.42 Y114.28 E8.86297
G1 X77.612 Y113.196 E8.91423
G1 X78.026 Y111.451 E8.99774
G1 X78.78 Y107.911 E9.16627
G1 X78.869 Y107.451 E9.18809
G1 X79.08 Y106.573 E9.23014
G1 X79.25 Y106.039 E9.25623
G1 X79.795 Y104.51 E9.33181
G1 X80.463 Y102.779 E9.41821
G1 X81.399 Y100.251 E9.54373
G1 X81.991 Y98.522 E9.62883
G1 X82.321 Y97.682 E9.67086
G1 X82.774 Y96.785 E9.71765
G1 X83.281 Y95.897 E9.76526
G1 X83.499 Y95.533 E9.78502
G1 X83.899 Y94.878 E9.82076
G1 X84.403 Y94.129 E9.86279
G1 X85.02 Y93.373 E9.90823
G1 X86.714 Y91.489 E10.02621
G1 X87.785 Y90.221 E10.10349
G1 X88.71 Y89.145 E10.16956
G1 X89.038 Y88.782 E10.19235
G1 X89.59 Y88.201 E10.22966
G1 X90.018 Y87.768 E10.25801
G1 X90.51 Y87.279 E10.29031
G1 X91.178 Y86.672 E10.33234
G1 X91.897 Y86.126 E10.37438
G1 X92.544 Y85.713 E10.41012
G1 X93.023 Y85.432 E10.43598
G1 X95.276 Y84.079 E10.55835
G1 X96.224 Y83.47 E10.61082
G1 X97.11 Y82.915 E10.6595
G1 X97.383 Y82.75 E10.67436
G1 X98.585 Y82.054 E10.73903
G1 X99.249 Y81.693 E10.77422
G1 X100.061 Y81.297 E10.81629
G1 X100.56 Y81.096 E10.84134
G1 X100.77 Y81.018 E10.85177
G1 X103.236 Y80.062 E10.97493
G1 X105.339 Y79.172 E11.08126
G1 X105.787 Y78.988 E11.10381
G1 X106.366 Y78.77 E11.13262
G1 X107.399 Y78.419 E11.18342
G1 X107.845 Y78.276 E11.20523
G1 X108.529 Y78.065 E11.23856
G1 X109.403 Y77.837 E11.28062
G1 X110.294 Y77.688 E11.32268
G1 X111.071 Y77.623 E11.35899
G1 X111.456 Y77.606 E11.37694
G1 X113.755 Y77.539 E11.48403
G1 X116.341 Y77.39 E11.60465
G1 X117.177 Y77.334 E11.64366
G1 X117.663 Y77.313 E11.66631
G1 X118.427 Y77.3 E11.70189
G1 X119.084 Y77.301 E11.73249
G1 X119.782 Y77.311 E11.76499
G0 F6000 X119.788 Y76.911
G1 F1200 X120.707 Y76.964 E11.80785
G1 X122.001 Y77.177 E11.86892
G1 X124.526 Y77.755 E11.98954
G1 X127.591 Y78.364 E12.13504
G1 X128.515 Y78.598 E12.17943
G1 X129.796 Y78.993 E12.24185
G1 X130.495 Y79.223 E12.27611
G1 X131.361 Y79.551 E12.31923
G1 X131.779 Y79.731 E12.34043
G1 X133.628 Y80.55 E12.43459
G1 X136.692 Y81.799 E12.58866
G1 X137.528 Y82.184 E12.63152
G1 X137.939 Y82.407 E12.65329
G1 X138.721 Y82.856 E12.69528
G1 X139.477 Y83.311 E12.73637
G1 X140.048 Y83.664 E12.76763
G1 X140.809 Y84.181 E12.81047
G1 X141.523 Y84.763 E12.85336
G1 X142.037 Y85.253 E12.88642
G1 X144.048 Y87.301 E13.02008
G1 X145.698 Y88.895 E13.1269
G1 X146.085 Y89.289 E13.15262
G1 X147.18 Y90.47 E13.22761
G1 X147.638 Y90.991 E13.25991
G1 X148.017 Y91.448 E13.28756
G1 X148.531 Y92.104 E13.32637
G1 X150.194 Y94.166 E13.44972
G1 X150.883 Y94.974 E13.49916
G1 X151.463 Y95.671 E13.54138
G1 X152.021 Y96.403 E13.58424
G1 X152.343 Y96.896 E13.61166
G1 X152.858 Y97.736 E13.65754
G1 X153.149 Y98.229 E13.6842
G1 X153.491 Y98.823 E13.71611
G1 X154.029 Y99.892 E13.77184
G1 X154.217 Y100.329 E13.79399
G1 X155.007 Y102.228 E13.88976
G1 X156.285 Y105.054 E14.03418
G1 X156.736 Y106.233 E14.09296
G1 X157.089 Y107.352 E14.1476
G1 X157.282 Y108.022 E14.18007
G1 X157.455 Y108.675 E14.21152
G1 X157.651 Y109.575 E14.25441
G1 X157.797 Y110.907 E14.31681
G1 X157.83 Y111.708 E14.35414
G1 X157.864 Y113.422 E14.43396
G1 X158.039 Y116.81 E14.59193
G1 X158.064 Y117.165 E14.6085
G1 X158.088 Y117.702 E14.63353
G1 X158.092 Y117.907 E14.64308
G1 X158.092 Y118.298 E14.66129
G1 X158.074 Y119.27 E14.70656
G1 X158.05 Y119.997 E14.74043
G1 X157.98 Y120.915 E14.7833
G1 X157.867 Y121.64 E14.81746
G1 X157.363 Y124.271 E14.9422
G1 X156.866 Y127.325 E15.08628
G1 X156.679 Y128.226 E15.12913
G1 X156.43 Y129.063 E15.16979
G1 X156.132 Y129.931 E15.21252
G1 X156.026 Y130.224 E15.22703
G1 X155.715 Y131.05 E15.26813
G1 X155.469 Y131.648 E15.29824
G1 X155.032 Y132.624 E15.34803
G1 X154.003 Y135.018 E15.46937
G1 X153.293 Y136.784 E15.558
G1 X152.913 Y137.623 E15.60089
G1 X152.586 Y138.218 E15.6325
G1 X152.141 Y138.97 E15.67319
G1 X151.875 Y139.402 E15.69681
G1 X151.486 Y140.016 E15.73066
G1 X150.675 Y141.129 E15.79478
G1 X150.364 Y141.497 E15.81722
G1 X148.937 Y143.126 E15.91806
G1 X147.745 Y144.582 E16.00568
G1 X146.952 Y145.528 E16.06316
G1 X146.552 Y145.979 E16.09123
G1 X145.734 Y146.849 E16.14683
G1 X145.5 Y147.09 E16.16247
G1 X144.919 Y147.67 E16.2007
G1 X144.24 Y148.291 E16.24355
G1 X143.401 Y148.926 E16.29254
G1 X141.136 Y150.47 E16.42018
G1 X139.425 Y151.702 E16.51836
G1 X138.928 Y152.068 E16.5471
G1 X138.036 Y152.659 E16.59692
G1 X137.727 Y152.842 E16.61365
G1 X137.347 Y153.057 E16.63398
G1 X136.491 Y153.515 E16.67918
G1 X135.868 Y153.838 E16.71186
G1 X135.033 Y154.226 E16.75473
G1 X134.539 Y154.416 E16.77938
G1 X134.06 Y154.584 E16.80302
G1 X132.097 Y155.24 E16.89939
G1 X129.674 Y156.126 E17.01952
G1 X127.82 Y156.825 E17.11178
G1 X127.108 Y157.078 E17.14697
G1 X126.228 Y157.348 E17.18983
G1 X125.328 Y157.541 E17.23269
G1 X124.196 Y157.671 E17.28575
G1 X123.734 Y157.697 E17.30729
G1 X121.601 Y157.792 E17.40671
G1 X119.159 Y157.969 E17.52072
G1 X118.204 Y158.051 E17.56535
G1 X116.828 Y158.08 E17.62944
G1 X116.079 Y158.045 E17.66436
G1 X115.463 Y158.005 E17.6931
G1 X114.766 Y157.952 E17.72565
G1 X114.174 Y157.891 E17.75336
G1 X113.063 Y157.742 E17.80556
G1 X112.364 Y157.639 E17.83846
G1 X109.832 Y157.337 E17.95719
G1 X108.169 Y157.178 E18.03498
G1 X107.258 Y157.05 E18.07782
G1 X106.36 Y156.844 E18.12072
G1 X105.35 Y156.509 E18.17027
G1 X104.393 Y156.138 E18.21806
G1 X104.059 Y156.003 E18.23484
G1 X103.406 Y155.724 E18.2679
G1 X102.598 Y155.337 E18.30962
G1 X101.888 Y154.96 E18.34705
G1 X99.601 Y153.785 E18.46678
G1 X98.692 Y153.35 E18.5137
G1 X97.798 Y152.908 E18.56014
G1 X96.8 Y152.346 E18.61347
G1 X96.073 Y151.88 E18.65368
G1 X95.488 Y151.491 E18.68639
G1 X94.938 Y151.116 E18.71739
G1 X94.225 Y150.585 E18.75879
G1 X93.688 Y150.147 E18.79105
G1 X92.456 Y149.115 E18.86589
G1 X89.77 Y147 E19.02508
G1 X89.073 Y146.4 E19.0679
G1 X88.44 Y145.752 E19.11008
G1 X87.52 Y144.722 E19.17439
G1 X87.082 Y144.207 E19.20587
G1 X86.382 Y143.287 E19.2597
G1 X86.096 Y142.865 E19.28344
G1 X84.645 Y140.771 E19.40207
G1 X83.839 Y139.686 E19.465
G1 X83.053 Y138.593 E19.52769
G1 X82.549 Y137.823 E19.57054
G1 X82.145 Y137.078 E19.61001
G1 X81.666 Y136.103 E19.66059
G1 X81.508 Y135.766 E19.67792
G1 X81.077 Y134.795 E19.72739
G1 X80.861 Y134.276 E19.75356
G1 X79.329 Y130.779 E19.93134
G1 X78.818 Y129.676 E19.98794
G1 X78.468 Y128.824 E20.03083
G1 X78.263 Y128.196 E20.06159
G1 X77.878 Y126.863 E20.1262
G1 X77.679 Y126.095 E20.16314
G1 X77.487 Y125.194 E20.20604
G1 X77.356 Y124.009 E20.26155
G1 X77.271 Y122.444 E20.33453
G1 X77.069 Y119.624 E20.46618
G1 X76.953 Y118.267 E20.5296
G1 X76.914 Y117.307 E20.57434
G1 X76.926 Y115.888 E20.64042
G1 X76.95 Y115.167 E20.67401
G1 X77.02 Y114.249 E20.71688
G1 X77.223 Y113.105 E20.77098
G1 X77.629 Y111.388 E20.85313
G1 X78.394 Y107.798 E21.02405
G1 X78.476 Y107.375 E21.04412
G1 X78.691 Y106.48 E21.08698
G1 X78.873 Y105.907 E21.11497
G1 X79.283 Y104.736 E21.17274
G1 X79.422 Y104.366 E21.19115
G1 X80.086 Y102.645 E21.27704
G1 X81.016 Y100.133 E21.40177
G1 X81.612 Y98.393 E21.48741
G1 X81.948 Y97.535 E21.53032
G1 X82.426 Y96.587 E21.57976
G1 X82.938 Y95.692 E21.62777
G1 X83.158 Y95.324 E21.64773
G1 X83.558 Y94.669 E21.68347
G1 X84.071 Y93.905 E21.72632
G1 X84.722 Y93.106 E21.77431
G1 X86.439 Y91.196 E21.8939
G1 X87.482 Y89.96 E21.96921
G1 X88.407 Y88.884 E22.03528
G1 X88.747 Y88.507 E22.05892
G1 X89.305 Y87.92 E22.09663
G1 X89.736 Y87.485 E22.12515
G1 X90.228 Y86.996 E22.15745
G1 X90.908 Y86.376 E22.2003
G1 X91.64 Y85.817 E22.24318
G1 X92.342 Y85.368 E22.28199
G1 X92.794 Y85.103 E22.30638
G1 X95.045 Y83.751 E22.42865
G1 X96.012 Y83.131 E22.48214
G1 X96.898 Y82.576 E22.53082
G1 X97.182 Y82.404 E22.54628
G1 X98.394 Y81.702 E22.6115
G1 X99.058 Y81.341 E22.64669
G1 X99.885 Y80.937 E22.68955
G1 X100.42 Y80.721 E22.71642
G1 X100.634 Y80.641 E22.72706
G1 X103.088 Y79.69 E22.84961
G1 X105.187 Y78.802 E22.95573
G1 X105.635 Y78.618 E22.97828
G1 X106.237 Y78.392 E23.00822
G1 X107.276 Y78.038 E23.05933
G1 X107.727 Y77.894 E23.08138
G1 X108.411 Y77.683 E23.11471
G1 X109.302 Y77.45 E23.15759
G1 X110.21 Y77.295 E23.20049
G1 X111.052 Y77.223 E23.23984
G1 X111.444 Y77.207 E23.2581
G1 X113.685 Y77.141 E23.3625
G1 X116.391 Y76.986 E23.48871
G1 X117.15 Y76.935 E23.52413
G1 X117.655 Y76.913 E23.54767
G1 X118.427 Y76.9 E23.58362
G1 X119.09 Y76.901 E23.61449
G1 X119.788 Y76.911 E23.647
G0 F6000 X119.794 Y76.511
G1 F1200 X120.73 Y76.565 E23.69066
G1 X122.09 Y76.787 E23.75482
G1 X124.621 Y77.366 E23.87572
G1 X127.671 Y77.972 E24.02052
G1 X128.63 Y78.215 E24.06658
G1 X129.921 Y78.613 E24.12949
G1 X130.62 Y78.843 E24.16375
G1 X131.519 Y79.183 E24.20851
G1 X131.941 Y79.365 E24.22991
G1 X133.793 Y80.185 E24.32422
G1 X136.843 Y81.429 E24.4776
G1 X137.695 Y81.82 E24.52125
G1 X138.137 Y82.059 E24.54465
G1 X138.927 Y82.513 E24.58708
G1 X139.687 Y82.971 E24.62839
G1 X140.258 Y83.324 E24.65965
G1 X141.034 Y83.85 E24.70331
G1 X141.763 Y84.441 E24.747
G1 X142.323 Y84.973 E24.78297
G1 X144.348 Y87.035 E24.91754
G1 X145.976 Y88.608 E25.02296
G1 X146.377 Y89.017 E25.04963
G1 X147.481 Y90.206 E25.12518
G1 X147.939 Y90.727 E25.15748
G1 X148.332 Y91.201 E25.18615
G1 X148.875 Y91.893 E25.22711
G1 X150.476 Y93.88 E25.34593
G1 X151.19 Y94.718 E25.39719
G1 X151.77 Y95.415 E25.43941
G1 X152.339 Y96.161 E25.4831
G1 X152.683 Y96.686 E25.51233
G1 X153.202 Y97.532 E25.55854
G1 X153.496 Y98.029 E25.58543
G1 X153.838 Y98.623 E25.61735
G1 X154.396 Y99.732 E25.67516
G1 X154.586 Y100.176 E25.69764
G1 X155.36 Y102.036 E25.79145
G1 X156.65 Y104.889 E25.93725
G1 X157.117 Y106.113 E25.99825
G1 X157.47 Y107.232 E26.05289
G1 X157.668 Y107.92 E26.08622
G1 X157.841 Y108.573 E26.11768
G1 X158.042 Y109.489 E26.16135
G1 X158.165 Y110.419 E26.20503
G1 X158.197 Y110.889 E26.22697
G1 X158.23 Y111.7 E26.26476
G1 X158.264 Y113.424 E26.34505
G1 X158.437 Y116.762 E26.50069
G1 X158.463 Y117.137 E26.5182
G1 X158.488 Y117.694 E26.54416
G1 X158.492 Y117.899 E26.55371
G1 X158.492 Y118.305 E26.57261
G1 X158.474 Y119.283 E26.61816
G1 X158.45 Y120.01 E26.65203
